!!!!SEGMENT: pl-cz--iii-554--001-003_raszek-waclaw--missa-ex-c-laudamus.krn
!!!cenid: 17xx:1024
!!!COM: Raszek, Wacław
!!!COM-rismid: pe30020314
!!!CDT: <1848->1848
!!!CNT:
!!!OPR: Missa ex C
!!!OTL: Laudamus
!!!OMV: 003
!!!PDT: 1780
!!!AGN: Sacred; Mass
!!!SMS-siglum: PL-CZ
!!!SMS-shelfmark: III-554
!!!SMS-shelfwork: 001-003 M
!!!SMS-variant:
!!!SMS-altvar:
!!!NIFC-rismid: 300001043
!!!URL-scan: http://repozytorium.nifc.pl/skany/pl-cz-nut--iii-554
!!!ONB-nifc: UWAGA: części Mszy: Kyrie, Gloria, Laudamus, Qui tollis, Quoniam, Cum sancto spiritu, Credo, Et incarnatus, Et resurrexit, Sanctus, Benedictus, Agnus Dei, Dona nobis
!!!key: F
**kern	**kern	**dynam	**kern	**dynam	**kern	**dynam	**kern	**dynam	**kern	**text	**dynam	**kern	**text	**dynam	**kern	**text	**dynam	**kern	**text	**dynam	**kern	**dynam	**kern	**dynam	**kern	**dynam	**kern	**dynam
*	*group4	*	*group4	*	*group4	*	*group4	*	*group3	*	*	*group3	*	*	*group3	*	*	*group3	*	*	*group2	*	*group2	*	*group1	*	*group1	*
*part13	*part12	*part12	*part11	*part11	*part10	*part10	*part9	*part9	*part8	*part8	*part8	*part7	*part7	*part7	*part6	*part6	*part6	*part5	*part5	*part5	*part4	*part4	*part3	*part3	*part2	*part2	*part1	*part1
*staff13	*staff12	*	*staff11	*	*staff10	*	*staff9	*	*staff8	*staff8	*	*staff7	*staff7	*	*staff6	*staff6	*	*staff5	*staff5	*	*staff4	*	*staff3	*	*staff2	*	*staff1	*
*I"Organo Concertato	*I"Violone.	*	*I"Viola di Alto. oblig.	*	*I"Violino 2do.	*	*I"Violino 1mo.	*	*I"Basſo.	*	*	*I"Tenore.	*	*	*I"Alto.	*	*	*I"Canto.	*	*	*I"Clarino 2.do Ex C.	*	*I"Clarino 1.mo Ex C.	*	*I"Oboe Secundo.	*	*I"Oboe Primo.	*
*I'org	*I'vlne	*	*I'a-vla	*	*I'vl 2	*	*I'vl 1	*	*I'B	*	*	*I'T	*	*	*I'A	*	*	*I'S	*	*	*I'clno 2 in C	*	*I'clno 1 in C	*	*I'ob 2	*	*I'ob 1	*
*Iorgan	*Icbass	*	*Iviola	*	*Ivioln	*	*Ivioln	*	*Ibass	*	*	*Itenor	*	*	*Ialto	*	*	*Isoprn	*	*	*Itromp	*	*Itromp	*	*Ioboe	*	*Ioboe	*
*ICklav	*ICstr	*	*ICstr	*	*ICstr	*	*ICstr	*	*ICvox	*	*	*ICvox	*	*	*ICvox	*	*	*ICvox	*	*	*ICbras	*	*ICbras	*	*ICww	*	*ICww	*
*IGcont	*	*	*	*	*	*	*	*	*IGcoro	*	*	*IGcoro	*	*	*IGcoro	*	*	*IGcoro	*	*	*	*	*	*	*	*	*	*
*	*clefF4	*	*clefC3	*	*clefG2	*	*clefG2	*	*clefF4	*	*	*clefC4	*	*	*clefC3	*	*	*clefC1	*	*	*clefG2	*	*clefG2	*	*clefG2	*	*clefG2	*
*	*ITrd0c0	*	*	*	*	*	*	*	*	*	*	*	*	*	*	*	*	*	*	*	*ITrd-3c-5	*	*ITrd-3c-5	*	*	*	*	*
*	*k[b-]	*	*k[b-]	*	*k[b-]	*	*k[b-]	*	*k[b-]	*	*	*k[b-]	*	*	*k[b-]	*	*	*k[b-]	*	*	*k[b-]	*	*k[b-]	*	*k[b-]	*	*k[b-]	*
*	*F:	*	*F:	*	*F:	*	*F:	*	*F:	*	*	*F:	*	*	*F:	*	*	*F:	*	*	*	*	*	*	*F:	*	*F:	*
*	*M2/4	*	*M2/4	*	*M2/4	*	*M2/4	*	*M2/4	*	*	*M2/4	*	*	*M2/4	*	*	*M2/4	*	*	*M2/4	*	*M2/4	*	*M2/4	*	*M2/4	*
*	*all\right	*	*all\right	*	*all\right	*	*all\right	*	*all\right	*	*	*all\right	*	*	*all\right	*	*	*all\right	*	*	*all\right	*	*all\right	*	*all\right	*	*all\right	*
=1	=1	=1	=1	=1	=1	=1	=1	=1	=1	=1	=1	=1	=1	=1	=1	=1	=1	=1	=1	=1	=1	=1	=1	=1	=1	=1	=1	=1
!	!	!	!	!	!	!	!	!	!LO:TX:a:t=27	!	!	!LO:TX:a:t=35	!	!	!LO:TX:a:t=24.	!	!	!LO:TX:a:t=17	!	!	!LO:TX:a:i:t=Cornu Ex F.	!	!LO:TX:a:i:t=Cornua Ex F.	!	!	!	!LO:TX:a:t=8	!
!LO:TX:t=P:problem:zgodnie z RISM "org missing"	!LO:TX:a:B:t=And.	!LO:DY:a:t=f.	!LO:TX:a:B:t=And.	!	!LO:TX:a:B:t=And.	!	!LO:TX:a:B:t=And.	!	!LO:TX:a:B:t=Ada.	!	!	!LO:TX:a:B:t=And.	!	!	!LO:TX:a:B:t=And.	!	!	!LO:TX:a:B:t=And.	!	!	!LO:TX:a:B:t=And.	!	!LO:TX:a:B:t=And.	!	!LO:TX:a:B:t=And.	!	!LO:TX:a:B:t=And.	!
2ryy	8r	f	8r	.	8ff\L	.	8ff\L	.	0r	.	.	0r	.	.	0r	.	.	0r	.	.	0r	.	0r	.	0r	.	0r	.
.	8F\L	.	8A/L	.	8cc\J	.	8cc\J	.	.	.	.	.	.	.	.	.	.	.	.	.	.	.	.	.	.	.	.	.
.	8A\	.	8c/	.	16r	.	16r	.	.	.	.	.	.	.	.	.	.	.	.	.	.	.	.	.	.	.	.	.
.	.	.	.	.	16ff\LL	.	16ff\LL	.	.	.	.	.	.	.	.	.	.	.	.	.	.	.	.	.	.	.	.	.
.	8F\J	.	8A/J	.	16cc\	.	16cc\	.	.	.	.	.	.	.	.	.	.	.	.	.	.	.	.	.	.	.	.	.
.	.	.	.	.	16aa\JJ	.	16aa\JJ	.	.	.	.	.	.	.	.	.	.	.	.	.	.	.	.	.	.	.	.	.
=2	=2	=2	=2	=2	=2	=2	=2	=2	=2	=2	=2	=2	=2	=2	=2	=2	=2	=2	=2	=2	=2	=2	=2	=2	=2	=2	=2	=2
2ryy	8r	.	8r	.	8gg\L	.	8gg\L	.	.	.	.	.	.	.	.	.	.	.	.	.	.	.	.	.	.	.	.	.
.	8C/L	.	8e\L	.	8cc\J	.	8cc\J	.	.	.	.	.	.	.	.	.	.	.	.	.	.	.	.	.	.	.	.	.
.	8E/	.	8g\	.	16r	.	16r	.	.	.	.	.	.	.	.	.	.	.	.	.	.	.	.	.	.	.	.	.
.	.	.	.	.	16gg\LL	.	16gg\LL	.	.	.	.	.	.	.	.	.	.	.	.	.	.	.	.	.	.	.	.	.
.	8C/J	.	8e\J	.	16cc\	.	16cc\	.	.	.	.	.	.	.	.	.	.	.	.	.	.	.	.	.	.	.	.	.
.	.	.	.	.	16bb-\JJ	.	16bb-\JJ	.	.	.	.	.	.	.	.	.	.	.	.	.	.	.	.	.	.	.	.	.
=3	=3	=3	=3	=3	=3	=3	=3	=3	=3	=3	=3	=3	=3	=3	=3	=3	=3	=3	=3	=3	=3	=3	=3	=3	=3	=3	=3	=3
!	!LO:TX:t=P:problem:mixed beam	!	!	!	!	!	!	!	!	!	!	!	!	!	!	!	!	!	!	!	!	!	!	!	!	!	!	!
2ryy	8F\L	.	8f\L	.	16aa\LL	.	16aa\LL	.	.	.	.	.	.	.	.	.	.	.	.	.	.	.	.	.	.	.	.	.
.	.	.	.	.	16ee\	.	16ee\	.	.	.	.	.	.	.	.	.	.	.	.	.	.	.	.	.	.	.	.	.
.	8A\	.	8f\	.	16ff\	.	16ff\	.	.	.	.	.	.	.	.	.	.	.	.	.	.	.	.	.	.	.	.	.
.	.	.	.	.	16cc\JJ	.	16cc\JJ	.	.	.	.	.	.	.	.	.	.	.	.	.	.	.	.	.	.	.	.	.
!	!	!	!	!	!LO:TX:t=P:problem:mixed beam	!	!LO:TX:t=P:problem:mixed beam	!	!	!	!	!	!	!	!	!	!	!	!	!	!	!	!	!	!	!	!	!
.	8G\	.	8f\	.	16cc\LL	.	16cc\LL	.	.	.	.	.	.	.	.	.	.	.	.	.	.	.	.	.	.	.	.	.
.	.	.	.	.	16b-\	.	16b-\	.	.	.	.	.	.	.	.	.	.	.	.	.	.	.	.	.	.	.	.	.
.	8C/J	.	8e\J	.	16c/	.	16c/	.	.	.	.	.	.	.	.	.	.	.	.	.	.	.	.	.	.	.	.	.
.	.	.	.	.	16b-\JJ	.	16b-\JJ	.	.	.	.	.	.	.	.	.	.	.	.	.	.	.	.	.	.	.	.	.
=4	=4	=4	=4	=4	=4	=4	=4	=4	=4	=4	=4	=4	=4	=4	=4	=4	=4	=4	=4	=4	=4	=4	=4	=4	=4	=4	=4	=4
!	!LO:TX:t=P:problem:mixed beam	!	!	!	!	!	!	!	!	!	!	!	!	!	!	!	!	!	!	!	!	!	!	!	!	!	!	!
2ryy	8F\L	.	8e\L	.	8b-/L	.	8b-\L	.	.	.	.	.	.	.	.	.	.	.	.	.	.	.	.	.	.	.	.	.
.	8FF/J	.	8f\J	.	8a/J	.	8a\J	.	.	.	.	.	.	.	.	.	.	.	.	.	.	.	.	.	.	.	.	.
*	*	*	*	*	*Xtuplet	*	*Xtuplet	*	*	*	*	*	*	*	*	*	*	*	*	*	*	*	*	*	*	*	*	*
.	8r	.	8r	.	24ff\LL	.	24ff\LL	.	.	.	.	.	.	.	.	.	.	.	.	.	.	.	.	.	.	.	.	.
.	.	.	.	.	24aa\	.	24aa\	.	.	.	.	.	.	.	.	.	.	.	.	.	.	.	.	.	.	.	.	.
.	.	.	.	.	24gg\JJ	.	24gg\JJ	.	.	.	.	.	.	.	.	.	.	.	.	.	.	.	.	.	.	.	.	.
!	!	!	!	!	!LO:TX:t=P:problem:mixed beam	!	!	!	!	!	!	!	!	!	!	!	!	!	!	!	!	!	!	!	!	!	!	!
.	8F\	.	8d\	.	16ff\LL	.	24ff\LL	.	.	.	.	.	.	.	.	.	.	.	.	.	.	.	.	.	.	.	.	.
.	.	.	.	.	.	.	24ee\	.	.	.	.	.	.	.	.	.	.	.	.	.	.	.	.	.	.	.	.	.
.	.	.	.	.	16a/JJ	.	.	.	.	.	.	.	.	.	.	.	.	.	.	.	.	.	.	.	.	.	.	.
.	.	.	.	.	.	.	24dd\JJ	.	.	.	.	.	.	.	.	.	.	.	.	.	.	.	.	.	.	.	.	.
=5	=5	=5	=5	=5	=5	=5	=5	=5	=5	=5	=5	=5	=5	=5	=5	=5	=5	=5	=5	=5	=5	=5	=5	=5	=5	=5	=5	=5
!	!LO:TX:t=P:problem:mixed beam	!	!	!	!	!	!	!	!	!	!	!	!	!	!	!	!	!	!	!	!	!	!	!	!	!	!	!
2ryy	8G\L	.	8d\L	.	8a/L	.	16cc\LL	.	0r	.	.	0r	.	.	0r	.	.	0r	.	.	0r	.	0r	.	0r	.	0r	.
.	.	.	.	.	.	.	16b-\J	.	.	.	.	.	.	.	.	.	.	.	.	.	.	.	.	.	.	.	.	.
.	8GG/J	.	8d\J	.	8g/J	.	8b-\J	.	.	.	.	.	.	.	.	.	.	.	.	.	.	.	.	.	.	.	.	.
.	8r	.	8r	.	8r	.	24b-\LL	.	.	.	.	.	.	.	.	.	.	.	.	.	.	.	.	.	.	.	.	.
.	.	.	.	.	.	.	24gg\	.	.	.	.	.	.	.	.	.	.	.	.	.	.	.	.	.	.	.	.	.
.	.	.	.	.	.	.	24ff\JJ	.	.	.	.	.	.	.	.	.	.	.	.	.	.	.	.	.	.	.	.	.
.	8E\	.	8c\	.	8g/	.	24ee\LL	.	.	.	.	.	.	.	.	.	.	.	.	.	.	.	.	.	.	.	.	.
.	.	.	.	.	.	.	24dd\	.	.	.	.	.	.	.	.	.	.	.	.	.	.	.	.	.	.	.	.	.
.	.	.	.	.	.	.	24cc\JJ	.	.	.	.	.	.	.	.	.	.	.	.	.	.	.	.	.	.	.	.	.
=6	=6	=6	=6	=6	=6	=6	=6	=6	=6	=6	=6	=6	=6	=6	=6	=6	=6	=6	=6	=6	=6	=6	=6	=6	=6	=6	=6	=6
!	!LO:TX:t=P:problem:mixed beam	!	!	!	!	!	!	!	!	!	!	!	!	!	!	!	!	!	!	!	!	!	!	!	!	!	!	!
2ryy	8F\L	.	8c/L	.	8g/L	.	16b-/LL	.	.	.	.	.	.	.	.	.	.	.	.	.	.	.	.	.	.	.	.	.
.	.	.	.	.	.	.	16a/J	.	.	.	.	.	.	.	.	.	.	.	.	.	.	.	.	.	.	.	.	.
.	8FF/J	.	8c/J	.	8f/J	.	8a/J	.	.	.	.	.	.	.	.	.	.	.	.	.	.	.	.	.	.	.	.	.
!	!	!	!	!	!	!	!LO:TX:t=P:problem:mixed beam	!	!	!	!	!	!	!	!	!	!	!	!	!	!	!	!	!	!	!	!	!
.	8r	.	8r	.	8r	.	24a/LL	.	.	.	.	.	.	.	.	.	.	.	.	.	.	.	.	.	.	.	.	.
.	.	.	.	.	.	.	24ff\	.	.	.	.	.	.	.	.	.	.	.	.	.	.	.	.	.	.	.	.	.
.	.	.	.	.	.	.	24ee\JJ	.	.	.	.	.	.	.	.	.	.	.	.	.	.	.	.	.	.	.	.	.
!	!	!	!	!	!	!	!LO:LB:g=original	!	!	!	!	!	!	!	!	!	!	!	!	!	!	!	!	!	!	!	!	!
.	8A\	.	8c/	.	8f/	.	24ff\LL	.	.	.	.	.	.	.	.	.	.	.	.	.	.	.	.	.	.	.	.	.
.	.	.	.	.	.	.	24cc\	.	.	.	.	.	.	.	.	.	.	.	.	.	.	.	.	.	.	.	.	.
.	.	.	.	.	.	.	24a\JJ	.	.	.	.	.	.	.	.	.	.	.	.	.	.	.	.	.	.	.	.	.
=7	=7	=7	=7	=7	=7	=7	=7	=7	=7	=7	=7	=7	=7	=7	=7	=7	=7	=7	=7	=7	=7	=7	=7	=7	=7	=7	=7	=7
!	!LO:TX:t=P:problem:mixed beam	!	!	!	!	!	!	!	!	!	!	!	!	!	!	!	!	!	!	!	!	!	!	!	!	!	!	!
2ryy	8B-\L	.	8B-/L	.	8d/L	.	24a/LL	.	.	.	.	.	.	.	.	.	.	.	.	.	.	.	.	.	.	.	.	.
.	.	.	.	.	.	.	24f#X/	.	.	.	.	.	.	.	.	.	.	.	.	.	.	.	.	.	.	.	.	.
.	.	.	.	.	.	.	24g/JJ	.	.	.	.	.	.	.	.	.	.	.	.	.	.	.	.	.	.	.	.	.
.	8BB-/	.	8B-/	.	8d/	.	24b-/LL	.	.	.	.	.	.	.	.	.	.	.	.	.	.	.	.	.	.	.	.	.
.	.	.	.	.	.	.	24a/	.	.	.	.	.	.	.	.	.	.	.	.	.	.	.	.	.	.	.	.	.
.	.	.	.	.	.	.	24g/JJ	.	.	.	.	.	.	.	.	.	.	.	.	.	.	.	.	.	.	.	.	.
!	!	!	!	!	!	!	!LO:TX:t=P:problem:mixed beam	!	!	!	!	!	!	!	!	!	!	!	!	!	!	!	!	!	!	!	!	!
.	8BB-/	.	8B-/	.	8d/	.	24dd\LL	.	.	.	.	.	.	.	.	.	.	.	.	.	.	.	.	.	.	.	.	.
.	.	.	.	.	.	.	24f#X/	.	.	.	.	.	.	.	.	.	.	.	.	.	.	.	.	.	.	.	.	.
.	.	.	.	.	.	.	24g/JJ	.	.	.	.	.	.	.	.	.	.	.	.	.	.	.	.	.	.	.	.	.
.	8BBn/J	.	8G/J	.	8d/J	.	24b-/LL	.	.	.	.	.	.	.	.	.	.	.	.	.	.	.	.	.	.	.	.	.
.	.	.	.	.	.	.	24a/	.	.	.	.	.	.	.	.	.	.	.	.	.	.	.	.	.	.	.	.	.
.	.	.	.	.	.	.	24g/JJ	.	.	.	.	.	.	.	.	.	.	.	.	.	.	.	.	.	.	.	.	.
=8	=8	=8	=8	=8	=8	=8	=8	=8	=8	=8	=8	=8	=8	=8	=8	=8	=8	=8	=8	=8	=8	=8	=8	=8	=8	=8	=8	=8
!	!	!	!LO:TX:t=P:problem:mixed beam	!	!	!	!	!	!	!	!	!	!	!	!	!	!	!	!	!	!	!	!	!	!	!	!	!
2ryy	8C/	.	8F/L	.	8d/L	.	8fnT/L	.	.	.	.	.	.	.	.	.	.	.	.	.	.	.	.	.	.	.	.	.
.	16r	.	16c/L	.	8c/J	.	8e/J	.	.	.	.	.	.	.	.	.	.	.	.	.	.	.	.	.	.	.	.	.
.	16c\	.	16cc\JJ	.	.	.	.	.	.	.	.	.	.	.	.	.	.	.	.	.	.	.	.	.	.	.	.	.
!	!LO:LB:g=original	!	!	!	!LO:SIC:v:t=custos g	!	!	!	!	!	!	!	!	!	!	!	!	!	!	!	!	!	!	!	!	!	!	!
.	16G\LL	.	16g\LL	.	4r	.	4r	.	.	.	.	.	.	.	.	.	.	.	.	.	.	.	.	.	.	.	.	.
.	16c\	.	16cc\	.	.	.	.	.	.	.	.	.	.	.	.	.	.	.	.	.	.	.	.	.	.	.	.	.
.	16G\	.	16e\	.	.	.	.	.	.	.	.	.	.	.	.	.	.	.	.	.	.	.	.	.	.	.	.	.
.	16cJJ 16E\	.	16g\JJ	.	.	.	.	.	.	.	.	.	.	.	.	.	.	.	.	.	.	.	.	.	.	.	.	.
!	!	!	!	!	!LO:LB:g=original	!	!	!	!	!	!	!	!	!	!	!	!	!	!	!	!	!	!	!	!	!	!	!
=9	=9	=9	=9	=9	=9	=9	=9	=9	=9	=9	=9	=9	=9	=9	=9	=9	=9	=9	=9	=9	=9	=9	=9	=9	=9	=9	=9	=9
*	*tremolo	*	*	*	*	*	*	*	*	*	*	*	*	*	*	*	*	*	*	*	*	*	*2\right	*	*	*	*2\right	*
!	!	!	!	!	!	!	!	!	!	!	!	!	!	!	!	!	!	!	!	!	!	!LO:DY:a	!	!LO:DY:a	!	!LO:DY:a:t=pia&colon;	!	!LO:DY:a
2ryy	8C/L	.	8c/L	.	8g/L	.	16ee\LL	.	0r	.	.	0r	.	.	0r	.	.	0r	.	.	2cc/	p	2gg\	p	2g/	p	2ee\	p
.	.	.	.	.	.	.	16cc\JJ	.	.	.	.	.	.	.	.	.	.	.	.	.	.	.	.	.	.	.	.	.
.	8C/	.	8B-/	.	8g/	.	16r	.	.	.	.	.	.	.	.	.	.	.	.	.	.	.	.	.	.	.	.	.
.	.	.	.	.	.	.	16cc\	.	.	.	.	.	.	.	.	.	.	.	.	.	.	.	.	.	.	.	.	.
.	8C/	.	8B-/	.	8g/	.	24ee\LL	.	.	.	.	.	.	.	.	.	.	.	.	.	.	.	.	.	.	.	.	.
.	.	.	.	.	.	.	24dd\	.	.	.	.	.	.	.	.	.	.	.	.	.	.	.	.	.	.	.	.	.
.	.	.	.	.	.	.	24cc\JJ	.	.	.	.	.	.	.	.	.	.	.	.	.	.	.	.	.	.	.	.	.
.	8C/J	.	8B-/J	.	8g/J	.	24gg\LL	.	.	.	.	.	.	.	.	.	.	.	.	.	.	.	.	.	.	.	.	.
.	.	.	.	.	.	.	24ff\	.	.	.	.	.	.	.	.	.	.	.	.	.	.	.	.	.	.	.	.	.
.	.	.	.	.	.	.	24ee\JJ	.	.	.	.	.	.	.	.	.	.	.	.	.	.	.	.	.	.	.	.	.
!	!	!	!LO:LB:g=original	!	!	!	!	!	!	!	!	!	!	!	!	!	!	!	!	!	!	!	!	!	!	!	!	!
=10	=10	=10	=10	=10	=10	=10	=10	=10	=10	=10	=10	=10	=10	=10	=10	=10	=10	=10	=10	=10	=10	=10	=10	=10	=10	=10	=10	=10
*	*	*	*	*	*	*	*	*	*	*	*	*	*	*	*	*	*	*	*	*	*2\right	*	*	*	*	*	*	*
2ryy	8C/L	.	8A/L	.	8a/L	.	16ff\LL	.	.	.	.	.	.	.	.	.	.	.	.	.	2ff\	.	2aa\	.	2a/	.	2ff\	.
.	.	.	.	.	.	.	16cc\JJ	.	.	.	.	.	.	.	.	.	.	.	.	.	.	.	.	.	.	.	.	.
.	8C/	.	8c/	.	8a/	.	16r	.	.	.	.	.	.	.	.	.	.	.	.	.	.	.	.	.	.	.	.	.
.	.	.	.	.	.	.	16cc\	.	.	.	.	.	.	.	.	.	.	.	.	.	.	.	.	.	.	.	.	.
.	8C/	.	8c/	.	8a/	.	24ff\LL	.	.	.	.	.	.	.	.	.	.	.	.	.	.	.	.	.	.	.	.	.
.	.	.	.	.	.	.	24ee\	.	.	.	.	.	.	.	.	.	.	.	.	.	.	.	.	.	.	.	.	.
.	.	.	.	.	.	.	24ff\JJ	.	.	.	.	.	.	.	.	.	.	.	.	.	.	.	.	.	.	.	.	.
.	8C/J	.	8c/J	.	8a/J	.	24aa\LL	.	.	.	.	.	.	.	.	.	.	.	.	.	.	.	.	.	.	.	.	.
.	.	.	.	.	.	.	24gg\	.	.	.	.	.	.	.	.	.	.	.	.	.	.	.	.	.	.	.	.	.
.	.	.	.	.	.	.	24ff\JJ	.	.	.	.	.	.	.	.	.	.	.	.	.	.	.	.	.	.	.	.	.
=11	=11	=11	=11	=11	=11	=11	=11	=11	=11	=11	=11	=11	=11	=11	=11	=11	=11	=11	=11	=11	=11	=11	=11	=11	=11	=11	=11	=11
*	*	*	*2\right	*	*	*	*	*	*	*	*	*	*	*	*	*	*	*	*	*	*	*	*	*	*	*	*	*
*	*	*	*tremolo	*	*	*	*	*	*	*	*	*	*	*	*	*	*	*	*	*	*	*	*	*	*	*	*	*
2ryy	8C/L	.	8e\L	.	8b-/L	.	16gg\LL	.	.	.	.	.	.	.	.	.	.	.	.	.	2gg\	.	2bb-\	.	2e/	.	2gg\	.
.	.	.	.	.	.	.	16cc\JJ	.	.	.	.	.	.	.	.	.	.	.	.	.	.	.	.	.	.	.	.	.
.	8C/	.	8e\	.	8b-/	.	16r	.	.	.	.	.	.	.	.	.	.	.	.	.	.	.	.	.	.	.	.	.
.	.	.	.	.	.	.	16cc\	.	.	.	.	.	.	.	.	.	.	.	.	.	.	.	.	.	.	.	.	.
.	8C/	.	8e\	.	8b-/	.	24gg\LL	.	.	.	.	.	.	.	.	.	.	.	.	.	.	.	.	.	.	.	.	.
.	.	.	.	.	.	.	24ee\	.	.	.	.	.	.	.	.	.	.	.	.	.	.	.	.	.	.	.	.	.
.	.	.	.	.	.	.	24cc\JJ	.	.	.	.	.	.	.	.	.	.	.	.	.	.	.	.	.	.	.	.	.
.	8C/J	.	8e\J	.	8b-/J	.	24bb-\LL	.	.	.	.	.	.	.	.	.	.	.	.	.	.	.	.	.	.	.	.	.
.	.	.	.	.	.	.	24aa\	.	.	.	.	.	.	.	.	.	.	.	.	.	.	.	.	.	.	.	.	.
.	.	.	.	.	.	.	24gg\JJ	.	.	.	.	.	.	.	.	.	.	.	.	.	.	.	.	.	.	.	.	.
*	*Xtremolo	*	*Xtremolo	*	*	*	*	*	*	*	*	*	*	*	*	*	*	*	*	*	*	*	*	*	*	*	*	*
=12	=12	=12	=12	=12	=12	=12	=12	=12	=12	=12	=12	=12	=12	=12	=12	=12	=12	=12	=12	=12	=12	=12	=12	=12	=12	=12	=12	=12
!	!	!	!LO:TX:t=P:problem:mixed beam	!	!	!	!LO:TX:t=P:problem:4\right:global	!	!	!	!	!	!	!	!	!	!	!	!	!	!	!	!	!	!	!	!	!
2ryy	8F\L	.	8f\L	.	8a/L	.	4aa\	.	.	.	.	.	.	.	.	.	.	.	.	.	4ff\	.	4aa\	.	4f/	.	4aa\	.
.	8F\	.	8f\	.	8cc/	.	.	.	.	.	.	.	.	.	.	.	.	.	.	.	.	.	.	.	.	.	.	.
.	8A\	.	8f\	.	8cc/	.	24aa\LL	.	.	.	.	.	.	.	.	.	.	.	.	.	8r	.	8r	.	8r	.	8r	.
.	.	.	.	.	.	.	24bb-\	.	.	.	.	.	.	.	.	.	.	.	.	.	.	.	.	.	.	.	.	.
.	.	.	.	.	.	.	24ccc\JJ	.	.	.	.	.	.	.	.	.	.	.	.	.	.	.	.	.	.	.	.	.
!	!	!	!	!	!	!	!	!	!	!	!	!	!	!	!	!	!	!	!	!	!	!LO:DY:a:t=f&colon;	!	!LO:DY:a:t=f&colon;	!	!	!	!
.	8A\J	.	8A/J	.	8cc/J	.	24cc\LL	.	.	.	.	.	.	.	.	.	.	.	.	.	8f/	f	8ff\	f	8f/	.	8ee-X\	.
.	.	.	.	.	.	.	24dd\	.	.	.	.	.	.	.	.	.	.	.	.	.	.	.	.	.	.	.	.	.
.	.	.	.	.	.	.	24ee-X\JJ	.	.	.	.	.	.	.	.	.	.	.	.	.	.	.	.	.	.	.	.	.
!	!	!	!	!	!	!	!LO:LB:g=original	!	!	!	!	!	!	!	!	!	!	!	!	!	!	!	!	!	!	!	!	!
=13	=13	=13	=13	=13	=13	=13	=13	=13	=13	=13	=13	=13	=13	=13	=13	=13	=13	=13	=13	=13	=13	=13	=13	=13	=13	=13	=13	=13
!	!	!	!	!	!	!	!	!	!	!	!	!	!	!	!	!	!	!	!	!	!	!	!	!	!LO:TX:t=P:problem:mixed beam	!	!LO:SIC:v:s=16ee-\LL	!
2ryy	8B-\L	.	8B-/L	.	8f/L	.	16ee-X\LL	.	0r	.	.	0r	.	.	0r	.	.	0r	.	.	8f/L	.	8ff\L	.	8f/L	.	16ee\LL	.
.	.	.	.	.	.	.	16dd\	.	.	.	.	.	.	.	.	.	.	.	.	.	.	.	.	.	.	.	16dd\J	.
.	8B-\	.	8B-/	.	8f/	.	16cc#X\	.	.	.	.	.	.	.	.	.	.	.	.	.	8f/J	.	8ff\J	.	8f/	.	8dd\J	.
.	.	.	.	.	.	.	16dd\JJ	.	.	.	.	.	.	.	.	.	.	.	.	.	.	.	.	.	.	.	.	.
.	8B-\	.	8d/	.	8g/	.	24gg\LL	.	.	.	.	.	.	.	.	.	.	.	.	.	4r	.	4r	.	8g/	.	8dd\L	.
.	.	.	.	.	.	.	24ff#X\	.	.	.	.	.	.	.	.	.	.	.	.	.	.	.	.	.	.	.	.	.
.	.	.	.	.	.	.	24gg\JJ	.	.	.	.	.	.	.	.	.	.	.	.	.	.	.	.	.	.	.	.	.
.	8Bn\J	.	8d/J	.	8g/J	.	24bb-\LL	.	.	.	.	.	.	.	.	.	.	.	.	.	.	.	.	.	8dd\J	.	8gg\J	.
.	.	.	.	.	.	.	24aa\	.	.	.	.	.	.	.	.	.	.	.	.	.	.	.	.	.	.	.	.	.
.	.	.	.	.	.	.	24gg\JJ	.	.	.	.	.	.	.	.	.	.	.	.	.	.	.	.	.	.	.	.	.
=14	=14	=14	=14	=14	=14	=14	=14	=14	=14	=14	=14	=14	=14	=14	=14	=14	=14	=14	=14	=14	=14	=14	=14	=14	=14	=14	=14	=14
*	*	*	*tremolo	*	*	*	*	*	*	*	*	*	*	*	*	*	*	*	*	*	*	*	*	*	*	*	*	*
!	!LO:TX:t=P:problem:mixed beam	!	!	!	!	!	!	!	!	!	!	!	!	!	!	!	!	!	!	!	!	!	!	!	!	!	!	!
2ryy	8c\L	.	8c/L	.	8a/L	.	8.ffn\L	.	.	.	.	.	.	.	.	.	.	.	.	.	8ff\L	.	8aa\L	.	8a/L	.	8.ff\L	.
.	8c\	.	8c/	.	8f/	.	.	.	.	.	.	.	.	.	.	.	.	.	.	.	8ff\	.	8aa\	.	8f/	.	.	.
!	!	!	!	!	!	!	!	!	!	!	!	!	!	!	!	!	!	!	!	!	!	!	!	!	!	!	!LO:TX:a:t=t	!
.	.	.	.	.	.	.	16gg\Jk	.	.	.	.	.	.	.	.	.	.	.	.	.	.	.	.	.	.	.	16gg\Jk	.
.	8C/	.	8c/	.	8f/	.	4ggT\	.	.	.	.	.	.	.	.	.	.	.	.	.	8cc\	.	8gg\	.	8f/	.	4gg\	.
.	8C/J	.	8c/J	.	8e/J	.	.	.	.	.	.	.	.	.	.	.	.	.	.	.	8cc\J	.	8gg\J	.	8e/J	.	.	.
=15	=15	=15	=15	=15	=15	=15	=15	=15	=15	=15	=15	=15	=15	=15	=15	=15	=15	=15	=15	=15	=15	=15	=15	=15	=15	=15	=15	=15
!	!	!	!	!	!	!	!	!	!	!	!	!	!	!	!	!	!	!	!	!	!LO:TX:t=P:problem:mixed beam	!	!	!	!LO:TX:t=P:problem:mixed beam	!	!	!
2ryy	8F\L	.	8c/L	.	8f/L	.	16ff\LL	.	.	.	.	.	.	.	.	.	.	.	.	.	8ff\L	.	8aa\L	.	8f/L	.	4ff\	.
.	.	.	.	.	.	.	16aa\	.	.	.	.	.	.	.	.	.	.	.	.	.	.	.	.	.	.	.	.	.
.	8F\	.	8c/	.	8f/	.	16ccc\	.	.	.	.	.	.	.	.	.	.	.	.	.	8f/	.	8ff\	.	8cc\	.	.	.
.	.	.	.	.	.	.	16bb-X\JJ	.	.	.	.	.	.	.	.	.	.	.	.	.	.	.	.	.	.	.	.	.
.	8A\	.	8c/	.	8f/	.	16aa\LL	.	.	.	.	.	.	.	.	.	.	.	.	.	8f/	.	8ff\	.	8cc\	.	8ff\L	.
.	.	.	.	.	.	.	16ccc\	.	.	.	.	.	.	.	.	.	.	.	.	.	.	.	.	.	.	.	.	.
.	8A\J	.	8c/J	.	8f/J	.	16cc\	.	.	.	.	.	.	.	.	.	.	.	.	.	8f/J	.	8ff\J	.	8cc\J	.	8ee-X\J	.
.	.	.	.	.	.	.	16ee-X\JJ	.	.	.	.	.	.	.	.	.	.	.	.	.	.	.	.	.	.	.	.	.
*	*	*	*Xtremolo	*	*	*	*	*	*	*	*	*	*	*	*	*	*	*	*	*	*	*	*	*	*	*	*	*
=16	=16	=16	=16	=16	=16	=16	=16	=16	=16	=16	=16	=16	=16	=16	=16	=16	=16	=16	=16	=16	=16	=16	=16	=16	=16	=16	=16	=16
!	!LO:TX:t=P:problem:mixed beam	!	!	!	!	!	!	!	!	!	!	!	!	!	!	!	!	!	!	!	!	!	!	!	!	!	!	!
2ryy	8B-\L	.	8d/L	.	8f/L	.	8dd\L	.	.	.	.	.	.	.	.	.	.	.	.	.	8f/	.	8ff\	.	8f/L	.	4dd\	.
.	8BB-/	.	8d/	.	8f/	.	16dd\L	.	.	.	.	.	.	.	.	.	.	.	.	.	8r	.	8r	.	8b-/	.	.	.
.	.	.	.	.	.	.	32cc\L	.	.	.	.	.	.	.	.	.	.	.	.	.	.	.	.	.	.	.	.	.
.	.	.	.	.	.	.	32b-\JJJ	.	.	.	.	.	.	.	.	.	.	.	.	.	.	.	.	.	.	.	.	.
.	8C/	.	8c/	.	8f/	.	8a/L	.	.	.	.	.	.	.	.	.	.	.	.	.	8ff\L	.	8aa\L	.	8a/	.	8ff\L	.
!	!	!	!	!	!	!	!LO:TX:a:t=t	!	!	!	!	!	!	!	!	!	!	!	!	!	!	!	!	!	!	!	!	!
.	8C/J	.	8c/J	.	8e/J	.	8g/J	.	.	.	.	.	.	.	.	.	.	.	.	.	8cc\J	.	8gg\J	.	8g/J	.	8een\J	.
=17	=17	=17	=17	=17	=17	=17	=17	=17	=17	=17	=17	=17	=17	=17	=17	=17	=17	=17	=17	=17	=17	=17	=17	=17	=17	=17	=17	=17
!	!LO:TX:t=P:problem:mixed beam	!	!	!	!	!	!	!	!	!	!	!	!	!	!	!	!	!	!	!	!	!	!	!	!	!	!LO:TX:t=P:problem:mixed beam	!
2ryy	8F\L	.	8c/L	.	4f/	.	4f/	.	0r	.	.	0r	.	.	0r	.	.	2r	.	.	8a/L	.	8ff\L	.	8a/L	.	8ff\L	.
.	8C\	.	8c/	.	.	.	.	.	.	.	.	.	.	.	.	.	.	.	.	.	8a/	.	8ff\	.	8f/	.	8f/	.
.	8FF/J	.	8F/J	.	4r	.	4r	.	.	.	.	.	.	.	.	.	.	.	.	.	8a/J	.	8ff\J	.	8f/J	.	8f/J	.
.	8r	.	8r	.	.	.	.	.	.	.	.	.	.	.	.	.	.	.	.	.	8r	.	8r	.	8r	.	8r	.
=18	=18	=18	=18	=18	=18	=18	=18	=18	=18	=18	=18	=18	=18	=18	=18	=18	=18	=18	=18	=18	=18	=18	=18	=18	=18	=18	=18	=18
!	!	!LO:DY:a	!LO:TX:a:t=10.	!	!	!LO:DY:a:t=pia&colon;	!	!LO:DY:a:t=pia&colon;	!	!	!	!	!	!	!	!	!	!LO:TX:a:i:t=Solo.	!	!	!	!	!LO:TX:a:t=17	!	!LO:TX:a:t=17	!	!LO:TX:a:t=17	!
2ryy	8r	p	0r	.	8a/L	p	8ff\L	p	.	.	.	.	.	.	.	.	.	(4cc\	Lau-	.	0r	.	0r	.	0r	.	0r	.
.	8F\L	.	.	.	8a/	.	8cc\J	.	.	.	.	.	.	.	.	.	.	.	.	.	.	.	.	.	.	.	.	.
.	8A\	.	.	.	8cc/	.	16r	.	.	.	.	.	.	.	.	.	.	8r	.	.	.	.	.	.	.	.	.	.
.	.	.	.	.	.	.	16ff\LL	.	.	.	.	.	.	.	.	.	.	.	.	.	.	.	.	.	.	.	.	.
.	8F\J	.	.	.	8a/J	.	16cc\	.	.	.	.	.	.	.	.	.	.	8ff\)	.	.	.	.	.	.	.	.	.	.
.	.	.	.	.	.	.	16aa\JJ	.	.	.	.	.	.	.	.	.	.	.	.	.	.	.	.	.	.	.	.	.
=19	=19	=19	=19	=19	=19	=19	=19	=19	=19	=19	=19	=19	=19	=19	=19	=19	=19	=19	=19	=19	=19	=19	=19	=19	=19	=19	=19	=19
2ryy	8r	.	.	.	8r	.	8gg\L	.	.	.	.	.	.	.	.	.	.	8gg\	-da-	.	.	.	.	.	.	.	.	.
.	8C/L	.	.	.	8e/L	.	8cc\J	.	.	.	.	.	.	.	.	.	.	8cc\	-mus	.	.	.	.	.	.	.	.	.
.	8En/	.	.	.	8g/	.	16r	.	.	.	.	.	.	.	.	.	.	8r	.	.	.	.	.	.	.	.	.	.
.	.	.	.	.	.	.	16gg\LL	.	.	.	.	.	.	.	.	.	.	.	.	.	.	.	.	.	.	.	.	.
.	8C/J	.	.	.	8e/J	.	16cc\	.	.	.	.	.	.	.	.	.	.	8gg\	Lau-	.	.	.	.	.	.	.	.	.
.	.	.	.	.	.	.	16bb-\JJ	.	.	.	.	.	.	.	.	.	.	.	.	.	.	.	.	.	.	.	.	.
!	!LO:LB:g=original	!	!	!	!	!	!	!	!	!	!	!	!	!	!	!	!	!	!	!	!	!	!	!	!	!	!	!
=20	=20	=20	=20	=20	=20	=20	=20	=20	=20	=20	=20	=20	=20	=20	=20	=20	=20	=20	=20	=20	=20	=20	=20	=20	=20	=20	=20	=20
!	!LO:TX:t=P:problem:mixed beam	!	!	!	!	!	!	!	!	!	!	!	!	!	!	!	!	!	!	!	!	!	!	!	!	!	!	!
2ryy	8F\L	.	.	.	8c/L	.	16aa\LL	.	.	.	.	.	.	.	.	.	.	16aa\LL	-da-	.	.	.	.	.	.	.	.	.
.	.	.	.	.	.	.	16ee\	.	.	.	.	.	.	.	.	.	.	16ee\	.	.	.	.	.	.	.	.	.	.
.	8A\	.	.	.	8f/	.	16ff\	.	.	.	.	.	.	.	.	.	.	16ff\	.	.	.	.	.	.	.	.	.	.
.	.	.	.	.	.	.	16cc\JJ	.	.	.	.	.	.	.	.	.	.	16cc\JJ	.	.	.	.	.	.	.	.	.	.
!	!	!	!	!	!	!	!LO:TX:t=P:problem:mixed beam	!	!	!	!	!	!	!	!	!	!	!	!	!	!	!	!	!	!	!	!	!
.	8G\	.	.	.	8f/	.	16cc\LL	.	.	.	.	.	.	.	.	.	.	8cc\	.	.	.	.	.	.	.	.	.	.
.	.	.	.	.	.	.	16b-\	.	.	.	.	.	.	.	.	.	.	.	.	.	.	.	.	.	.	.	.	.
.	8C/J	.	.	.	8e/J	.	16c/	.	.	.	.	.	.	.	.	.	.	8b-\	-mus	.	.	.	.	.	.	.	.	.
.	.	.	.	.	.	.	16b-\JJ	.	.	.	.	.	.	.	.	.	.	.	.	.	.	.	.	.	.	.	.	.
=21	=21	=21	=21	=21	=21	=21	=21	=21	=21	=21	=21	=21	=21	=21	=21	=21	=21	=21	=21	=21	=21	=21	=21	=21	=21	=21	=21	=21
!	!LO:TX:t=P:problem:mixed beam	!	!	!	!	!	!	!	!	!	!	!	!	!	!	!	!	!	!	!	!	!	!	!	!	!	!	!
.	.	.	.	.	.	.	.	.	.	.	.	.	.	.	.	.	.	8qqb-/	.	.	.	.	.	.	.	.	.	.
2ryy	8F\L	.	.	.	8e/L	.	8b-T\L	.	0r	.	.	0r	.	.	0r	.	.	4a\	te	.	.	.	.	.	.	.	.	.
.	8FF/J	.	.	.	8f/J	.	8a\J	.	.	.	.	.	.	.	.	.	.	.	.	.	.	.	.	.	.	.	.	.
!	!	!	!	!	!	!	!LO:LB:g=original	!	!	!	!	!	!	!	!	!	!	!	!	!	!	!	!	!	!	!	!	!
.	8r	.	.	.	8r	.	24aa\LL	.	.	.	.	.	.	.	.	.	.	8r	.	.	.	.	.	.	.	.	.	.
.	.	.	.	.	.	.	24gg\	.	.	.	.	.	.	.	.	.	.	.	.	.	.	.	.	.	.	.	.	.
.	.	.	.	.	.	.	24ff\JJ	.	.	.	.	.	.	.	.	.	.	.	.	.	.	.	.	.	.	.	.	.
.	8F\	.	.	.	8a/	.	24ee\LL	.	.	.	.	.	.	.	.	.	.	8cc\	Lau-	.	.	.	.	.	.	.	.	.
.	.	.	.	.	.	.	24dd\	.	.	.	.	.	.	.	.	.	.	.	.	.	.	.	.	.	.	.	.	.
.	.	.	.	.	.	.	24cc\JJ	.	.	.	.	.	.	.	.	.	.	.	.	.	.	.	.	.	.	.	.	.
=22	=22	=22	=22	=22	=22	=22	=22	=22	=22	=22	=22	=22	=22	=22	=22	=22	=22	=22	=22	=22	=22	=22	=22	=22	=22	=22	=22	=22
!	!LO:TX:t=P:problem:mixed beam	!	!	!	!	!	!	!	!	!	!	!	!	!	!	!	!	!	!	!	!	!	!	!	!	!	!	!
2ryy	8G\L	.	0r	.	16a/LL	.	16cc\LL	.	.	.	.	.	.	.	.	.	.	8cc\	-da-	.	0r	.	0r	.	0r	.	0r	.
.	.	.	.	.	16g/J	.	16b-\J	.	.	.	.	.	.	.	.	.	.	.	.	.	.	.	.	.	.	.	.	.
.	8GG/J	.	.	.	8g/J	.	8b-\J	.	.	.	.	.	.	.	.	.	.	8b-\	-mus	.	.	.	.	.	.	.	.	.
.	8r	.	.	.	8r	.	24gg\LL	.	.	.	.	.	.	.	.	.	.	8r	.	.	.	.	.	.	.	.	.	.
.	.	.	.	.	.	.	24ff\	.	.	.	.	.	.	.	.	.	.	.	.	.	.	.	.	.	.	.	.	.
.	.	.	.	.	.	.	24ee\JJ	.	.	.	.	.	.	.	.	.	.	.	.	.	.	.	.	.	.	.	.	.
.	8E\	.	.	.	8g/	.	24dd\LL	.	.	.	.	.	.	.	.	.	.	8b-\	Lau-	.	.	.	.	.	.	.	.	.
.	.	.	.	.	.	.	24cc\	.	.	.	.	.	.	.	.	.	.	.	.	.	.	.	.	.	.	.	.	.
.	.	.	.	.	.	.	24b-\JJ	.	.	.	.	.	.	.	.	.	.	.	.	.	.	.	.	.	.	.	.	.
!	!	!	!	!	!LO:LB:g=original	!	!	!	!	!	!	!	!	!	!	!	!	!	!	!	!	!	!	!	!	!	!	!
=23	=23	=23	=23	=23	=23	=23	=23	=23	=23	=23	=23	=23	=23	=23	=23	=23	=23	=23	=23	=23	=23	=23	=23	=23	=23	=23	=23	=23
!	!LO:TX:t=P:problem:mixed beam	!	!	!	!	!	!	!	!	!	!	!	!	!	!	!	!	!	!	!	!	!	!	!	!	!	!	!
2ryy	8F\L	.	.	.	16g/LL	.	16b-/LL	.	.	.	.	.	.	.	.	.	.	8b-\	-da-	.	.	.	.	.	.	.	.	.
.	.	.	.	.	16f/J	.	16a/J	.	.	.	.	.	.	.	.	.	.	.	.	.	.	.	.	.	.	.	.	.
.	8FF/J	.	.	.	8f/J	.	8a/J	.	.	.	.	.	.	.	.	.	.	8a\	-mus	.	.	.	.	.	.	.	.	.
.	8r	.	.	.	8r	.	24ff\LL	.	.	.	.	.	.	.	.	.	.	8r	.	.	.	.	.	.	.	.	.	.
.	.	.	.	.	.	.	24ee\	.	.	.	.	.	.	.	.	.	.	.	.	.	.	.	.	.	.	.	.	.
.	.	.	.	.	.	.	24dd\JJ	.	.	.	.	.	.	.	.	.	.	.	.	.	.	.	.	.	.	.	.	.
.	8A\	.	.	.	8f/	.	24cc\LL	.	.	.	.	.	.	.	.	.	.	8a\	Lau-	.	.	.	.	.	.	.	.	.
.	.	.	.	.	.	.	24b-\	.	.	.	.	.	.	.	.	.	.	.	.	.	.	.	.	.	.	.	.	.
.	.	.	.	.	.	.	24a\JJ	.	.	.	.	.	.	.	.	.	.	.	.	.	.	.	.	.	.	.	.	.
=24	=24	=24	=24	=24	=24	=24	=24	=24	=24	=24	=24	=24	=24	=24	=24	=24	=24	=24	=24	=24	=24	=24	=24	=24	=24	=24	=24	=24
!	!LO:TX:t=P:problem:mixed beam	!	!	!	!	!	!	!	!	!	!	!	!	!	!	!	!	!	!	!	!	!	!	!	!	!	!	!
2ryy	8B-\L	.	.	.	4d/	.	16a/LL	.	.	.	.	.	.	.	.	.	.	16a\LL	-da-	.	.	.	.	.	.	.	.	.
.	.	.	.	.	.	.	16g/	.	.	.	.	.	.	.	.	.	.	16g\	.	.	.	.	.	.	.	.	.	.
.	8BB-/J	.	.	.	.	.	16dd/	.	.	.	.	.	.	.	.	.	.	16dd\	.	.	.	.	.	.	.	.	.	.
.	.	.	.	.	.	.	16cc/JJ	.	.	.	.	.	.	.	.	.	.	16cc\JJ	.	.	.	.	.	.	.	.	.	.
!	!	!	!	!	!	!	!	!	!	!	!	!	!	!	!	!	!	!LO:LB:g=original	!	!	!	!	!	!	!	!	!	!
.	16D/LL	.	.	.	8f/L	.	16b-/LL	.	.	.	.	.	.	.	.	.	.	16b-\LL	.	.	.	.	.	.	.	.	.	.
.	16C/	.	.	.	.	.	16a/	.	.	.	.	.	.	.	.	.	.	16a\JJ	.	.	.	.	.	.	.	.	.	.
.	16BB-/	.	.	.	8d/J	.	16g/	.	.	.	.	.	.	.	.	.	.	16g\LL	-mus	.	.	.	.	.	.	.	.	.
.	16BBn/JJ	.	.	.	.	.	16f/JJ	.	.	.	.	.	.	.	.	.	.	16f\JJ	.	.	.	.	.	.	.	.	.	.
=25	=25	=25	=25	=25	=25	=25	=25	=25	=25	=25	=25	=25	=25	=25	=25	=25	=25	=25	=25	=25	=25	=25	=25	=25	=25	=25	=25	=25
!	!	!	!	!	!	!	!	!	!	!	!	!	!	!	!LO:TX:a:i:t=Solo.	!	!	!	!	!	!	!	!	!	!	!	!	!
.	.	.	.	.	.	.	8qqf/	.	.	.	.	.	.	.	.	.	.	8qqf/	.	.	.	.	.	.	.	.	.	.
2ryy	8C/L	.	.	.	8G/L	.	4e/	.	1r	.	.	0r	.	.	4r	.	.	4e/	te	.	.	.	.	.	.	.	.	.
.	16C/L	.	.	.	16e/L	.	.	.	.	.	.	.	.	.	.	.	.	.	.	.	.	.	.	.	.	.	.	.
.	16D/JJ	.	.	.	16f/JJ	.	.	.	.	.	.	.	.	.	.	.	.	.	.	.	.	.	.	.	.	.	.	.
.	8E\L	.	.	.	8g/L	.	4r	.	.	.	.	.	.	.	8cc\	be-	.	4r	.	.	.	.	.	.	.	.	.	.
.	8E\J	.	.	.	8g/J	.	.	.	.	.	.	.	.	.	8g\	-ne-	.	.	.	.	.	.	.	.	.	.	.	.
=26	=26	=26	=26	=26	=26	=26	=26	=26	=26	=26	=26	=26	=26	=26	=26	=26	=26	=26	=26	=26	=26	=26	=26	=26	=26	=26	=26	=26
!	!LO:TX:t=P:problem:mixed beam	!	!	!	!	!	!	!	!	!	!	!	!	!	!	!	!	!	!	!	!	!	!	!	!	!	!	!
2ryy	16F\LL	.	1r	.	8r	.	8r	.	.	.	.	.	.	.	8.a\	-di-	.	0r	.	.	0r	.	0r	.	0r	.	0r	.
.	16FF/	.	.	.	.	.	.	.	.	.	.	.	.	.	.	.	.	.	.	.	.	.	.	.	.	.	.	.
.	16AA/	.	.	.	8a/L	.	8cc\L	.	.	.	.	.	.	.	.	.	.	.	.	.	.	.	.	.	.	.	.	.
.	16C/JJ	.	.	.	.	.	.	.	.	.	.	.	.	.	16a\	-ci-	.	.	.	.	.	.	.	.	.	.	.	.
.	16F\LL	.	.	.	8a/	.	8cc\	.	.	.	.	.	.	.	8a\	-mus	.	.	.	.	.	.	.	.	.	.	.	.
.	16C\	.	.	.	.	.	.	.	.	.	.	.	.	.	.	.	.	.	.	.	.	.	.	.	.	.	.	.
.	16AA\	.	.	.	8a/J	.	8cc\J	.	.	.	.	.	.	.	8r	.	.	.	.	.	.	.	.	.	.	.	.	.
.	16C\JJ	.	.	.	.	.	.	.	.	.	.	.	.	.	.	.	.	.	.	.	.	.	.	.	.	.	.	.
=27	=27	=27	=27	=27	=27	=27	=27	=27	=27	=27	=27	=27	=27	=27	=27	=27	=27	=27	=27	=27	=27	=27	=27	=27	=27	=27	=27	=27
!	!LO:TX:t=P:problem:mixed beam	!	!	!	!	!	!	!	!	!	!	!	!	!	!	!	!	!	!	!	!	!	!	!	!	!	!	!
2ryy	8FF/L	.	.	.	8r	.	8r	.	2r	.	.	.	.	.	16a\LL	a-	.	.	.	.	.	.	.	.	.	.	.	.
.	.	.	.	.	.	.	.	.	.	.	.	.	.	.	16g\JJ	.	.	.	.	.	.	.	.	.	.	.	.	.
.	8F\	.	.	.	8a/L	.	8cc\L	.	.	.	.	.	.	.	16f\LL	-do-	.	.	.	.	.	.	.	.	.	.	.	.
.	.	.	.	.	.	.	.	.	.	.	.	.	.	.	16e\JJ	.	.	.	.	.	.	.	.	.	.	.	.	.
.	8F\	.	.	.	8a/	.	8dd\	.	.	.	.	.	.	.	16d\LL	-ra-	.	.	.	.	.	.	.	.	.	.	.	.
.	.	.	.	.	.	.	.	.	.	.	.	.	.	.	16a\JJ	.	.	.	.	.	.	.	.	.	.	.	.	.
.	8F\J	.	.	.	8a/J	.	8dd\J	.	.	.	.	.	.	.	16dd\LL	-mus	.	.	.	.	.	.	.	.	.	.	.	.
.	.	.	.	.	.	.	.	.	.	.	.	.	.	.	16cc\JJ	.	.	.	.	.	.	.	.	.	.	.	.	.
=28	=28	=28	=28	=28	=28	=28	=28	=28	=28	=28	=28	=28	=28	=28	=28	=28	=28	=28	=28	=28	=28	=28	=28	=28	=28	=28	=28	=28
.	.	.	.	.	.	.	.	.	.	.	.	.	.	.	8qcc/	.	.	.	.	.	.	.	.	.	.	.	.	.
!	!	!	!	!	!	!	!	!	!LO:TX:a:i:t=Solo.	!	!	!	!	!	!	!	!	!	!	!	!	!	!	!	!	!	!	!
2ryy	4G\	.	4r	.	4bn\	.	4dd\	.	8r	.	.	.	.	.	4bn\	te	.	.	.	.	.	.	.	.	.	.	.	.
.	.	.	.	.	.	.	.	.	8G\	Glo-	.	.	.	.	.	.	.	.	.	.	.	.	.	.	.	.	.	.
.	8r	.	8r	.	8r	.	8r	.	8G\	-ri-	.	.	.	.	4r	.	.	.	.	.	.	.	.	.	.	.	.	.
!	!	!	!	!LO:DY:a:t=pia&colon;	!	!	!	!	!	!	!	!	!	!	!	!	!	!	!	!	!	!	!	!	!	!	!	!
.	8F\	.	8d\	p	8g/	.	8bn\	.	16A\LL	-fi-	.	.	.	.	.	.	.	.	.	.	.	.	.	.	.	.	.	.
.	.	.	.	.	.	.	.	.	16Bn\JJ	.	.	.	.	.	.	.	.	.	.	.	.	.	.	.	.	.	.	.
=29	=29	=29	=29	=29	=29	=29	=29	=29	=29	=29	=29	=29	=29	=29	=29	=29	=29	=29	=29	=29	=29	=29	=29	=29	=29	=29	=29	=29
2ryy	4E\	.	4e\	.	4g/	.	4cc\	.	16.c\LL	-ca-	.	0r	.	.	0r	.	.	.	.	.	.	.	.	.	.	.	.	.
.	.	.	.	.	.	.	.	.	32G\K	.	.	.	.	.	.	.	.	.	.	.	.	.	.	.	.	.	.	.
.	.	.	.	.	.	.	.	.	16.e\	.	.	.	.	.	.	.	.	.	.	.	.	.	.	.	.	.	.	.
.	.	.	.	.	.	.	.	.	32d\JJk	.	.	.	.	.	.	.	.	.	.	.	.	.	.	.	.	.	.	.
.	8r	.	8r	.	8r	.	8r	.	16c\LL	.	.	.	.	.	.	.	.	.	.	.	.	.	.	.	.	.	.	.
.	.	.	.	.	.	.	.	.	16Bn\	.	.	.	.	.	.	.	.	.	.	.	.	.	.	.	.	.	.	.
.	8E\	.	8g\	.	8g/	.	8cc\	.	16.A\	.	.	.	.	.	.	.	.	.	.	.	.	.	.	.	.	.	.	.
!	!	!	!	!	!	!	!	!	!LO:N:vis=16	!	!	!	!	!	!	!	!	!	!	!	!	!	!	!	!	!	!	!
.	.	.	.	.	.	.	.	.	32G\JJk	.	.	.	.	.	.	.	.	.	.	.	.	.	.	.	.	.	.	.
!	!LO:LB:g=original	!	!	!	!	!	!	!	!	!	!	!	!	!	!	!	!	!	!	!	!	!	!	!	!	!	!	!
=30	=30	=30	=30	=30	=30	=30	=30	=30	=30	=30	=30	=30	=30	=30	=30	=30	=30	=30	=30	=30	=30	=30	=30	=30	=30	=30	=30	=30
2ryy	4F\	.	4c\	.	4a/	.	4cc\	.	16.A\LL	.	.	.	.	.	.	.	.	0r	.	.	0r	.	0r	.	0r	.	0r	.
.	.	.	.	.	.	.	.	.	32F\K	.	.	.	.	.	.	.	.	.	.	.	.	.	.	.	.	.	.	.
.	.	.	.	.	.	.	.	.	16.c\	.	.	.	.	.	.	.	.	.	.	.	.	.	.	.	.	.	.	.
.	.	.	.	.	.	.	.	.	32Bn\JJk	.	.	.	.	.	.	.	.	.	.	.	.	.	.	.	.	.	.	.
.	8r	.	8r	.	8r	.	8r	.	16.A\LL	.	.	.	.	.	.	.	.	.	.	.	.	.	.	.	.	.	.	.
.	.	.	.	.	.	.	.	.	32G\K	.	.	.	.	.	.	.	.	.	.	.	.	.	.	.	.	.	.	.
.	8C/	.	8G/	.	8g/	.	8cc\	.	16.F\	.	.	.	.	.	.	.	.	.	.	.	.	.	.	.	.	.	.	.
.	.	.	.	.	.	.	.	.	32E\JJk	.	.	.	.	.	.	.	.	.	.	.	.	.	.	.	.	.	.	.
=31	=31	=31	=31	=31	=31	=31	=31	=31	=31	=31	=31	=31	=31	=31	=31	=31	=31	=31	=31	=31	=31	=31	=31	=31	=31	=31	=31	=31
2ryy	4D/	.	4G/	.	4f/	.	4bn\	.	16.F\LL	.	.	.	.	.	.	.	.	.	.	.	.	.	.	.	.	.	.	.
.	.	.	.	.	.	.	.	.	32D\K	.	.	.	.	.	.	.	.	.	.	.	.	.	.	.	.	.	.	.
.	.	.	.	.	.	.	.	.	16.d\	.	.	.	.	.	.	.	.	.	.	.	.	.	.	.	.	.	.	.
.	.	.	.	.	.	.	.	.	32c\JJk	.	.	.	.	.	.	.	.	.	.	.	.	.	.	.	.	.	.	.
!	!	!	!	!	!	!	!LO:LB:g=original	!	!	!	!	!	!	!	!	!	!	!	!	!	!	!	!	!	!	!	!	!
.	8r	.	8r	.	8r	.	8r	.	16.Bn\LL	.	.	.	.	.	.	.	.	.	.	.	.	.	.	.	.	.	.	.
.	.	.	.	.	.	.	.	.	32A\K	.	.	.	.	.	.	.	.	.	.	.	.	.	.	.	.	.	.	.
.	8BBn/	.	8G/	.	8f/	.	8dd\	.	16.G\	.	.	.	.	.	.	.	.	.	.	.	.	.	.	.	.	.	.	.
.	.	.	.	.	.	.	.	.	32F\JJk	.	.	.	.	.	.	.	.	.	.	.	.	.	.	.	.	.	.	.
!	!	!	!	!	!	!	!	!	!LO:LB:g=original	!	!	!	!	!	!	!	!	!	!	!	!	!	!	!	!	!	!	!
=32	=32	=32	=32	=32	=32	=32	=32	=32	=32	=32	=32	=32	=32	=32	=32	=32	=32	=32	=32	=32	=32	=32	=32	=32	=32	=32	=32	=32
2ryy	8C\L	.	8G/L	.	8e/L	.	8cc\L	.	8E\	-muſ	.	.	.	.	.	.	.	.	.	.	.	.	.	.	.	.	.	.
.	8C\	.	8G/	.	8e/	.	8cc\	.	8c\	Glo-	.	.	.	.	.	.	.	.	.	.	.	.	.	.	.	.	.	.
.	8E\	.	8c/	.	8g/	.	8cc\	.	8c\	-ri-	.	.	.	.	.	.	.	.	.	.	.	.	.	.	.	.	.	.
.	8E\J	.	8c/J	.	8g/J	.	8cc\J	.	8B-X\	-fi-	.	.	.	.	.	.	.	.	.	.	.	.	.	.	.	.	.	.
!	!	!	!LO:LB:g=original	!	!	!	!	!	!	!	!	!	!	!	!	!	!	!	!	!	!	!	!	!	!	!	!	!
=33	=33	=33	=33	=33	=33	=33	=33	=33	=33	=33	=33	=33	=33	=33	=33	=33	=33	=33	=33	=33	=33	=33	=33	=33	=33	=33	=33	=33
*	*2\right	*	*	*	*	*	*	*	*	*	*	*	*	*	*	*	*	*	*	*	*	*	*	*	*	*	*	*
*	*tremolo	*	*	*	*	*	*	*	*	*	*	*	*	*	*	*	*	*	*	*	*	*	*	*	*	*	*	*
2ryy	8F\L	.	8c/	.	8a/L	.	8cc\L	.	4A\	-ca-	.	1r	.	.	1r	.	.	.	.	.	.	.	.	.	.	.	.	.
.	8F\	.	8r	.	8a/	.	8cc#X\	.	.	.	.	.	.	.	.	.	.	.	.	.	.	.	.	.	.	.	.	.
.	8F\	.	4r	.	8a/J	.	8dd\J	.	16A\LL	.	.	.	.	.	.	.	.	.	.	.	.	.	.	.	.	.	.	.
.	.	.	.	.	.	.	.	.	32B-\L	.	.	.	.	.	.	.	.	.	.	.	.	.	.	.	.	.	.	.
.	.	.	.	.	.	.	.	.	32c\JJJ	.	.	.	.	.	.	.	.	.	.	.	.	.	.	.	.	.	.	.
.	8F\J	.	.	.	8r	.	8r	.	16d\LL	.	.	.	.	.	.	.	.	.	.	.	.	.	.	.	.	.	.	.
.	.	.	.	.	.	.	.	.	16c\JJ	.	.	.	.	.	.	.	.	.	.	.	.	.	.	.	.	.	.	.
*	*Xtremolo	*	*	*	*	*	*	*	*	*	*	*	*	*	*	*	*	*	*	*	*	*	*	*	*	*	*	*
=34	=34	=34	=34	=34	=34	=34	=34	=34	=34	=34	=34	=34	=34	=34	=34	=34	=34	=34	=34	=34	=34	=34	=34	=34	=34	=34	=34	=34
!	!LO:TX:t=P:problem:mixed beam	!	!	!	!	!	!	!	!	!	!	!	!	!	!	!	!	!	!	!	!	!	!	!	!	!	!	!
2ryy	8G\L	.	8r	.	8r	.	8r	.	8Bn\L	.	.	.	.	.	.	.	.	1r	.	.	2r	.	2r	.	2r	.	2r	.
.	8A\	.	8F/L	.	8f/L	.	8ccn\L	.	16c\L	.	.	.	.	.	.	.	.	.	.	.	.	.	.	.	.	.	.	.
.	.	.	.	.	.	.	.	.	16F\JJ	.	.	.	.	.	.	.	.	.	.	.	.	.	.	.	.	.	.	.
.	8G\	.	8G/	.	8e/	.	8cc\	.	8E\	.	.	.	.	.	.	.	.	.	.	.	.	.	.	.	.	.	.	.
.	8GG/J	.	8G/J	.	8d/J	.	8bn\J	.	8D/	-mus	.	.	.	.	.	.	.	.	.	.	.	.	.	.	.	.	.	.
!	!	!	!	!	!	!	!	!	!	!	!	!	!	!	!	!	!	!	!	!	!	!	!	!	!LO:LB:g=original	!	!	!
=35	=35	=35	=35	=35	=35	=35	=35	=35	=35	=35	=35	=35	=35	=35	=35	=35	=35	=35	=35	=35	=35	=35	=35	=35	=35	=35	=35	=35
!	!LO:TX:t=P:problem:mixed beam	!	!	!	!	!	!	!	!	!	!	!	!	!	!	!	!	!	!	!	!LO:TX:t=P:problem:brak taktu nr 35	!	!LO:TX:t=P:problem:brak taktu nr 35	!	!LO:TX:t=P:problem:brak taktu nr 35	!	!LO:TX:t=P:problem:brak taktu nr 35	!
2ryy	8C/L	.	8G/L	.	4e/	.	4cc\	.	4C/	te	.	2r	.	.	2r	.	.	.	.	.	2ryy	.	2ryy	.	2ryy	.	2ryy	.
.	8c\	.	8c/	.	.	.	.	.	.	.	.	.	.	.	.	.	.	.	.	.	.	.	.	.	.	.	.	.
!	!	!	!	!	!	!LO:DY:a:t=p.	!LO:TX:a:t=T&colon;	!LO:DY:a:t=p.	!	!	!	!	!	!	!	!	!	!	!	!	!	!	!	!	!	!	!	!
.	8G\	.	8G/	.	4r	p	4r	p	4r	.	.	.	.	.	.	.	.	.	.	.	.	.	.	.	.	.	.	.
.	8E-X\J	.	8E-X/J	.	.	.	.	.	.	.	.	.	.	.	.	.	.	.	.	.	.	.	.	.	.	.	.	.
=36	=36	=36	=36	=36	=36	=36	=36	=36	=36	=36	=36	=36	=36	=36	=36	=36	=36	=36	=36	=36	=36	=36	=36	=36	=36	=36	=36	=36
*	*tremolo	*	*	*	*	*	*	*	*	*	*	*	*	*	*	*	*	*	*	*	*	*	*	*	*tremolo	*	*	*
!	!	!	!	!	!	!	!	!	!	!	!	!	!	!	!LO:SIC:v:t=custos g	!	!	!	!	!	!	!	!	!	!	!	!	!
!	!	!	!LO:TX:t=P:problem:mixed beam	!	!LO:TX:a:t=T.	!	!	!	!LO:TX:a:t=T.	!	!	!LO:TX:a:t=T.	!	!	!LO:TX:a:t=T.	!	!	!LO:TX:a:t=T.	!	!	!	!LO:DY:a	!	!LO:DY:a	!	!LO:DY:a	!	!LO:DY:a
2ryy	8C/L	.	8C/L	.	8g/L	.	4ee-X\	.	4C/	Gra-	.	4c\	Gra-	.	4g\	gra-	.	4ee-X\	Gra-	.	4cc/	p	4cc/	p	8g/L	p	4ee-X\	p
.	8C/	.	8c\	.	8g/	.	.	.	.	.	.	.	.	.	.	.	.	.	.	.	.	.	.	.	8g/	.	.	.
!	!	!	!	!	!	!	!	!	!	!	!	!	!	!LO:DY:a	!LO:LB:g=original	!	!	!	!	!	!	!	!	!	!	!	!	!
.	8C/	.	8c\	.	8g/	.	16ee-\LL	.	8C/	-ti-	.	8c\	-ti-	p	8g\	-ti-	.	16ee-\LL	-ti-	.	4r	.	4r	.	8g/	.	16ee-\LL	.
.	.	.	.	.	.	.	16dd\	.	.	.	.	.	.	.	.	.	.	16dd\JJ	.	.	.	.	.	.	.	.	16dd\	.
.	8C/J	.	8c\J	.	8g/J	.	16dd\	.	8C/	-as	.	8c\	-as	.	8g\	-as	.	16dd\LL	-as	.	.	.	.	.	8g/J	.	16dd\	.
.	.	.	.	.	.	.	16cc\JJ	.	.	.	.	.	.	.	.	.	.	16cc\JJ	.	.	.	.	.	.	.	.	16cc\JJ	.
!	!	!	!	!	!LO:LB:g=original	!	!	!	!	!	!	!	!	!	!	!	!	!	!	!	!	!	!	!	!	!	!	!
=37	=37	=37	=37	=37	=37	=37	=37	=37	=37	=37	=37	=37	=37	=37	=37	=37	=37	=37	=37	=37	=37	=37	=37	=37	=37	=37	=37	=37
*	*	*	*tremolo	*	*	*	*	*	*	*	*	*	*	*	*	*	*	*	*	*	*	*	*	*	*	*	*	*
2ryy	8A-X\L	.	8c\L	.	8e-X/L	.	16cc\LL	.	4A-X\	A-	.	4c\	A-	.	8e-X\	a-	.	16cc\LL	a-	.	4cc/	.	4cc/	.	8e-X/L	.	8cc\L	.
!	!	!	!	!	!	!	!LO:SIC:v:s=16bn\	!	!	!	!	!	!	!	!	!	!	!LO:SIC:v:s=16bn\JJ	!	!	!	!	!	!	!	!	!	!
.	.	.	.	.	.	.	16b-\	.	.	.	.	.	.	.	.	.	.	16b-\JJ	.	.	.	.	.	.	.	.	.	.
!	!	!	!	!	!	!	!LO:SIC:v:s=16bn\	!	!	!	!	!	!	!	!	!	!	!LO:SIC:v:s=16bn\LL	!	!	!	!	!	!	!	!	!	!
.	8A-\	.	8c\	.	8e-/	.	16b-\	.	.	.	.	.	.	.	8e-\	-gi-	.	16b-\LL	-gi-	.	.	.	.	.	8e-/	.	8bn\J	.
.	.	.	.	.	.	.	16cc\JJ	.	.	.	.	.	.	.	.	.	.	16cc\JJ	.	.	.	.	.	.	.	.	.	.
.	8A-\	.	8c\	.	8e-/	.	4cc\	.	8A-\	-gi-	.	8c\	-gi-	.	4e-\	-mus	.	4cc\	-mus	.	4r	.	4r	.	8e-/	.	4cc\	.
.	8A-\J	.	8c\J	.	8e-/J	.	.	.	8A-\	-mus	.	8c\	-mus	.	.	.	.	.	.	.	.	.	.	.	8e-/J	.	.	.
=38	=38	=38	=38	=38	=38	=38	=38	=38	=38	=38	=38	=38	=38	=38	=38	=38	=38	=38	=38	=38	=38	=38	=38	=38	=38	=38	=38	=38
*	*	*	*	*	*	*	*	*	*	*ij	*	*	*ij	*	*	*	*	*	*	*	*	*	*	*	*	*	*	*
!	!	!	!	!	!	!	!	!	!	!	!	!	!	!	!	!	!	!	!	!	!	!	!	!	!LO:SIC:v:s=8e-/L	!	!	!
2ryy	8G\L	.	8c\L	.	8e-X/L	.	4ee-X\	.	4G\	A-	.	4c\	A-	.	4e-X\	a-	.	4ee-X\	a-	.	4cc/	.	4cc/	.	8e/L	.	4ee-X\	.
!	!	!	!	!	!	!	!	!	!	!	!	!	!	!	!	!	!	!	!	!	!	!	!	!	!LO:SIC:v:s=8e-/	!	!	!
.	8G\	.	8c\	.	8e-/	.	.	.	.	.	.	.	.	.	.	.	.	.	.	.	.	.	.	.	8e/	.	.	.
.	.	.	.	.	.	.	8qff/	.	.	.	.	.	.	.	.	.	.	.	.	.	.	.	.	.	.	.	.	.
!	!	!	!	!	!	!	!	!	!	!	!	!	!	!	!	!	!	!	!	!	!	!	!	!	!LO:SIC:v:s=8e-/	!	!	!
.	8G\	.	8c\	.	8e-/	.	16ee-\LL	.	8G\	-gi-	.	8c\	-gi-	.	8e-\	-gi-	.	16ee-\LL	-gi-	.	4r	.	4r	.	8e/	.	8ee-\L	.
.	.	.	.	.	.	.	32dd\L	.	.	.	.	.	.	.	.	.	.	16dd\JJ	.	.	.	.	.	.	.	.	.	.
.	.	.	.	.	.	.	32ee-\JJJ	.	.	.	.	.	.	.	.	.	.	.	.	.	.	.	.	.	.	.	.	.
.	.	.	.	.	.	.	8qff/	.	.	.	.	.	.	.	.	.	.	.	.	.	.	.	.	.	.	.	.	.
!	!	!	!	!	!	!	!	!	!	!	!	!	!	!	!	!	!	!	!	!	!	!	!	!	!LO:SIC:v:s=8e-/J	!	!	!
.	8G\J	.	8c\J	.	8e-/J	.	16ee-\LL	.	8G\	-mus	.	8c\	-mus	.	8e-\	-mus	.	16dd\LL	-mus	.	.	.	.	.	8e/J	.	16dd\L	.
*	*	*	*	*	*	*	*	*	*	*Xij	*	*	*Xij	*	*	*	*	*	*	*	*	*	*	*	*	*	*	*
.	.	.	.	.	.	.	32dd\L	.	.	.	.	.	.	.	.	.	.	16cc\JJ	.	.	.	.	.	.	.	.	16cc\JJ	.
.	.	.	.	.	.	.	32ee-\JJJ	.	.	.	.	.	.	.	.	.	.	.	.	.	.	.	.	.	.	.	.	.
!	!	!	!	!	!	!	!	!	!	!	!	!	!	!	!	!	!	!	!	!	!LO:LB:g=original	!	!	!	!	!	!LO:LB:g=original	!
=39	=39	=39	=39	=39	=39	=39	=39	=39	=39	=39	=39	=39	=39	=39	=39	=39	=39	=39	=39	=39	=39	=39	=39	=39	=39	=39	=39	=39
*	*	*	*	*	*	*	*	*	*2\right	*	*	*2\right	*	*	*2\right	*	*	*	*	*	*	*	*	*	*	*	*	*
!	!	!	!	!	!LO:SIC:v:s=8e-/L	!	!	!	!	!	!	!	!	!	!LO:SIC:v:s=2e-\	!	!	!	!	!	!	!	!	!	!LO:SIC:v:s=8e-/L	!	!	!
2ryy	8F#X\L	.	8c\L	.	8e/L	.	16cc\LL	.	2F#X\	ti-	.	2An\	ti-	.	2e\	ti-	.	8cc\L	ti-	.	4cc/	.	4cc/	.	8e/L	.	2cc\	.
.	.	.	.	.	.	.	16bn\	.	.	.	.	.	.	.	.	.	.	.	.	.	.	.	.	.	.	.	.	.
!	!	!	!	!	!LO:SIC:v:s=8e-	!	!	!	!	!	!	!	!	!	!	!	!	!	!	!	!	!	!	!	!LO:SIC:v:s=8e-/	!	!	!
.	8F#\	.	8c\	.	8e/	.	16b\	.	.	.	.	.	.	.	.	.	.	16bn\L	.	.	.	.	.	.	8e/	.	.	.
.	.	.	.	.	.	.	16cc\JJ	.	.	.	.	.	.	.	.	.	.	16cc\JJ	.	.	.	.	.	.	.	.	.	.
!	!	!	!	!	!LO:SIC:v:s=8e-	!	!	!	!	!	!	!	!	!	!	!	!	!	!	!	!	!	!	!	!LO:SIC:v:s=8e-/	!	!	!
.	8F#\	.	8c\	.	8e/	.	4cc\	.	.	.	.	.	.	.	.	.	.	4cc\	.	.	4r	.	4r	.	8e/	.	.	.
!	!	!	!	!	!LO:SIC:v:s=8e-/J	!	!	!	!	!	!	!	!	!	!	!	!	!	!	!	!	!	!	!	!LO:SIC:v:s=8e-/J	!	!	!
.	8F#\J	.	8c\J	.	8e/J	.	.	.	.	.	.	.	.	.	.	.	.	.	.	.	.	.	.	.	8e/J	.	.	.
*	*Xtremolo	*	*Xtremolo	*	*	*	*	*	*	*	*	*	*	*	*	*	*	*	*	*	*	*	*	*	*Xtremolo	*	*	*
=40	=40	=40	=40	=40	=40	=40	=40	=40	=40	=40	=40	=40	=40	=40	=40	=40	=40	=40	=40	=40	=40	=40	=40	=40	=40	=40	=40	=40
!	!	!	!	!	!	!	!LO:SIC:v:s=4bn\	!	!	!	!	!	!	!	!	!	!	!	!	!	!	!	!	!	!	!	!	!
2ryy	4G\	.	4g\	.	4d/	.	4b-\	.	4G\	-bi	.	4Bn\	-bi	.	4d\	-bi	.	4bn\	-bi	.	4gg\	.	4gg\	.	4d/	.	4bn\	.
!	!	!	!	!	!	!	!	!	!	!	!	!	!	!	!	!	!	!	!	!	!	!	!LO:TX:b:i:t=vertatur.	!	!	!	!	!
.	4r	.	4r	.	4r	.	4r	.	4r	.	.	4r	.	.	4r	.	.	4r	.	.	4r	.	4r	.	4r	.	4r	.
!	!	!	!	!	!	!	!	!	!	!	!	!	!	!	!	!	!	!	!	!	!	!	!LO:PB:g=original	!	!	!	!	!
=41	=41	=41	=41	=41	=41	=41	=41	=41	=41	=41	=41	=41	=41	=41	=41	=41	=41	=41	=41	=41	=41	=41	=41	=41	=41	=41	=41	=41
!	!	!	!LO:TX:a:t=9	!	!	!	!LO:TX:a:t=9	!	!	!	!	!	!	!	!	!	!	!	!	!	!LO:TX:a:t=10	!	!LO:TX:a:t=10	!	!LO:TX:a:t=10	!	!LO:TX:a:t=10	!
2ryy	0r	.	0r	.	0r	.	0r	.	0r	.	.	0r	.	.	2r	.	.	0r	.	.	0r	.	0r	.	0r	.	0r	.
=42	=42	=42	=42	=42	=42	=42	=42	=42	=42	=42	=42	=42	=42	=42	=42	=42	=42	=42	=42	=42	=42	=42	=42	=42	=42	=42	=42	=42
2ryy	.	.	.	.	.	.	.	.	.	.	.	.	.	.	2r	.	.	.	.	.	.	.	.	.	.	.	.	.
=43	=43	=43	=43	=43	=43	=43	=43	=43	=43	=43	=43	=43	=43	=43	=43	=43	=43	=43	=43	=43	=43	=43	=43	=43	=43	=43	=43	=43
2ryy	.	.	.	.	.	.	.	.	.	.	.	.	.	.	2r	.	.	.	.	.	.	.	.	.	.	.	.	.
=44	=44	=44	=44	=44	=44	=44	=44	=44	=44	=44	=44	=44	=44	=44	=44	=44	=44	=44	=44	=44	=44	=44	=44	=44	=44	=44	=44	=44
2ryy	.	.	.	.	.	.	.	.	.	.	.	.	.	.	2r	.	.	.	.	.	.	.	.	.	.	.	.	.
=45	=45	=45	=45	=45	=45	=45	=45	=45	=45	=45	=45	=45	=45	=45	=45	=45	=45	=45	=45	=45	=45	=45	=45	=45	=45	=45	=45	=45
!	!	!	!	!	!	!	!	!	!	!	!LO:DY:a:t=pia&colon;	!	!	!LO:DY:a	!	!	!	!	!	!	!	!	!	!	!	!	!	!
2ryy	4r	.	0r	.	0r	.	0r	.	4r	.	p	4r	.	p	4r	.	.	4r	.	.	0r	.	0r	.	0r	.	0r	.
!	!	!	!	!	!	!	!	!	!	!	!	!LO:LB:g=original	!	!	!	!	!LO:DY:a	!	!	!	!	!	!	!	!	!	!	!
.	8r	.	.	.	.	.	.	.	8r	.	.	8r	.	.	8r	.	p	8r	.	.	.	.	.	.	.	.	.	.
!	!	!	!	!	!	!	!	!	!	!	!	!	!	!	!	!	!	!	!	!LO:DY:a	!	!	!	!	!	!	!	!
.	8Bn\	.	.	.	.	.	.	.	16Bn\	(pro)-	.	16f\	(pro)-	.	16g\	(pro)-	.	16dd\	(pro)-	p	.	.	.	.	.	.	.	.
.	.	.	.	.	.	.	.	.	16B\	-pter	.	16f\	-pter	.	16g\	-pter	.	16dd\	-pter	.	.	.	.	.	.	.	.	.
!	!	!	!	!	!	!	!	!	!LO:LB:g=original	!	!	!	!	!	!	!	!	!LO:LB:g=original	!	!	!	!	!	!	!	!	!	!
=46	=46	=46	=46	=46	=46	=46	=46	=46	=46	=46	=46	=46	=46	=46	=46	=46	=46	=46	=46	=46	=46	=46	=46	=46	=46	=46	=46	=46
!	!LO:TX:t=P:problem:mixed beam	!	!	!	!	!	!	!	!	!	!	!	!	!	!	!	!	!	!	!	!	!	!	!	!	!	!	!
2ryy	8c\L	.	.	.	.	.	.	.	8c\	ma-	.	8e\	ma-	.	8g\	ma-	.	8ee\	ma-	.	.	.	.	.	.	.	.	.
.	8C/J	.	.	.	.	.	.	.	8C/	-gnam	.	8e\	-gnam	.	8g\	-gnam	.	8ee\	-gnam	.	.	.	.	.	.	.	.	.
.	8r	.	.	.	.	.	.	.	8r	.	.	8r	.	.	8r	.	.	8r	.	.	.	.	.	.	.	.	.	.
*	*	*	*	*	*	*	*	*	*	*ij	*	*	*ij	*	*	*	*	*	*ij	*	*	*	*	*	*	*	*	*
.	8F\	.	.	.	.	.	.	.	16F\	(pro)-	.	16d\	(pro)-	.	16g\	(pro)-	.	16dd\	(pro)-	.	.	.	.	.	.	.	.	.
.	.	.	.	.	.	.	.	.	16F\	-pter	.	16d\	-pter	.	16g\	-pter	.	16dd\	-pter	.	.	.	.	.	.	.	.	.
!	!LO:LB:g=original	!	!	!	!	!	!	!	!	!	!	!	!	!	!	!	!	!	!	!	!	!	!	!	!	!	!	!
=47	=47	=47	=47	=47	=47	=47	=47	=47	=47	=47	=47	=47	=47	=47	=47	=47	=47	=47	=47	=47	=47	=47	=47	=47	=47	=47	=47	=47
2ryy	8E\L	.	.	.	.	.	.	.	8E/	ma-	.	8c\	ma-	.	8g\	ma-	.	8cc\	ma-	.	.	.	.	.	.	.	.	.
.	8C\J	.	.	.	.	.	.	.	8C/	-gnam	.	8e\	-gnam	.	8g\	-gnam	.	8cc\	-gnam	.	.	.	.	.	.	.	.	.
*	*	*	*	*	*	*	*	*	*	*Xij	*	*	*Xij	*	*	*ij	*	*	*Xij	*	*	*	*	*	*	*	*	*
.	8r	.	.	.	.	.	.	.	8r	.	.	8r	.	.	8r	.	.	8r	.	.	.	.	.	.	.	.	.	.
.	8Bn\	.	.	.	.	.	.	.	16Bn\	pro-	.	16f\	(pro)-	.	16g\	(pro)-	.	16dd\	(pro)-	.	.	.	.	.	.	.	.	.
.	.	.	.	.	.	.	.	.	16B\	-pter	.	16f\	-pter	.	16g\	-pter	.	16dd\	-pter	.	.	.	.	.	.	.	.	.
!	!	!	!	!	!	!	!	!	!	!	!	!	!	!	!LO:LB:g=original	!	!	!	!	!	!	!	!	!	!	!	!	!
=48	=48	=48	=48	=48	=48	=48	=48	=48	=48	=48	=48	=48	=48	=48	=48	=48	=48	=48	=48	=48	=48	=48	=48	=48	=48	=48	=48	=48
!	!LO:TX:t=P:problem:mixed beam	!	!	!	!	!	!	!	!	!	!	!	!	!	!	!	!	!LO:TX:t=P:problem:brak taktu nr 48	!	!	!	!	!	!	!	!	!	!
2ryy	8c\L	.	.	.	.	.	.	.	8c\	ma-	.	8e\	ma-	.	8g\	ma-	.	2ryy	.	.	.	.	.	.	.	.	.	.
.	8C/J	.	.	.	.	.	.	.	8C/	-gnam	.	8e\	-gnam	.	8g\	-gnam	.	.	.	.	.	.	.	.	.	.	.	.
.	8r	.	.	.	.	.	.	.	8r	.	.	8r	.	.	8r	.	.	.	.	.	.	.	.	.	.	.	.	.
*	*	*	*	*	*	*	*	*	*	*ij	*	*	*ij	*	*	*	*	*	*	*	*	*	*	*	*	*	*	*
.	8F\	.	.	.	.	.	.	.	16F\	pro-	.	16Bn\	(pro)-	.	16g\	(pro)-	.	.	.	.	.	.	.	.	.	.	.	.
.	.	.	.	.	.	.	.	.	16F\	-pter	.	16B\	-pter	.	16g\	-pter	.	.	.	.	.	.	.	.	.	.	.	.
=49	=49	=49	=49	=49	=49	=49	=49	=49	=49	=49	=49	=49	=49	=49	=49	=49	=49	=49	=49	=49	=49	=49	=49	=49	=49	=49	=49	=49
2ryy	8E\	.	2r	.	2r	.	2r	.	4E\	ma-	.	4c\	ma-	.	4g\	ma-	.	4cc\	ma-	.	1r	.	1r	.	1r	.	1r	.
.	8r	.	.	.	.	.	.	.	.	.	.	.	.	.	.	.	.	.	.	.	.	.	.	.	.	.	.	.
.	8E\L	.	.	.	.	.	.	.	4E\	-gnam	.	4c\	-gnam	.	4g\	-gnam	.	4b-X\	gnam	.	.	.	.	.	.	.	.	.
*	*	*	*	*	*	*	*	*	*	*Xij	*	*	*Xij	*	*	*Xij	*	*	*	*	*	*	*	*	*	*	*	*
.	8E\J	.	.	.	.	.	.	.	.	.	.	.	.	.	.	.	.	.	.	.	.	.	.	.	.	.	.	.
!	!	!	!	!	!	!	!LO:LB:g=original	!	!	!	!	!	!	!	!	!	!	!	!	!	!	!	!	!	!	!	!	!
=50	=50	=50	=50	=50	=50	=50	=50	=50	=50	=50	=50	=50	=50	=50	=50	=50	=50	=50	=50	=50	=50	=50	=50	=50	=50	=50	=50	=50
!	!LO:TX:t=P:problem:mixed beam	!	!	!	!	!	!	!	!	!	!	!	!	!	!	!	!	!	!	!	!	!	!	!	!	!	!	!
2ryy	8F\L	.	8f\L	.	8a/L	.	8cc\L	.	8F\	glo-	.	8c\	glo-	.	8a\	glo-	.	8a\	glo-	.	.	.	.	.	.	.	.	.
.	8F\	.	8f\	.	8a/	.	8cc\	.	16F\	-ri-	.	16f\	-ri-	.	16a\	-ri-	.	16cc\	-ri-	.	.	.	.	.	.	.	.	.
.	.	.	.	.	.	.	.	.	16F\	-am	.	16f\	-am	.	16a\	-am	.	16cc\	-am	.	.	.	.	.	.	.	.	.
!	!	!	!	!	!	!	!	!	!	!	!	!	!	!	!	!	!LO:DY:a	!	!	!	!	!	!	!	!	!	!	!
.	8G\	.	8g\	.	8g/	.	8cc\	.	4G\	tu-	.	8e\L	tu-	.	4g\	tu-	f	8cc\L	tu-	.	.	.	.	.	.	.	.	.
.	8GG/J	.	8g\J	.	8g/J	.	8bn\J	.	.	.	.	8d\J	.	.	.	.	.	8bn\J	.	.	.	.	.	.	.	.	.	.
=51	=51	=51	=51	=51	=51	=51	=51	=51	=51	=51	=51	=51	=51	=51	=51	=51	=51	=51	=51	=51	=51	=51	=51	=51	=51	=51	=51	=51
!	!	!	!	!	!	!LO:DY:a	!	!	!	!	!LO:DY:a:t=f&colon;	!LO:SIC:v:t=custos c	!	!	!	!	!	!	!	!	!	!	!	!	!	!	!	!LO:DY:a
2ryy	4C/	.	4g\	.	4g/	f	4cc\	.	4C/	-am	f	4c\	-am	.	4g\	-am	.	4cc\	-am	.	4r	.	4r	.	4r	.	4r	f
!	!	!LO:DY:a:t=f&colon;	!	!LO:DY:a	!	!	!	!LO:DY:a:t=f&colon;	!	!	!	!LO:LB:g=original	!	!LO:DY:a:t=f&colon;	!	!	!	!	!	!LO:DY:a:t=f.	!	!LO:DY:a:t=f.	!	!LO:DY:a	!	!LO:DY:a:t=f&colon;	!	!
.	8c\L	f	8g\L	f	16cc\LL	.	16ee\LL	f	(4B-X\	ma-	.	8c\	pro-	f	(4g\	ma-	.	(4ee\	ma-	f	4gg\	f	4gg\	f	4cc\	f	4ee\	.
.	.	.	.	.	16cc\	.	16ee\	.	.	.	.	.	.	.	.	.	.	.	.	.	.	.	.	.	.	.	.	.
.	8c\J	.	8g\J	.	16cc\	.	16ee\	.	.	.	.	8c\	-pter	.	.	.	.	.	.	.	.	.	.	.	.	.	.	.
.	.	.	.	.	16cc\JJ	.	16ee\JJ	.	.	.	.	.	.	.	.	.	.	.	.	.	.	.	.	.	.	.	.	.
=52	=52	=52	=52	=52	=52	=52	=52	=52	=52	=52	=52	=52	=52	=52	=52	=52	=52	=52	=52	=52	=52	=52	=52	=52	=52	=52	=52	=52
*	*	*	*	*	*2\right	*	*	*	*	*	*	*	*	*	*	*	*	*	*	*	*	*	*	*	*	*	*	*
*	*	*	*	*	*tremolo	*	*	*	*	*	*	*	*	*	*	*	*	*	*	*	*	*	*	*	*	*	*	*
2ryy	8A\L	.	8f\L	.	16cc\LL	.	16ff\LL	.	4A\)	.	.	4c\	ma-	.	4a\)	.	.	4ff\)	.	.	4ff\	.	4ff\	.	4cc\	.	4ff\	.
.	.	.	.	.	16cc\	.	16ff\	.	.	.	.	.	.	.	.	.	.	.	.	.	.	.	.	.	.	.	.	.
.	8A\	.	8f\	.	16cc\	.	16ff\	.	.	.	.	.	.	.	.	.	.	.	.	.	.	.	.	.	.	.	.	.
.	.	.	.	.	16cc\	.	16ff\JJ	.	.	.	.	.	.	.	.	.	.	.	.	.	.	.	.	.	.	.	.	.
.	8F\	.	8a\	.	16cc\	.	16dd\LL	.	4F\	-gnam	.	4c\	-gnam	.	4a\	-gnam	.	4dd\	-gnam	.	4cc\	.	4aa\	.	4cc\	.	4dd\	.
.	.	.	.	.	16cc\	.	16dd\	.	.	.	.	.	.	.	.	.	.	.	.	.	.	.	.	.	.	.	.	.
.	8F\J	.	8a\J	.	16cc\	.	16dd\	.	.	.	.	.	.	.	.	.	.	.	.	.	.	.	.	.	.	.	.	.
.	.	.	.	.	16cc\JJ	.	16dd\JJ	.	.	.	.	.	.	.	.	.	.	.	.	.	.	.	.	.	.	.	.	.
=53	=53	=53	=53	=53	=53	=53	=53	=53	=53	=53	=53	=53	=53	=53	=53	=53	=53	=53	=53	=53	=53	=53	=53	=53	=53	=53	=53	=53
*	*	*	*	*	*	*	*	*	*	*	*	*	*	*	*	*	*	*	*	*	*	*	*	*	*2\right	*	*	*
*	*tremolo	*	*tremolo	*	*	*	*	*	*	*	*	*	*	*	*	*	*	*	*	*	*tremolo	*	*tremolo	*	*tremolo	*	*	*
2ryy	8G\L	.	8g\L	.	16cc\LL	.	16ee\LL	.	4G\	glo-	.	4c\	glo-	.	4g\	glo-	.	4ee\	glo-	.	8cc/L	.	8gg\L	.	8cc\L	.	8ee\L	.
.	.	.	.	.	16cc\	.	16ee\	.	.	.	.	.	.	.	.	.	.	.	.	.	.	.	.	.	.	.	.	.
.	8G\	.	8g\	.	16cc\	.	16ee\	.	.	.	.	.	.	.	.	.	.	.	.	.	8cc/	.	8gg\	.	8cc\	.	8ee\	.
.	.	.	.	.	16cc\	.	16ee\JJ	.	.	.	.	.	.	.	.	.	.	.	.	.	.	.	.	.	.	.	.	.
.	8G\	.	8g\	.	16cc\	.	16ee\LL	.	8G\	-ri-	.	8c\	-ri-	.	8g\	-ri-	.	8ee\	-ri-	.	8cc/	.	8gg\	.	8cc\	.	8ee\	.
.	.	.	.	.	16cc\	.	16ee\	.	.	.	.	.	.	.	.	.	.	.	.	.	.	.	.	.	.	.	.	.
.	8G\J	.	8g\J	.	16cc\	.	16ee\	.	8G\	-am	.	8c\	-am	.	8g\	-am	.	8ee\	-am	.	8cc/J	.	8gg\J	.	8cc\J	.	8ee\J	.
.	.	.	.	.	16cc\JJ	.	16ee\JJ	.	.	.	.	.	.	.	.	.	.	.	.	.	.	.	.	.	.	.	.	.
*	*	*	*	*	*Xtremolo	*	*	*	*	*	*	*	*	*	*	*	*	*	*	*	*	*	*	*	*Xtremolo	*	*	*
!	!	!	!	!	!	!	!	!	!LO:LB:g=original	!	!	!	!	!	!	!	!	!	!	!	!	!	!	!	!	!	!	!
=54	=54	=54	=54	=54	=54	=54	=54	=54	=54	=54	=54	=54	=54	=54	=54	=54	=54	=54	=54	=54	=54	=54	=54	=54	=54	=54	=54	=54
*	*	*	*	*	*	*	*	*	*	*	*	*	*	*	*	*	*	*2\right	*	*	*	*	*	*	*	*	*	*
2ryy	8G\L	.	8g\L	.	16cc\LL	.	16dd\LL	.	2G\	tu-	.	4c\	tu-	.	2g\	tu-	.	2dd\	tu-	.	8gg\L	.	8gg\L	.	8cc\L	.	8dd\L	.
.	.	.	.	.	16cc\	.	16dd\	.	.	.	.	.	.	.	.	.	.	.	.	.	.	.	.	.	.	.	.	.
.	8G\	.	8g\	.	16cc\	.	16dd\	.	.	.	.	.	.	.	.	.	.	.	.	.	8gg\	.	8gg\	.	8cc\	.	8dd\	.
.	.	.	.	.	16cc\JJ	.	16dd\JJ	.	.	.	.	.	.	.	.	.	.	.	.	.	.	.	.	.	.	.	.	.
.	8G\	.	8g\	.	16bn\LL	.	16dd\LL	.	.	.	.	4Bn\	.	.	.	.	.	.	.	.	8gg\	.	8gg\	.	8bn\	.	8dd\	.
.	.	.	.	.	16b\	.	16dd\	.	.	.	.	.	.	.	.	.	.	.	.	.	.	.	.	.	.	.	.	.
.	8G\J	.	8g\J	.	16b\	.	16dd\	.	.	.	.	.	.	.	.	.	.	.	.	.	8gg\J	.	8gg\J	.	8b\J	.	8dd\J	.
.	.	.	.	.	16b\JJ	.	16dd\JJ	.	.	.	.	.	.	.	.	.	.	.	.	.	.	.	.	.	.	.	.	.
*	*Xtremolo	*	*Xtremolo	*	*	*	*	*	*	*	*	*	*	*	*	*	*	*	*	*	*Xtremolo	*	*Xtremolo	*	*	*	*	*
=55	=55	=55	=55	=55	=55	=55	=55	=55	=55	=55	=55	=55	=55	=55	=55	=55	=55	=55	=55	=55	=55	=55	=55	=55	=55	=55	=55	=55
!	!	!LO:DY:a	!	!	!	!	!	!LO:DY:a	!	!	!	!	!	!	!	!	!	!	!	!	!	!	!	!	!	!	!	!
2ryy	8C/L	p	4g\	.	4cc\	.	4cc\	p	4C/	-am	.	4c\	-am	.	4g\	-am.	.	4cc\	-am,	.	4cc/	.	4gg\	.	4cc\	.	4cc\	.
.	8C/	.	.	.	.	.	.	.	.	.	.	.	.	.	.	.	.	.	.	.	.	.	.	.	.	.	.	.
!	!	!	!LO:LB:g=original	!LO:DY:a	!	!LO:DY:a	!	!	!	!	!	!	!	!	!	!	!	!	!	!	!	!	!	!	!	!	!	!
.	8E/	.	8c\L	p	16r	p	16r	.	4r	.	.	4r	.	.	4r	.	.	4r	.	.	4r	.	4r	.	4r	.	4r	.
.	.	.	.	.	16gg\LL	.	16gg\LL	.	.	.	.	.	.	.	.	.	.	.	.	.	.	.	.	.	.	.	.	.
.	8E/J	.	8c\J	.	16ee\	.	16ee\	.	.	.	.	.	.	.	.	.	.	.	.	.	.	.	.	.	.	.	.	.
.	.	.	.	.	16b-X\JJ	.	16b-X\JJ	.	.	.	.	.	.	.	.	.	.	.	.	.	.	.	.	.	.	.	.	.
!	!	!	!	!	!	!	!	!	!	!	!	!	!	!	!	!	!	!LO:LB:g=original	!	!	!	!	!	!	!	!	!	!
=56	=56	=56	=56	=56	=56	=56	=56	=56	=56	=56	=56	=56	=56	=56	=56	=56	=56	=56	=56	=56	=56	=56	=56	=56	=56	=56	=56	=56
*	*tremolo	*	*	*	*	*	*	*	*	*	*	*	*	*	*	*	*	*	*	*	*	*	*	*	*	*	*	*
!	!	!	!	!	!	!	!	!	!	!	!	!	!	!	!LO:TX:a:t=11.	!	!	!	!	!	!	!	!	!	!LO:TX:a:t=9	!	!LO:TX:a:t=9	!
2ryy	8F\L	.	8c\L	.	16b-/LL	.	16b-/LL	.	0r	.	.	0r	.	.	0r	.	.	0r	.	.	0r	.	0r	.	0r	.	0r	.
.	.	.	.	.	16a/	.	16a/	.	.	.	.	.	.	.	.	.	.	.	.	.	.	.	.	.	.	.	.	.
.	8F\	.	8c\	.	16g#X/	.	16g#X/	.	.	.	.	.	.	.	.	.	.	.	.	.	.	.	.	.	.	.	.	.
.	.	.	.	.	16a/JJ	.	16a/JJ	.	.	.	.	.	.	.	.	.	.	.	.	.	.	.	.	.	.	.	.	.
!	!	!	!	!	!LO:PB:g=original	!	!	!	!	!	!	!	!	!	!	!	!	!	!	!	!	!	!	!	!	!	!	!
!	!	!	!	!	!LO:SIC:v:s=16gn	!	!	!	!	!	!	!	!	!	!	!	!	!	!	!	!	!	!	!	!	!	!	!
.	8F\	.	8a\	.	16g#/LL	.	16gn/LL	.	.	.	.	.	.	.	.	.	.	.	.	.	.	.	.	.	.	.	.	.
.	.	.	.	.	16f/	.	16f/	.	.	.	.	.	.	.	.	.	.	.	.	.	.	.	.	.	.	.	.	.
*	*	*	*	*	*tuplet	*	*tuplet	*	*	*	*	*	*	*	*	*	*	*	*	*	*	*	*	*	*	*	*	*
!	!	!	!	!	!LO:TUP:b:problem:klamra łukowa	!	!LO:TUP:b:problem:klamra łukowa	!	!	!	!	!	!	!	!	!	!	!	!	!	!	!	!	!	!	!	!	!
.	8F\J	.	8a\J	.	24e/	.	24e/	.	.	.	.	.	.	.	.	.	.	.	.	.	.	.	.	.	.	.	.	.
.	.	.	.	.	24f/	.	24f/	.	.	.	.	.	.	.	.	.	.	.	.	.	.	.	.	.	.	.	.	.
.	.	.	.	.	24d/JJ	.	24d/JJ	.	.	.	.	.	.	.	.	.	.	.	.	.	.	.	.	.	.	.	.	.
*	*Xtremolo	*	*	*	*	*	*	*	*	*	*	*	*	*	*	*	*	*	*	*	*	*	*	*	*	*	*	*
=57	=57	=57	=57	=57	=57	=57	=57	=57	=57	=57	=57	=57	=57	=57	=57	=57	=57	=57	=57	=57	=57	=57	=57	=57	=57	=57	=57	=57
!	!LO:TX:t=P:problem:mixed beam	!	!	!	!	!	!	!	!	!	!	!	!	!	!	!	!	!	!	!	!	!	!	!	!	!	!	!
2ryy	8G\L	.	8e\L	.	8c/L	.	8c/L	.	.	.	.	.	.	.	.	.	.	.	.	.	.	.	.	.	.	.	.	.
.	8GG/J	.	8d\J	.	8Bn/J	.	8Bn/J	.	.	.	.	.	.	.	.	.	.	.	.	.	.	.	.	.	.	.	.	.
.	16G\LL	.	4r	.	4r	.	4r	.	.	.	.	.	.	.	.	.	.	.	.	.	.	.	.	.	.	.	.	.
.	16F\	.	.	.	.	.	.	.	.	.	.	.	.	.	.	.	.	.	.	.	.	.	.	.	.	.	.	.
.	16E\	.	.	.	.	.	.	.	.	.	.	.	.	.	.	.	.	.	.	.	.	.	.	.	.	.	.	.
.	16D\JJ	.	.	.	.	.	.	.	.	.	.	.	.	.	.	.	.	.	.	.	.	.	.	.	.	.	.	.
=58	=58	=58	=58	=58	=58	=58	=58	=58	=58	=58	=58	=58	=58	=58	=58	=58	=58	=58	=58	=58	=58	=58	=58	=58	=58	=58	=58	=58
!	!	!	!	!	!LO:TX:a:t=6	!	!LO:TX:a:t=6	!	!	!	!	!	!	!	!	!	!	!	!	!	!	!	!	!	!	!	!	!
2ryy	8E\	.	0r	.	0r	.	0r	.	.	.	.	.	.	.	.	.	.	.	.	.	.	.	.	.	.	.	.	.
!	!LO:LB:g=original	!	!	!	!	!	!	!	!	!	!	!	!	!	!	!	!	!	!	!	!	!	!	!	!	!	!	!
.	8r	.	.	.	.	.	.	.	.	.	.	.	.	.	.	.	.	.	.	.	.	.	.	.	.	.	.	.
.	4r	.	.	.	.	.	.	.	.	.	.	.	.	.	.	.	.	.	.	.	.	.	.	.	.	.	.	.
=59	=59	=59	=59	=59	=59	=59	=59	=59	=59	=59	=59	=59	=59	=59	=59	=59	=59	=59	=59	=59	=59	=59	=59	=59	=59	=59	=59	=59
!	!LO:TX:a:t=6	!	!	!	!	!	!	!	!	!	!	!	!	!	!	!	!	!	!	!	!	!	!	!	!	!	!	!
2ryy	0r	.	.	.	.	.	.	.	.	.	.	.	.	.	.	.	.	.	.	.	.	.	.	.	.	.	.	.
=60	=60	=60	=60	=60	=60	=60	=60	=60	=60	=60	=60	=60	=60	=60	=60	=60	=60	=60	=60	=60	=60	=60	=60	=60	=60	=60	=60	=60
2ryy	.	.	.	.	.	.	.	.	0r	.	.	0r	.	.	0r	.	.	0r	.	.	0r	.	0r	.	0r	.	0r	.
=61	=61	=61	=61	=61	=61	=61	=61	=61	=61	=61	=61	=61	=61	=61	=61	=61	=61	=61	=61	=61	=61	=61	=61	=61	=61	=61	=61	=61
2ryy	.	.	.	.	.	.	.	.	.	.	.	.	.	.	.	.	.	.	.	.	.	.	.	.	.	.	.	.
=62	=62	=62	=62	=62	=62	=62	=62	=62	=62	=62	=62	=62	=62	=62	=62	=62	=62	=62	=62	=62	=62	=62	=62	=62	=62	=62	=62	=62
2ryy	.	.	1r	.	1r	.	1r	.	.	.	.	.	.	.	.	.	.	.	.	.	.	.	.	.	.	.	.	.
=63	=63	=63	=63	=63	=63	=63	=63	=63	=63	=63	=63	=63	=63	=63	=63	=63	=63	=63	=63	=63	=63	=63	=63	=63	=63	=63	=63	=63
2ryy	1r	.	.	.	.	.	.	.	.	.	.	.	.	.	.	.	.	.	.	.	.	.	.	.	.	.	.	.
!	!	!	!	!	!	!	!LO:LB:g=original	!	!	!	!	!	!	!	!	!	!	!	!	!	!	!	!	!	!	!	!	!
=64	=64	=64	=64	=64	=64	=64	=64	=64	=64	=64	=64	=64	=64	=64	=64	=64	=64	=64	=64	=64	=64	=64	=64	=64	=64	=64	=64	=64
!	!	!	!LO:TX:t=P:problem:nadmiarowy takt w vlne	!	!LO:TX:t=P:problem:nadmiarowy takt w vlne	!	!LO:TX:t=P:problem:nadmiarowy takt w vlne	!	!LO:TX:t=P:problem:nadmiarowy takt w vlne	!	!	!LO:TX:t=P:problem:nadmiarowy takt w vlne	!	!	!LO:TX:t=P:problem:nadmiarowy takt w vlne	!	!	!LO:TX:t=P:problem:nadmiarowy takt w vlne	!	!	!LO:TX:t=P:problem:nadmiarowy takt w vlne	!	!LO:TX:t=P:problem:nadmiarowy takt w vlne	!	!LO:TX:t=P:problem:nadmiarowy takt w vlne	!	!LO:TX:t=P:problem:nadmiarowy takt w vlne	!
2ryy	.	.	2ryy	.	2ryy	.	2ryy	.	2ryy	.	.	2ryy	.	.	2ryy	.	.	2ryy	.	.	2ryy	.	2ryy	.	2ryy	.	2ryy	.
=65	=65	=65	=65	=65	=65	=65	=65	=65	=65	=65	=65	=65	=65	=65	=65	=65	=65	=65	=65	=65	=65	=65	=65	=65	=65	=65	=65	=65
!	!	!LO:DY:a	!	!LO:DY:a	!	!LO:DY:a	!	!LO:DY:a:t=f&colon;	!	!	!	!	!	!	!	!	!	!	!	!	!	!	!	!	!	!	!	!
2ryy	8C/	f	8c\	f	16.cc\LL	f	16.cc\LL	f	0r	.	.	0r	.	.	1r	.	.	0r	.	.	2r	.	2r	.	2r	.	2r	.
.	.	.	.	.	32g\K	.	32g\K	.	.	.	.	.	.	.	.	.	.	.	.	.	.	.	.	.	.	.	.	.
.	16r	.	16r	.	16.ee\	.	16.ee\	.	.	.	.	.	.	.	.	.	.	.	.	.	.	.	.	.	.	.	.	.
.	16Bn\	.	16bn\	.	.	.	.	.	.	.	.	.	.	.	.	.	.	.	.	.	.	.	.	.	.	.	.	.
.	.	.	.	.	32bn\JJk	.	32bn\JJk	.	.	.	.	.	.	.	.	.	.	.	.	.	.	.	.	.	.	.	.	.
.	16c\LL	.	16cc\LL	.	16.cc\LL	.	16.cc/LL	.	.	.	.	.	.	.	.	.	.	.	.	.	.	.	.	.	.	.	.	.
.	16B\	.	16bn\	.	.	.	.	.	.	.	.	.	.	.	.	.	.	.	.	.	.	.	.	.	.	.	.	.
.	.	.	.	.	32b\K	.	32b/K	.	.	.	.	.	.	.	.	.	.	.	.	.	.	.	.	.	.	.	.	.
.	16c\	.	16cc\	.	16.cc\	.	16.cc/	.	.	.	.	.	.	.	.	.	.	.	.	.	.	.	.	.	.	.	.	.
.	16G#X\JJ	.	16g#X\JJ	.	.	.	.	.	.	.	.	.	.	.	.	.	.	.	.	.	.	.	.	.	.	.	.	.
.	.	.	.	.	32g#X\JJk	.	32g#X/JJk	.	.	.	.	.	.	.	.	.	.	.	.	.	.	.	.	.	.	.	.	.
=66	=66	=66	=66	=66	=66	=66	=66	=66	=66	=66	=66	=66	=66	=66	=66	=66	=66	=66	=66	=66	=66	=66	=66	=66	=66	=66	=66	=66
2ryy	16A\LL	.	16a\LL	.	16.a/LL	.	16.a/LL	.	.	.	.	.	.	.	.	.	.	.	.	.	4r	.	4r	.	4r	.	4r	.
.	16G\	.	16g\	.	.	.	.	.	.	.	.	.	.	.	.	.	.	.	.	.	.	.	.	.	.	.	.	.
.	.	.	.	.	32g/K	.	32g/K	.	.	.	.	.	.	.	.	.	.	.	.	.	.	.	.	.	.	.	.	.
.	16A\	.	16a\	.	16.a/	.	16.a/	.	.	.	.	.	.	.	.	.	.	.	.	.	.	.	.	.	.	.	.	.
.	16E\JJ	.	16e\JJ	.	.	.	.	.	.	.	.	.	.	.	.	.	.	.	.	.	.	.	.	.	.	.	.	.
.	.	.	.	.	32e/JJk	.	32e/JJk	.	.	.	.	.	.	.	.	.	.	.	.	.	.	.	.	.	.	.	.	.
.	8F\L	.	8f\L	.	8f/L	.	8f/L	.	.	.	.	.	.	.	.	.	.	.	.	.	8r	.	8r	.	8r	.	8r	.
!	!	!	!	!	!	!	!	!	!	!	!	!	!	!	!	!	!	!	!	!	!	!LO:DY:a:t=f&colon;	!	!LO:DY:a:t=f&colon;	!	!	!	!
.	8G\J	.	8g\J	.	8g/J	.	8g/J	.	.	.	.	.	.	.	.	.	.	.	.	.	8gg\	f	8gg\	f	8g/	.	8g/	.
=67	=67	=67	=67	=67	=67	=67	=67	=67	=67	=67	=67	=67	=67	=67	=67	=67	=67	=67	=67	=67	=67	=67	=67	=67	=67	=67	=67	=67
!	!LO:TX:t=P:problem:mixed beam	!	!	!	!	!	!LO:TX:t=P:problem:mixed beam	!	!	!	!	!	!	!	!	!	!	!	!	!	!	!	!	!	!LO:TX:t=P:problem:mixed beam	!	!	!
2ryy	8C/L	.	8c\L	.	8c/L	.	8c/L	.	.	.	.	.	.	.	2r	.	.	.	.	.	8cc/L	.	8gg\L	.	8e/L	.	8cc\L	.
.	8c\	.	8g\	.	8e/	.	8cc\	.	.	.	.	.	.	.	.	.	.	.	.	.	8cc/	.	8gg\	.	8cc\	.	8ee\	.
.	8C/J	.	8g\J	.	8e/J	.	8cc\J	.	.	.	.	.	.	.	.	.	.	.	.	.	8cc/J	.	8gg\J	.	8cc\J	.	8ee\J	.
.	8r	.	8r	.	8r	.	8r	.	.	.	.	.	.	.	.	.	.	.	.	.	8r	.	8r	.	8r	.	8r	.
!	!	!	!	!	!	!	!	!	!	!	!	!	!	!	!LO:LB:g=original	!	!	!	!	!	!	!	!	!	!	!	!	!
=68	=68	=68	=68	=68	=68	=68	=68	=68	=68	=68	=68	=68	=68	=68	=68	=68	=68	=68	=68	=68	=68	=68	=68	=68	=68	=68	=68	=68
!	!	!LO:DY:a	!	!LO:DY:a	!	!LO:DY:a:t=pia&colon;	!	!LO:DY:a	!	!	!	!	!	!	!	!	!LO:DY:a:t=f.	!	!	!	!	!	!	!	!LO:TX:a:t=16	!	!LO:TX:a:t=5	!
2ryy	8r	p	8r	p	8r	p	8cc\L	p	.	.	.	.	.	.	4g\	Do-	f	.	.	.	0r	.	0r	.	0r	.	0r	.
.	8C/L	.	8G/L	.	8e/L	.	8g\J	.	.	.	.	.	.	.	.	.	.	.	.	.	.	.	.	.	.	.	.	.
.	8E/	.	8G/	.	8g/	.	16r	.	.	.	.	.	.	.	8g\	-mi-	.	.	.	.	.	.	.	.	.	.	.	.
.	.	.	.	.	.	.	16cc\LL	.	.	.	.	.	.	.	.	.	.	.	.	.	.	.	.	.	.	.	.	.
!	!	!	!	!	!	!	!	!	!	!	!	!	!	!	!LO:SIC:v:l:s=-ne	!	!	!	!	!	!	!	!	!	!	!	!	!
.	8C/J	.	8G/J	.	8e/J	.	16g\	.	.	.	.	.	.	.	8cc\	-ni	.	.	.	.	.	.	.	.	.	.	.	.
.	.	.	.	.	.	.	16ee\JJ	.	.	.	.	.	.	.	.	.	.	.	.	.	.	.	.	.	.	.	.	.
=69	=69	=69	=69	=69	=69	=69	=69	=69	=69	=69	=69	=69	=69	=69	=69	=69	=69	=69	=69	=69	=69	=69	=69	=69	=69	=69	=69	=69
2ryy	8r	.	8r	.	8r	.	8dd\L	.	0r	.	.	1r	.	.	8dd\	De-	.	0r	.	.	.	.	.	.	.	.	.	.
.	8G\L	.	8G/L	.	8Bn/L	.	8g\J	.	.	.	.	.	.	.	8g\	-us,	.	.	.	.	.	.	.	.	.	.	.	.
.	8Bn\	.	8G/	.	8d/	.	16r	.	.	.	.	.	.	.	8r	.	.	.	.	.	.	.	.	.	.	.	.	.
.	.	.	.	.	.	.	16dd\LL	.	.	.	.	.	.	.	.	.	.	.	.	.	.	.	.	.	.	.	.	.
.	8G\J	.	8G/J	.	8B/J	.	16g\	.	.	.	.	.	.	.	8dd\	De-	.	.	.	.	.	.	.	.	.	.	.	.
.	.	.	.	.	.	.	16ff\JJ	.	.	.	.	.	.	.	.	.	.	.	.	.	.	.	.	.	.	.	.	.
=70	=70	=70	=70	=70	=70	=70	=70	=70	=70	=70	=70	=70	=70	=70	=70	=70	=70	=70	=70	=70	=70	=70	=70	=70	=70	=70	=70	=70
!	!LO:TX:t=P:problem:mixed beam	!	!	!	!	!	!	!	!	!	!	!	!	!	!	!	!	!	!	!	!	!	!	!	!	!	!	!
2ryy	8c\L	.	8G/	.	8r	.	16ee\LL	.	.	.	.	.	.	.	16ee\LL	.	.	.	.	.	.	.	.	.	.	.	.	.
.	.	.	.	.	.	.	16dd\J	.	.	.	.	.	.	.	16dd\JJ	.	.	.	.	.	.	.	.	.	.	.	.	.
.	8C/J	.	8r	.	8c/L	.	8cc\J	.	.	.	.	.	.	.	8cc\	-us	.	.	.	.	.	.	.	.	.	.	.	.
*	*	*	*	*	*	*	*Xtuplet	*	*	*	*	*	*	*	*	*	*	*	*	*	*	*	*	*	*	*	*	*
.	8r	.	8r	.	8c/	.	24gg\LL	.	.	.	.	.	.	.	8r	.	.	.	.	.	.	.	.	.	.	.	.	.
.	.	.	.	.	.	.	24ff\	.	.	.	.	.	.	.	.	.	.	.	.	.	.	.	.	.	.	.	.	.
.	.	.	.	.	.	.	24ee\JJ	.	.	.	.	.	.	.	.	.	.	.	.	.	.	.	.	.	.	.	.	.
.	8E\	.	8g\	.	8c/J	.	24dd\LL	.	.	.	.	.	.	.	16g\	Rex	.	.	.	.	.	.	.	.	.	.	.	.
.	.	.	.	.	.	.	24cc\	.	.	.	.	.	.	.	.	.	.	.	.	.	.	.	.	.	.	.	.	.
.	.	.	.	.	.	.	.	.	.	.	.	.	.	.	16b-\	cae-	.	.	.	.	.	.	.	.	.	.	.	.
.	.	.	.	.	.	.	24b-\JJ	.	.	.	.	.	.	.	.	.	.	.	.	.	.	.	.	.	.	.	.	.
=71	=71	=71	=71	=71	=71	=71	=71	=71	=71	=71	=71	=71	=71	=71	=71	=71	=71	=71	=71	=71	=71	=71	=71	=71	=71	=71	=71	=71
!	!LO:TX:t=P:problem:mixed beam	!	!	!	!	!	!LO:TX:a:t=t	!	!	!	!	!	!	!	!	!	!	!	!	!	!	!	!	!	!	!	!	!
2ryy	8F\L	.	8g\L	.	8r	.	8b-/L	.	.	.	.	2r	.	.	8b-\	-le-	.	.	.	.	.	.	.	.	.	.	.	.
.	8FF/J	.	8f\J	.	8c/L	.	8a/J	.	.	.	.	.	.	.	8a\	-stis	.	.	.	.	.	.	.	.	.	.	.	.
.	8r	.	8r	.	8c/	.	24ff\LL	.	.	.	.	.	.	.	8r	.	.	.	.	.	.	.	.	.	.	.	.	.
.	.	.	.	.	.	.	24ee\	.	.	.	.	.	.	.	.	.	.	.	.	.	.	.	.	.	.	.	.	.
.	.	.	.	.	.	.	24dd\JJ	.	.	.	.	.	.	.	.	.	.	.	.	.	.	.	.	.	.	.	.	.
!	!	!	!LO:SIC:v:t=custos f, błędna wysokość	!	!	!	!	!	!	!	!	!	!	!	!	!	!	!	!	!	!	!	!	!	!	!	!	!
.	8F\	.	8f\	.	8c/J	.	24cc\LL	.	.	.	.	.	.	.	8a\	cae-	.	.	.	.	.	.	.	.	.	.	.	.
.	.	.	.	.	.	.	24b-\	.	.	.	.	.	.	.	.	.	.	.	.	.	.	.	.	.	.	.	.	.
.	.	.	.	.	.	.	24a\JJ	.	.	.	.	.	.	.	.	.	.	.	.	.	.	.	.	.	.	.	.	.
!	!	!	!LO:LB:g=original	!	!	!	!	!	!	!	!	!	!	!	!	!	!	!	!	!	!	!	!	!	!	!	!	!
=72	=72	=72	=72	=72	=72	=72	=72	=72	=72	=72	=72	=72	=72	=72	=72	=72	=72	=72	=72	=72	=72	=72	=72	=72	=72	=72	=72	=72
!	!LO:TX:t=P:problem:11 nadmiarowych taktów w ob 2	!	!	!	!	!	!	!	!	!	!	!	!	!	!	!	!	!	!	!	!	!	!	!	!	!	!	!
2ryy	2ryy	.	8c\L	.	8f/L	.	8at/L	.	.	.	.	8r	.	.	8a\	-le-	.	.	.	.	8r	.	8r	.	0r	.	2r	.
!	!	!	!	!	!	!	!	!	!	!	!	!	!	!	!	!	!	!	!	!	!	!	!	!LO:DY:a	!	!	!	!
.	.	.	8c\J	.	8e/J	.	8g/J	.	.	.	.	4c\	Do-	.	8g\	-stis	.	.	.	.	8cc/L	.	8cc/L	p	.	.	.	.
.	.	.	4r	.	4r	.	4r	.	.	.	.	.	.	.	4r	.	.	.	.	.	8cc/	.	8cc/	.	.	.	.	.
.	.	.	.	.	.	.	.	.	.	.	.	16c\	-mi-	.	.	.	.	.	.	.	8cc/J	.	8cc/J	.	.	.	.	.
.	.	.	.	.	.	.	.	.	.	.	.	16c\	-ne	.	.	.	.	.	.	.	.	.	.	.	.	.	.	.
=73	=73	=73	=73	=73	=73	=73	=73	=73	=73	=73	=73	=73	=73	=73	=73	=73	=73	=73	=73	=73	=73	=73	=73	=73	=73	=73	=73	=73
!	!	!	!LO:TX:t=P:problem:11 nadmiarowych taktów w ob 2	!	!LO:TX:t=P:problem:11 nadmiarowych taktów w ob 2	!	!LO:TX:t=P:problem:11 nadmiarowych taktów w ob 2	!	!LO:TX:t=P:problem:11 nadmiarowych taktów w ob 2	!	!	!LO:TX:t=P:problem:11 nadmiarowych taktów w ob 2	!	!	!LO:TX:t=P:problem:11 nadmiarowych taktów w ob 2	!	!	!LO:TX:t=P:problem:11 nadmiarowych taktów w ob 2	!	!	!LO:TX:t=P:problem:11 nadmiarowych taktów w ob 2	!	!LO:TX:t=P:problem:11 nadmiarowych taktów w ob 2	!	!LO:TX:t=P:problem:11 nadmiarowych pauz	!	!LO:TX:t=P:problem:11 nadmiarowych taktów w ob 2	!
2ryy	2ryy	.	2ryy	.	2ryy	.	2ryy	.	2ryy	.	.	2ryy	.	.	2ryy	.	.	2ryy	.	.	2r	.	2ryy	.	.	.	2ryy	.
=74	=74	=74	=74	=74	=74	=74	=74	=74	=74	=74	=74	=74	=74	=74	=74	=74	=74	=74	=74	=74	=74	=74	=74	=74	=74	=74	=74	=74
2ryy	2ryy	.	2ryy	.	2ryy	.	2ryy	.	2ryy	.	.	2ryy	.	.	2ryy	.	.	2ryy	.	.	2r	.	2ryy	.	.	.	2ryy	.
=75	=75	=75	=75	=75	=75	=75	=75	=75	=75	=75	=75	=75	=75	=75	=75	=75	=75	=75	=75	=75	=75	=75	=75	=75	=75	=75	=75	=75
2ryy	2ryy	.	2ryy	.	2ryy	.	2ryy	.	2ryy	.	.	2ryy	.	.	2ryy	.	.	2ryy	.	.	2r	.	2ryy	.	.	.	2ryy	.
=76	=76	=76	=76	=76	=76	=76	=76	=76	=76	=76	=76	=76	=76	=76	=76	=76	=76	=76	=76	=76	=76	=76	=76	=76	=76	=76	=76	=76
2ryy	2ryy	.	2ryy	.	2ryy	.	2ryy	.	2ryy	.	.	2ryy	.	.	2ryy	.	.	2ryy	.	.	2r	.	2ryy	.	0r	.	2ryy	.
=77	=77	=77	=77	=77	=77	=77	=77	=77	=77	=77	=77	=77	=77	=77	=77	=77	=77	=77	=77	=77	=77	=77	=77	=77	=77	=77	=77	=77
2ryy	2ryy	.	2ryy	.	2ryy	.	2ryy	.	2ryy	.	.	2ryy	.	.	2ryy	.	.	2ryy	.	.	2r	.	2ryy	.	.	.	2ryy	.
=78	=78	=78	=78	=78	=78	=78	=78	=78	=78	=78	=78	=78	=78	=78	=78	=78	=78	=78	=78	=78	=78	=78	=78	=78	=78	=78	=78	=78
2ryy	2ryy	.	2ryy	.	2ryy	.	2ryy	.	2ryy	.	.	2ryy	.	.	2ryy	.	.	2ryy	.	.	2r	.	2ryy	.	.	.	2ryy	.
=79	=79	=79	=79	=79	=79	=79	=79	=79	=79	=79	=79	=79	=79	=79	=79	=79	=79	=79	=79	=79	=79	=79	=79	=79	=79	=79	=79	=79
2ryy	2ryy	.	2ryy	.	2ryy	.	2ryy	.	2ryy	.	.	2ryy	.	.	2ryy	.	.	2ryy	.	.	2r	.	2ryy	.	.	.	2ryy	.
=80	=80	=80	=80	=80	=80	=80	=80	=80	=80	=80	=80	=80	=80	=80	=80	=80	=80	=80	=80	=80	=80	=80	=80	=80	=80	=80	=80	=80
2ryy	2ryy	.	2ryy	.	2ryy	.	2ryy	.	2ryy	.	.	2ryy	.	.	2ryy	.	.	2ryy	.	.	2r	.	2ryy	.	0r	.	2ryy	.
=81	=81	=81	=81	=81	=81	=81	=81	=81	=81	=81	=81	=81	=81	=81	=81	=81	=81	=81	=81	=81	=81	=81	=81	=81	=81	=81	=81	=81
2ryy	2ryy	.	2ryy	.	2ryy	.	2ryy	.	2ryy	.	.	2ryy	.	.	2ryy	.	.	2ryy	.	.	2r	.	2ryy	.	.	.	2ryy	.
=82	=82	=82	=82	=82	=82	=82	=82	=82	=82	=82	=82	=82	=82	=82	=82	=82	=82	=82	=82	=82	=82	=82	=82	=82	=82	=82	=82	=82
2ryy	2ryy	.	2ryy	.	2ryy	.	2ryy	.	2ryy	.	.	2ryy	.	.	2ryy	.	.	2ryy	.	.	2r	.	2ryy	.	.	.	2ryy	.
=83	=83	=83	=83	=83	=83	=83	=83	=83	=83	=83	=83	=83	=83	=83	=83	=83	=83	=83	=83	=83	=83	=83	=83	=83	=83	=83	=83	=83
!	!LO:TX:t=P:problem:mixed beam	!	!	!	!	!	!	!	!	!	!	!	!	!	!	!	!	!	!	!	!	!	!	!	!	!	!	!
2ryy	8c\L	.	2ryy	.	2ryy	.	2ryy	.	2ryy	.	.	2ryy	.	.	2ryy	.	.	2ryy	.	.	2r	.	2ryy	.	.	.	2ryy	.
.	8C/J	.	.	.	.	.	.	.	.	.	.	.	.	.	.	.	.	.	.	.	.	.	.	.	.	.	.	.
.	4r	.	.	.	.	.	.	.	.	.	.	.	.	.	.	.	.	.	.	.	.	.	.	.	.	.	.	.
!	!LO:PB:g=original	!	!	!	!	!	!	!	!	!	!	!	!	!	!	!	!	!	!	!	!	!	!	!	!LO:LB:g=original	!	!	!
=84	=84	=84	=84	=84	=84	=84	=84	=84	=84	=84	=84	=84	=84	=84	=84	=84	=84	=84	=84	=84	=84	=84	=84	=84	=84	=84	=84	=84
!	!	!	!	!	!	!	!	!	!LO:TX:a:t=T.	!	!	!	!	!	!	!	!	!LO:TX:a:t=T.	!	!	!	!	!	!	!	!LO:DY:a:rj	!	!
2ryy	8B-\L	.	8e\L	.	16c/LL	.	8ee\L	.	8B-\L	De-	.	2c\	De-	.	8g\L	De-	.	8ee\L	De-	.	2cc,</	.	2cc/	.	2cc\	p	8ee\L	.
.	.	.	.	.	16c/	.	.	.	.	.	.	.	.	.	.	.	.	.	.	.	.	.	.	.	.	.	.	.
.	8A\	.	8f\	.	16c/	.	8ff\	.	8A\J	.	.	.	.	.	8f\J	.	.	8ff\J	.	.	.	.	.	.	.	.	8ff\	.
.	.	.	.	.	16c/JJ	.	.	.	.	.	.	.	.	.	.	.	.	.	.	.	.	.	.	.	.	.	.	.
*	*	*	*	*	*tremolo	*	*	*	*	*	*	*	*	*	*	*	*	*	*	*	*	*	*	*	*	*	*	*
.	8G\	.	8g\	.	16c/LL	.	8gg\	.	8G\L	-us	.	.	.	.	8b-\L	-us	.	8gg\L	-us	.	.	.	.	.	.	.	8gg\	.
.	.	.	.	.	16c/	.	.	.	.	.	.	.	.	.	.	.	.	.	.	.	.	.	.	.	.	.	.	.
.	8F\J	.	8a\J	.	16c/	.	8aa\J	.	8F\J	.	.	.	.	.	8a\J	.	.	8aa\J	.	.	.	.	.	.	.	.	8aa\J	.
.	.	.	.	.	16c/JJ	.	.	.	.	.	.	.	.	.	.	.	.	.	.	.	.	.	.	.	.	.	.	.
=85	=85	=85	=85	=85	=85	=85	=85	=85	=85	=85	=85	=85	=85	=85	=85	=85	=85	=85	=85	=85	=85	=85	=85	=85	=85	=85	=85	=85
2ryy	8E\L	.	16b-\LL	.	16c/LL	.	16bb-\LL	.	8E\L	Pa-	.	2c\	-us	.	8g\	.	.	16bb-\LL	De-	.	2cc/	.	4.cc/	.	2cc\	.	8bb-\L	.
.	.	.	16g\	.	16c/	.	16gg\	.	.	.	.	.	.	.	.	.	.	16gg\	.	.	.	.	.	.	.	.	.	.
.	8F\	.	16a\	.	16c/	.	16aa\	.	8F\	.	.	.	.	.	8r	.	.	16aa\	.	.	.	.	.	.	.	.	16aa\L	.
.	.	.	16f\JJ	.	16c/	.	16ff\JJ	.	.	.	.	.	.	.	.	.	.	16ff\JJ	.	.	.	.	.	.	.	.	16gg\JJ	.
.	.	.	.	.	.	.	8qff/	.	.	.	.	.	.	.	.	.	.	.	.	.	.	.	.	.	.	.	.	.
!	!	!	!	!	!	!	!LO:LB:g=original	!	!	!	!	!	!	!	!	!	!	!	!	!	!	!	!	!	!	!	!	!
.	.	.	8qf/	.	.	.	8qff/	.	.	.	.	.	.	.	.	.	.	.	.	.	.	.	.	.	.	.	8qff/	.
.	8c\	.	8e\L	.	16c/	.	8ee\L	.	8c\J	.	.	.	.	.	4r	.	.	8ee\L	-us	.	.	.	.	.	.	.	8ee\L	.
.	.	.	.	.	16c/	.	.	.	.	.	.	.	.	.	.	.	.	.	.	.	.	.	.	.	.	.	.	.
.	8B-\J	.	16d\L	.	16c/	.	16dd\L	.	8B-\	-ter	.	.	.	.	.	.	.	16dd\L	.	.	.	.	8gg\	.	.	.	16dd\L	.
.	.	.	16e\JJ	.	16c/JJ	.	16ee\JJ	.	.	.	.	.	.	.	.	.	.	16ee\JJ	.	.	.	.	.	.	.	.	16ee\JJ	.
!	!	!	!	!	!LO:LB:g=original	!	!	!	!	!	!	!	!	!	!	!	!	!	!	!	!	!	!	!	!	!	!	!
=86	=86	=86	=86	=86	=86	=86	=86	=86	=86	=86	=86	=86	=86	=86	=86	=86	=86	=86	=86	=86	=86	=86	=86	=86	=86	=86	=86	=86
!	!	!	!	!	!	!	!	!	!	!	!	!	!	!	!	!	!	!	!	!	!LO:TX:t=P:problem:mixed beam	!	!	!	!	!	!	!
2ryy	8A\L	.	8f\L	.	16c/LL	.	16ff\LL	.	8A\L	De-	.	4c\	Pa-	.	8r	.	.	16ff\LL	pa-	.	8cc/L	.	8ff\L	.	8cc\L	.	8ff\	.
.	.	.	.	.	16c/	.	16cc\J	.	.	.	.	.	.	.	.	.	.	16cc\J	.	.	.	.	.	.	.	.	.	.
.	8F\	.	8a\J	.	16c/	.	8cc\J	.	8F\J	.	.	.	.	.	8a\	Pa-	.	8cc\J	-ter	.	8ff\	.	8aa\	.	8a\J	.	8r	.
.	.	.	.	.	16c/	.	.	.	.	.	.	.	.	.	.	.	.	.	.	.	.	.	.	.	.	.	.	.
!	!	!	!	!	!	!	!	!	!	!	!	!	!	!	!	!	!	!	!	!	!	!	!	!	!	!	!LO:TX:b:i:t=verte cito.	!
.	8E\	.	16b-\LL	.	16c/	.	4r	.	8E\L	-us	.	8c\	-ter	.	16b-\LL	.	.	4r	.	.	8gg\	.	8bb-\	.	16b-\LL	.	4r	.
.	.	.	16g\	.	16c/	.	.	.	.	.	.	.	.	.	16g\JJ	.	.	.	.	.	.	.	.	.	16g\	.	.	.
.	8F\J	.	16a\	.	16c/	.	.	.	8F\J	.	.	8c\	om-	.	16a\LL	.	.	.	.	.	8ff\J	.	8aa\J	.	16a\	.	.	.
.	.	.	16f\JJ	.	16c/JJ	.	.	.	.	.	.	.	.	.	16f\JJ	.	.	.	.	.	.	.	.	.	16f\JJ	.	.	.
!	!	!	!	!	!	!	!	!	!	!	!	!LO:LB:g=original	!	!	!LO:LB:g=original	!	!	!	!	!	!	!	!	!	!	!	!LO:PB:g=original	!
=87	=87	=87	=87	=87	=87	=87	=87	=87	=87	=87	=87	=87	=87	=87	=87	=87	=87	=87	=87	=87	=87	=87	=87	=87	=87	=87	=87	=87
*	*	*	*	*	*	*	*	*	*	*ij	*	*	*	*	*	*	*	*	*	*	*	*	*	*	*	*	*	*
2ryy	8B-\L	.	8e\L	.	16c/LL	.	8ee\L	.	8B-\L	De-	.	2c\	-ni-	.	8g\	-ter	.	8ee\L	pa-	.	2cc/	.	2cc/	.	2cc\	.	8ee\L	.
.	.	.	.	.	16c/	.	.	.	.	.	.	.	.	.	.	.	.	.	.	.	.	.	.	.	.	.	.	.
.	8A\	.	8f|\	.	16c/	.	8ff\	.	8A\J	.	.	.	.	.	8r	.	.	8ff\J	.	.	.	.	.	.	.	.	8ff\	.
.	.	.	.	.	16c/	.	.	.	.	.	.	.	.	.	.	.	.	.	.	.	.	.	.	.	.	.	.	.
.	8G\	.	8g\	.	16c/	.	8gg\	.	8G\L	-us	.	.	.	.	4r	.	.	8gg\L	-ter	.	.	.	.	.	.	.	8gg\	.
*	*	*	*	*	*	*	*	*	*	*Xij	*	*	*	*	*	*	*	*	*	*	*	*	*	*	*	*	*	*
.	.	.	.	.	16c/	.	.	.	.	.	.	.	.	.	.	.	.	.	.	.	.	.	.	.	.	.	.	.
.	8F\J	.	8a\J	.	16c/	.	8aa\J	.	8F\J	.	.	.	.	.	.	.	.	8aa\J	.	.	.	.	.	.	.	.	8aa\J	.
.	.	.	.	.	16c/JJ	.	.	.	.	.	.	.	.	.	.	.	.	.	.	.	.	.	.	.	.	.	.	.
=88	=88	=88	=88	=88	=88	=88	=88	=88	=88	=88	=88	=88	=88	=88	=88	=88	=88	=88	=88	=88	=88	=88	=88	=88	=88	=88	=88	=88
!	!	!	!	!	!	!	!	!	!	!	!	!	!	!	!LO:TX:a:t=1	!	!	!	!	!	!	!	!	!	!	!	!	!
2ryy	8E\L	.	16b-\LL	.	16c/LL	.	16bb-\LL	.	8E\L	Pa-	.	4.c\	.	.	2r	.	.	16bb-\LL	pa-	.	4.cc/	.	2cc/	.	2cc\	.	8bb-\L	.
.	.	.	16g\	.	16c/	.	16gg\	.	.	.	.	.	.	.	.	.	.	16gg\JJ	.	.	.	.	.	.	.	.	.	.
.	8F\	.	16a\	.	16c/	.	16aa\	.	8F\J	.	.	.	.	.	.	.	.	16aa\LL	-ter	.	.	.	.	.	.	.	16aa\L	.
.	.	.	16f\JJ	.	16c/	.	16ff\JJ	.	.	.	.	.	.	.	.	.	.	16ff\JJ	.	.	.	.	.	.	.	.	16ff\JJ	.
.	.	.	8qf/	.	.	.	8qff/	.	.	.	.	.	.	.	.	.	.	.	.	.	.	.	.	.	.	.	8qff/	.
.	8c\	.	8e\L	.	16c/	.	8ee\L	.	8c\	-ter	.	.	.	.	.	.	.	8ee\L	om-	.	.	.	.	.	.	.	8ee\L	.
.	.	.	.	.	16c/	.	.	.	.	.	.	.	.	.	.	.	.	.	.	.	.	.	.	.	.	.	.	.
.	8B-\J	.	16d\L	.	16c/	.	16dd\L	.	8B-\	om-	.	8c\	-po-	.	.	.	.	16dd\L	.	.	8cc/	.	.	.	.	.	16dd\L	.
.	.	.	16e\JJ	.	16c/JJ	.	16ee\JJ	.	.	.	.	.	.	.	.	.	.	16ee\JJ	.	.	.	.	.	.	.	.	16ee\JJ	.
*	*	*	*	*	*Xtremolo	*	*	*	*	*	*	*	*	*	*	*	*	*	*	*	*	*	*	*	*	*	*	*
=89	=89	=89	=89	=89	=89	=89	=89	=89	=89	=89	=89	=89	=89	=89	=89	=89	=89	=89	=89	=89	=89	=89	=89	=89	=89	=89	=89	=89
*	*tremolo	*	*	*	*	*	*	*	*	*	*	*	*	*	*	*	*	*	*	*	*	*	*	*	*	*	*	*
2ryy	8A\L	.	8f\L	.	16c/LL	.	8ff\L	.	16A\	-ni-	.	4c\	-tensſ	.	4r	.	.	16ff\	-ni-	.	4a/	.	4ff\	.	4cc\	.	4ff\	.
.	.	.	.	.	16c/	.	.	.	16A\	-po-	.	.	.	.	.	.	.	16cc\	-po-	.	.	.	.	.	.	.	.	.
.	8A\	.	8c\J	.	16c/	.	8cc\	.	8A\	-tenſ	.	.	.	.	.	.	.	8cc\	-tens	.	.	.	.	.	.	.	.	.
.	.	.	.	.	16c/JJ	.	.	.	.	.	.	.	.	.	.	.	.	.	.	.	.	.	.	.	.	.	.	.
!	!	!	!	!	!	!	!	!	!	!	!	!	!	!	!	!	!	!	!	!	!LO:TX:b:i:t=vertatur.	!	!	!	!	!	!	!
.	8A\	.	8c/L	.	16f/LL	.	8ff\	.	8A\	De-	.	8c\	De-	.	8f\	De-	.	8ff\	De-	.	4r	.	4r	.	4r	.	4r	.
.	.	.	.	.	16f/	.	.	.	.	.	.	.	.	.	.	.	.	.	.	.	.	.	.	.	.	.	.	.
!	!	!	!	!	!	!	!	!	!LO:SIC:v:t=custos B	!	!	!	!	!	!	!	!	!LO:SIC:v:t=custos dd	!	!	!	!	!	!	!	!	!	!
.	8A\J	.	8c/J	.	16f/	.	8ee\J	.	8A\	-us	.	8c\	-(us)	.	8f\	-us	.	8ee\	-us	.	.	.	.	.	.	.	.	.
.	.	.	.	.	16f/JJ	.	.	.	.	.	.	.	.	.	.	.	.	.	.	.	.	.	.	.	.	.	.	.
*	*Xtremolo	*	*	*	*	*	*	*	*	*	*	*	*	*	*	*	*	*	*	*	*	*	*	*	*	*	*	*
!	!	!	!	!	!	!	!	!	!LO:LB:g=original	!	!	!	!	!	!	!	!	!LO:LB:g=original	!	!	!LO:PB:g=original	!	!LO:LB:g=original	!	!	!	!	!
=90	=90	=90	=90	=90	=90	=90	=90	=90	=90	=90	=90	=90	=90	=90	=90	=90	=90	=90	=90	=90	=90	=90	=90	=90	=90	=90	=90	=90
!	!	!	!	!	!	!	!	!	!	!	!	!	!	!	!	!	!	!	!	!	!LO:TX:a:t=25.	!	!	!	!	!	!	!
2ryy	8B-\L	.	8B-/L	.	16f/LL	.	4dd\	.	4B-\	Pa-	.	4B-\	Pa-	.	4f\	pa-	.	4dd\	pa-	.	0r	.	0r	.	8r	.	8r	.
.	.	.	.	.	16f/	.	.	.	.	.	.	.	.	.	.	.	.	.	.	.	.	.	.	.	.	.	.	.
.	8B-\	.	8B-/	.	16f/	.	.	.	.	.	.	.	.	.	.	.	.	.	.	.	.	.	.	.	8dd\L	.	8ff\L	.
.	.	.	.	.	16f/JJ	.	.	.	.	.	.	.	.	.	.	.	.	.	.	.	.	.	.	.	.	.	.	.
.	8G#X\	.	8Bn/	.	16f/LL	.	16dd\LL	.	8G#X\	-ter	.	8Bn\	-ter	.	8f\	-ter	.	8dd\	-ter	.	.	.	.	.	8dd\	.	8ff\	.
.	.	.	.	.	16e/	.	16cc#X\	.	.	.	.	.	.	.	.	.	.	.	.	.	.	.	.	.	.	.	.	.
.	8G#\J	.	8B/J	.	16e/	.	16cc#\	.	8G#\	om-	.	8B\	om-	.	8f\	om-	.	8dd\	om-	.	.	.	.	.	8dd\J	.	8ff\J	.
.	.	.	.	.	16f/JJ	.	16dd\JJ	.	.	.	.	.	.	.	.	.	.	.	.	.	.	.	.	.	.	.	.	.
=91	=91	=91	=91	=91	=91	=91	=91	=91	=91	=91	=91	=91	=91	=91	=91	=91	=91	=91	=91	=91	=91	=91	=91	=91	=91	=91	=91	=91
!	!LO:TX:t=P:problem:mixed beam	!	!	!	!LO:TX:t=P:problem:mixed beam	!	!	!	!	!	!	!	!	!	!	!	!	!	!	!	!	!	!	!	!	!	!	!
2ryy	8A\L	.	8e\	.	8e/L	.	4cc#X\	.	16A\	-ni-	.	16A\	-ni-	.	16f\	-ni-	.	16dd\	-ni-	.	.	.	.	.	4cc#X\	.	4ee\	.
.	.	.	.	.	.	.	.	.	16A\	-po-	.	16A\	-po-	.	16e\	-po-	.	16cc#X\	-po-	.	.	.	.	.	.	.	.	.
.	8A\	.	8r	.	8cc#X\	.	.	.	8AA/	-tens	.	8c#X\	-tens	.	8e\	-tens	.	8cc#\	-tens	.	.	.	.	.	.	.	.	.
.	8C#X/	.	4r	.	8ee\	.	4r	.	4r	.	.	8e\	De-	.	4r	.	.	4r	.	.	.	.	.	.	4r	.	4r	.
.	8C#/J	.	.	.	8g/J	.	.	.	.	.	.	8G/	-us	.	.	.	.	.	.	.	.	.	.	.	.	.	.	.
=92	=92	=92	=92	=92	=92	=92	=92	=92	=92	=92	=92	=92	=92	=92	=92	=92	=92	=92	=92	=92	=92	=92	=92	=92	=92	=92	=92	=92
*	*tremolo	*	*	*	*	*	*	*	*	*	*	*	*	*	*	*	*	*	*	*	*	*	*	*	*	*	*	*
2ryy	8D\L	.	8r	.	8f/L	.	8r	.	4D\	De-	.	4F/	Pa-	.	8r	.	.	8r	.	.	.	.	.	.	2r	.	2r	.
.	8D\	.	8a\L	.	8a/	.	8ff\L	.	.	.	.	.	.	.	4a\	De-	.	4ff\	De-	.	.	.	.	.	.	.	.	.
.	8D\	.	8a\	.	8a/	.	8ff\	.	4D\	-us	.	4d\	-ter	.	.	.	.	.	.	.	.	.	.	.	.	.	.	.
.	8D\J	.	8a\J	.	8a/J	.	8ff\J	.	.	.	.	.	.	.	8a\	-us	.	8ff\	-us	.	.	.	.	.	.	.	.	.
*	*Xtremolo	*	*	*	*	*	*	*	*	*	*	*	*	*	*	*	*	*	*	*	*	*	*	*	*	*	*	*
=93	=93	=93	=93	=93	=93	=93	=93	=93	=93	=93	=93	=93	=93	=93	=93	=93	=93	=93	=93	=93	=93	=93	=93	=93	=93	=93	=93	=93
2ryy	8E\	.	8g#X\	.	8g#X/	.	16ff\LL	.	8E\	Pa-	.	16d\LL	Pa-	.	8g#X\	pa-	.	16ff\LL	pa-	.	.	.	.	.	4r	.	4r	.
.	.	.	.	.	.	.	16ee\	.	.	.	.	16cn\	.	.	.	.	.	16ee\	.	.	.	.	.	.	.	.	.	.
.	8r	.	8r	.	8r	.	16ee\	.	8r	.	.	16c\	.	.	8r	.	.	16ee\	.	.	.	.	.	.	.	.	.	.
!	!	!	!	!	!	!	!	!	!	!	!	!LO:SIC:v:s=16Bn\JJ	!	!	!	!	!	!	!	!	!	!	!	!	!	!	!	!
.	.	.	.	.	.	.	16dd\JJ	.	.	.	.	16B-\JJ	.	.	.	.	.	16dd\JJ	.	.	.	.	.	.	.	.	.	.
!	!	!	!	!	!	!	!	!	!	!	!	!LO:SIC:v:s=16Bn\LL	!	!	!	!	!	!	!	!	!	!	!	!	!	!	!	!
.	8r	.	8r	.	8r	.	16dd\LL	.	8r	.	.	16B-\LL	.	.	8r	.	.	16dd\LL	.	.	.	.	.	.	8r	.	8r	.
.	.	.	.	.	.	.	16cc\	.	.	.	.	16A\	.	.	.	.	.	16ccn\	.	.	.	.	.	.	.	.	.	.
.	8E\	.	8e\	.	8g#/	.	16cc\	.	8E\	.	.	16A\	.	.	8g#\	.	.	16cc\	.	.	.	.	.	.	8g#X/	.	8bn\	.
!	!	!	!	!	!	!	!	!	!	!	!	!	!	!	!	!	!	!LO:SIC:v:s=16bn\JJ	!	!	!	!	!	!	!	!	!	!
.	.	.	.	.	.	.	16bn\JJ	.	.	.	.	16G#X\JJ	.	.	.	.	.	16b-\JJ	.	.	.	.	.	.	.	.	.	.
!	!	!	!LO:LB:g=original	!	!	!	!	!	!	!	!	!	!	!	!	!	!	!	!	!	!	!	!	!	!	!	!	!
=94	=94	=94	=94	=94	=94	=94	=94	=94	=94	=94	=94	=94	=94	=94	=94	=94	=94	=94	=94	=94	=94	=94	=94	=94	=94	=94	=94	=94
2ryy	8A\L	.	8e\L	.	8.a/L	.	8.cc\L	.	8A\	-ter	.	8A\	-ter	.	8a\	-ter	.	8cc\	-ter	.	0r	.	0r	.	8a/L	.	8cc\L	.
.	8D\	.	8f\	.	.	.	.	.	8D/	om-	.	8d\	om-	.	8bn\	om-	.	8dd\	om-	.	.	.	.	.	8b-/	.	8dd\	.
!	!	!	!	!	!LO:SIC:v:s=16bn/Jk	!	!	!	!	!	!	!	!	!	!	!	!	!	!	!	!	!	!	!	!	!	!	!
.	.	.	.	.	16b-/Jk	.	16dd\Jk	.	.	.	.	.	.	.	.	.	.	.	.	.	.	.	.	.	.	.	.	.
.	.	.	.	.	.	.	8qqcc/	.	.	.	.	.	.	.	.	.	.	.	.	.	.	.	.	.	.	.	.	.
.	8E\	.	8e\	.	8a/L	.	4bn\	.	8E\	-ni-	.	8e\	-ni-	.	8a\	-ni-	.	8cc\	-ni-	.	.	.	.	.	8a/	.	8cc\	.
!	!	!	!	!	!	!	!	!	!	!	!	!	!	!	!	!	!	!LO:SIC:v:s=8bn\	!	!	!	!	!	!	!	!	!LO:SIC:v:s=8bn\J	!
.	8E\J	.	8e\J	.	8g#X/J	.	.	.	8E\	-po-	.	8e\	-po-	.	8g#X\	-po-	.	8b-\	-po-	.	.	.	.	.	8g#X/J	.	8b-\J	.
=95	=95	=95	=95	=95	=95	=95	=95	=95	=95	=95	=95	=95	=95	=95	=95	=95	=95	=95	=95	=95	=95	=95	=95	=95	=95	=95	=95	=95
2ryy	8AA/	.	4e\	.	4a/	.	4a/	.	4AA/	-tens	.	4e\	-tenſ	.	4a\	-tens.	.	4a\	-tens.	.	.	.	.	.	4a/	.	4a/	.
.	8r	.	.	.	.	.	.	.	.	.	.	.	.	.	.	.	.	.	.	.	.	.	.	.	.	.	.	.
.	4r	.	4r	.	4r	.	4r	.	4r	.	.	4r	.	.	4r	.	.	4r	.	.	.	.	.	.	4r	.	4r	.
!	!LO:LB:g=original	!	!	!	!	!	!LO:LB:g=original	!	!	!	!	!LO:LB:g=original	!	!	!LO:LB:g=original	!	!	!	!	!	!	!	!	!	!	!	!	!
=96	=96	=96	=96	=96	=96	=96	=96	=96	=96	=96	=96	=96	=96	=96	=96	=96	=96	=96	=96	=96	=96	=96	=96	=96	=96	=96	=96	=96
!	!LO:TX:a:t=3.	!	!	!	!	!	!LO:TX:a:t=4	!	!LO:TX:a:t=11	!	!	!LO:TX:a:t=11	!	!	!	!	!	!	!	!	!	!	!	!	!LO:TX:a:t=19	!	!LO:TX:a:t=19	!
2ryy	1r	.	1r	.	0r	.	0r	.	0r	.	.	0r	.	.	0r	.	.	0r	.	.	.	.	.	.	0r	.	0r	.
=97	=97	=97	=97	=97	=97	=97	=97	=97	=97	=97	=97	=97	=97	=97	=97	=97	=97	=97	=97	=97	=97	=97	=97	=97	=97	=97	=97	=97
2ryy	.	.	.	.	.	.	.	.	.	.	.	.	.	.	.	.	.	.	.	.	.	.	.	.	.	.	.	.
=98	=98	=98	=98	=98	=98	=98	=98	=98	=98	=98	=98	=98	=98	=98	=98	=98	=98	=98	=98	=98	=98	=98	=98	=98	=98	=98	=98	=98
2ryy	2r	.	2r	.	.	.	.	.	.	.	.	.	.	.	.	.	.	.	.	.	0r	.	0r	.	.	.	.	.
=99	=99	=99	=99	=99	=99	=99	=99	=99	=99	=99	=99	=99	=99	=99	=99	=99	=99	=99	=99	=99	=99	=99	=99	=99	=99	=99	=99	=99
!	!	!	!	!	!	!LO:DY:a	!	!	!	!	!	!	!	!	!	!	!	!	!	!	!	!	!	!	!	!	!	!
2ryy	8r	.	4r	.	.	p	.	.	.	.	.	.	.	.	.	.	.	.	.	.	.	.	.	.	.	.	.	.
!	!	!LO:DY:a	!	!	!	!	!	!	!	!	!	!	!	!	!	!	!	!	!	!	!	!	!	!	!	!	!	!
.	8C/	p	.	.	.	.	.	.	.	.	.	.	.	.	.	.	.	.	.	.	.	.	.	.	.	.	.	.
.	16C/LL	.	16c/LL	.	.	.	.	.	.	.	.	.	.	.	.	.	.	.	.	.	.	.	.	.	.	.	.	.
.	16BB-/	.	16B-/	.	.	.	.	.	.	.	.	.	.	.	.	.	.	.	.	.	.	.	.	.	.	.	.	.
.	16AA/	.	16A/	.	.	.	.	.	.	.	.	.	.	.	.	.	.	.	.	.	.	.	.	.	.	.	.	.
.	16GG/JJ	.	16G/JJ	.	.	.	.	.	.	.	.	.	.	.	.	.	.	.	.	.	.	.	.	.	.	.	.	.
=100	=100	=100	=100	=100	=100	=100	=100	=100	=100	=100	=100	=100	=100	=100	=100	=100	=100	=100	=100	=100	=100	=100	=100	=100	=100	=100	=100	=100
!	!LO:TX:t=P:problem:mixed beam	!	!	!	!	!	!	!	!	!	!	!	!	!	!	!	!	!LO:TX:a:i:t=Solo.	!	!	!	!	!	!	!	!	!	!
2ryy	8FF/L	.	8F/L	.	8r	.	8ff\L	.	0r	.	.	0r	.	.	0r	.	.	4cc\	Do-	.	.	.	.	.	0r	.	0r	.
.	8F\	.	8c/	.	8a/L	.	8cc\J	.	.	.	.	.	.	.	.	.	.	.	.	.	.	.	.	.	.	.	.	.
.	8A\	.	8c/	.	8cc/	.	16r	.	.	.	.	.	.	.	.	.	.	8cc\	-mi-	.	.	.	.	.	.	.	.	.
.	.	.	.	.	.	.	16ff\LL	.	.	.	.	.	.	.	.	.	.	.	.	.	.	.	.	.	.	.	.	.
.	8F\J	.	8c/J	.	8a/J	.	16cc\	.	.	.	.	.	.	.	.	.	.	8ff\	-ne	.	.	.	.	.	.	.	.	.
.	.	.	.	.	.	.	16aa\JJ	.	.	.	.	.	.	.	.	.	.	.	.	.	.	.	.	.	.	.	.	.
=101	=101	=101	=101	=101	=101	=101	=101	=101	=101	=101	=101	=101	=101	=101	=101	=101	=101	=101	=101	=101	=101	=101	=101	=101	=101	=101	=101	=101
2ryy	8r	.	8r	.	8r	.	8gg\L	.	.	.	.	.	.	.	.	.	.	8gg\	fi-	.	.	.	.	.	.	.	.	.
.	8C/L	.	8c/L	.	8e/L	.	8cc\J	.	.	.	.	.	.	.	.	.	.	8cc\	-li	.	.	.	.	.	.	.	.	.
.	8E/	.	8c/	.	8g/	.	16r	.	.	.	.	.	.	.	.	.	.	8r	.	.	.	.	.	.	.	.	.	.
.	.	.	.	.	.	.	16gg\LL	.	.	.	.	.	.	.	.	.	.	.	.	.	.	.	.	.	.	.	.	.
.	8C/J	.	8c/J	.	8e/J	.	16cc\	.	.	.	.	.	.	.	.	.	.	8gg\	U-	.	.	.	.	.	.	.	.	.
.	.	.	.	.	.	.	16bb-\JJ	.	.	.	.	.	.	.	.	.	.	.	.	.	.	.	.	.	.	.	.	.
!	!	!	!	!	!LO:LB:g=original	!	!	!	!	!	!	!	!	!	!	!	!	!LO:LB:g=original	!	!	!	!	!	!	!	!	!	!
=102	=102	=102	=102	=102	=102	=102	=102	=102	=102	=102	=102	=102	=102	=102	=102	=102	=102	=102	=102	=102	=102	=102	=102	=102	=102	=102	=102	=102
!	!LO:TX:t=P:problem:brak taktu nr 102	!	!	!	!	!	!	!	!	!	!	!	!	!	!	!	!	!	!	!	!	!	!	!	!	!	!	!
2ryy	2ryy	.	8c/	.	8f/L	.	16aa\LL	.	.	.	.	.	.	.	.	.	.	16aa\LL	.	.	0r	.	0r	.	.	.	.	.
.	.	.	.	.	.	.	16ee\	.	.	.	.	.	.	.	.	.	.	16ee\JJ	.	.	.	.	.	.	.	.	.	.
.	.	.	8r	.	8f/	.	16ff\	.	.	.	.	.	.	.	.	.	.	16ff\LL	-ni	.	.	.	.	.	.	.	.	.
.	.	.	.	.	.	.	16cc\JJ	.	.	.	.	.	.	.	.	.	.	16cc\JJ	.	.	.	.	.	.	.	.	.	.
!	!	!	!	!	!	!	!LO:TX:t=P:problem:mixed beam	!	!	!	!	!	!	!	!	!	!	!	!	!	!	!	!	!	!	!	!	!
.	.	.	8r	.	8f/	.	16cc\LL	.	.	.	.	.	.	.	.	.	.	8cc\	ge-	.	.	.	.	.	.	.	.	.
.	.	.	.	.	.	.	16b-\	.	.	.	.	.	.	.	.	.	.	.	.	.	.	.	.	.	.	.	.	.
.	.	.	8g\	.	8e/J	.	16c/	.	.	.	.	.	.	.	.	.	.	8b-\	-ni-	.	.	.	.	.	.	.	.	.
.	.	.	.	.	.	.	16b-\JJ	.	.	.	.	.	.	.	.	.	.	.	.	.	.	.	.	.	.	.	.	.
=103	=103	=103	=103	=103	=103	=103	=103	=103	=103	=103	=103	=103	=103	=103	=103	=103	=103	=103	=103	=103	=103	=103	=103	=103	=103	=103	=103	=103
!	!LO:TX:t=P:problem:mixed beam	!	!	!	!	!	!LO:TX:a:t=t	!	!	!	!	!	!	!	!	!	!	!	!	!	!	!	!	!	!	!	!	!
2ryy	8F\L	.	8g\L	.	8e/L	.	8b-/L	.	.	.	.	.	.	.	.	.	.	(8b-\L	-te	.	.	.	.	.	.	.	.	.
.	8FF/J	.	8f\J	.	8f/J	.	8a/J	.	.	.	.	.	.	.	.	.	.	8a\J)	.	.	.	.	.	.	.	.	.	.
.	8r	.	8r	.	8r	.	24aa\LL	.	.	.	.	.	.	.	.	.	.	8r	.	.	.	.	.	.	.	.	.	.
.	.	.	.	.	.	.	24gg\	.	.	.	.	.	.	.	.	.	.	.	.	.	.	.	.	.	.	.	.	.
.	.	.	.	.	.	.	24ff\JJ	.	.	.	.	.	.	.	.	.	.	.	.	.	.	.	.	.	.	.	.	.
.	8F\	.	8d\	.	8a/	.	24ee\LL	.	.	.	.	.	.	.	.	.	.	[8cc\	Je-	.	.	.	.	.	.	.	.	.
.	.	.	.	.	.	.	24dd\	.	.	.	.	.	.	.	.	.	.	.	.	.	.	.	.	.	.	.	.	.
.	.	.	.	.	.	.	24cc\JJ	.	.	.	.	.	.	.	.	.	.	.	.	.	.	.	.	.	.	.	.	.
=104	=104	=104	=104	=104	=104	=104	=104	=104	=104	=104	=104	=104	=104	=104	=104	=104	=104	=104	=104	=104	=104	=104	=104	=104	=104	=104	=104	=104
!	!LO:TX:t=P:problem:mixed beam	!	!	!	!	!	!	!	!	!	!	!	!	!	!	!	!	!	!	!	!	!	!	!	!	!	!	!
2ryy	8G\L	.	8d\L	.	8a/L	.	8cc\L	.	1r	.	.	1r	.	.	1r	.	.	8cc\]	.	.	.	.	.	.	0r	.	0r	.
!	!	!	!	!	!	!	!LO:TX:a:t=t	!	!	!	!	!	!	!	!	!	!	!	!	!	!	!	!	!	!	!	!	!
.	8GG/J	.	8d\J	.	8g/J	.	8b-\J	.	.	.	.	.	.	.	.	.	.	8b-\	-su	.	.	.	.	.	.	.	.	.
.	8r	.	8r	.	8r	.	24gg\LL	.	.	.	.	.	.	.	.	.	.	8r	.	.	.	.	.	.	.	.	.	.
.	.	.	.	.	.	.	24ff\	.	.	.	.	.	.	.	.	.	.	.	.	.	.	.	.	.	.	.	.	.
.	.	.	.	.	.	.	24ee\JJ	.	.	.	.	.	.	.	.	.	.	.	.	.	.	.	.	.	.	.	.	.
*	*	*	*	*	*	*	*	*	*	*	*	*	*	*	*	*	*	*	*ij	*	*	*	*	*	*	*	*	*
.	8E\	.	8c/	.	8g/	.	24dd\LL	.	.	.	.	.	.	.	.	.	.	[8b-\	Je-	.	.	.	.	.	.	.	.	.
.	.	.	.	.	.	.	24cc\	.	.	.	.	.	.	.	.	.	.	.	.	.	.	.	.	.	.	.	.	.
.	.	.	.	.	.	.	24b-\JJ	.	.	.	.	.	.	.	.	.	.	.	.	.	.	.	.	.	.	.	.	.
=105	=105	=105	=105	=105	=105	=105	=105	=105	=105	=105	=105	=105	=105	=105	=105	=105	=105	=105	=105	=105	=105	=105	=105	=105	=105	=105	=105	=105
!	!LO:TX:t=P:problem:mixed beam	!	!	!	!	!	!LO:TX:a:t=t	!	!	!	!	!	!	!	!	!	!	!	!	!	!	!	!	!	!	!	!	!
2ryy	8F\L	.	8c/L	.	8g/L	.	8b-/L	.	.	.	.	.	.	.	.	.	.	8b-\L]	.	.	.	.	.	.	.	.	.	.
.	8FF/J	.	8c/J	.	8f/J	.	8a/J	.	.	.	.	.	.	.	.	.	.	8a\J	-su	.	.	.	.	.	.	.	.	.
*	*	*	*	*	*	*	*	*	*	*	*	*	*	*	*	*	*	*	*Xij	*	*	*	*	*	*	*	*	*
.	8r	.	8r	.	8r	.	24ff\LL	.	.	.	.	.	.	.	.	.	.	8r	.	.	.	.	.	.	.	.	.	.
.	.	.	.	.	.	.	24ee\	.	.	.	.	.	.	.	.	.	.	.	.	.	.	.	.	.	.	.	.	.
.	.	.	.	.	.	.	24dd\JJ	.	.	.	.	.	.	.	.	.	.	.	.	.	.	.	.	.	.	.	.	.
.	8A\	.	8A/	.	8f/	.	24cc\LL	.	.	.	.	.	.	.	.	.	.	8a\	Je-	.	.	.	.	.	.	.	.	.
.	.	.	.	.	.	.	24b-\	.	.	.	.	.	.	.	.	.	.	.	.	.	.	.	.	.	.	.	.	.
.	.	.	.	.	.	.	24a\JJ	.	.	.	.	.	.	.	.	.	.	.	.	.	.	.	.	.	.	.	.	.
=106	=106	=106	=106	=106	=106	=106	=106	=106	=106	=106	=106	=106	=106	=106	=106	=106	=106	=106	=106	=106	=106	=106	=106	=106	=106	=106	=106	=106
2ryy	8B-\L	.	4B-/	.	8d/L	.	16a/LL	.	2r	.	.	2r	.	.	2r	.	.	16a\LL	.	.	0r	.	0r	.	.	.	.	.
.	.	.	.	.	.	.	16g/	.	.	.	.	.	.	.	.	.	.	16g\	.	.	.	.	.	.	.	.	.	.
.	8B-\J	.	.	.	8d/	.	16dd/	.	.	.	.	.	.	.	.	.	.	16dd\	.	.	.	.	.	.	.	.	.	.
.	.	.	.	.	.	.	16cc/JJ	.	.	.	.	.	.	.	.	.	.	16cc\JJ	.	.	.	.	.	.	.	.	.	.
.	16d\LL	.	16B-/LL	.	8d/	.	16b-/LL	.	.	.	.	.	.	.	.	.	.	16b-\LL	-su	.	.	.	.	.	.	.	.	.
.	16c\	.	16c/	.	.	.	16a/	.	.	.	.	.	.	.	.	.	.	16a\	.	.	.	.	.	.	.	.	.	.
.	16B-\	.	16d/	.	8d/J	.	16g/	.	.	.	.	.	.	.	.	.	.	16g\	.	.	.	.	.	.	.	.	.	.
!	!	!	!	!	!	!	!LO:SIC:v:t=custos f	!	!	!	!	!	!	!	!	!	!	!	!	!	!	!	!	!	!	!	!	!
.	16Bn\JJ	.	16d/JJ	.	.	.	16f/JJ	.	.	.	.	.	.	.	.	.	.	16f\JJ	.	.	.	.	.	.	.	.	.	.
!	!	!	!	!	!	!	!LO:LB:g=original	!	!	!	!	!	!	!	!	!	!	!	!	!	!	!	!	!	!	!	!	!
=107	=107	=107	=107	=107	=107	=107	=107	=107	=107	=107	=107	=107	=107	=107	=107	=107	=107	=107	=107	=107	=107	=107	=107	=107	=107	=107	=107	=107
!	!LO:TX:t=P:problem:mixed beam	!	!	!	!	!	!	!	!	!	!	!	!	!	!	!	!	!	!	!	!	!	!	!	!	!	!	!
2ryy	8c\L	.	4G/	.	8d/L	.	8f/L	.	8r	.	.	4c\	Do-	.	8r	.	.	8f/	Chri-	.	.	.	.	.	.	.	.	.
.	8C/	.	.	.	8e/	.	8e/J	.	8C/	Do-	.	.	.	.	8g\	Do-	.	8e/	-ste	.	.	.	.	.	.	.	.	.
.	8E/	.	8c\L	.	8g/	.	4r	.	8E\	-mi-	.	8c\	-mi-	.	8g\	-mi-	.	4r	.	.	.	.	.	.	.	.	.	.
.	8F/J	.	8c\J	.	8a/J	.	.	.	8F\	-ne	.	8c\	-ne	.	8a\	-ne	.	.	.	.	.	.	.	.	.	.	.	.
!	!	!	!LO:LB:g=original	!	!	!	!	!	!	!	!	!	!	!	!	!	!	!	!	!	!	!	!	!	!	!	!	!
=108	=108	=108	=108	=108	=108	=108	=108	=108	=108	=108	=108	=108	=108	=108	=108	=108	=108	=108	=108	=108	=108	=108	=108	=108	=108	=108	=108	=108
!	!	!	!	!	!	!	!LO:TX:a:t=7	!	!	!	!	!	!	!	!	!	!	!	!	!	!	!	!	!	!	!	!	!
.	.	.	.	.	8qcc/	.	.	.	.	.	.	.	.	.	.	.	.	.	.	.	.	.	.	.	.	.	.	.
*	*	*	*tremolo	*	*	*	*	*	*	*	*	*	*	*	*	*	*	*	*	*	*	*	*	*	*	*	*	*
2ryy	8G\L	.	8c\L	.	8b-/L	.	0r	.	8G\	De-	.	4c\	De-	.	8b-\	De-	.	0r	.	.	.	.	.	.	0r	.	0r	.
.	8E\	.	8c\	.	16a/L	.	.	.	8E\	-us	.	.	.	.	16a\LL	-us	.	.	.	.	.	.	.	.	.	.	.	.
.	.	.	.	.	16g/JJ	.	.	.	.	.	.	.	.	.	16g\JJ	.	.	.	.	.	.	.	.	.	.	.	.	.
.	.	.	.	.	8qb-/	.	.	.	.	.	.	.	.	.	.	.	.	.	.	.	.	.	.	.	.	.	.	.
.	8F\	.	8c\	.	8a/L	.	.	.	8F\	Ag-	.	4c\	-us	.	8a\	ag-	.	.	.	.	.	.	.	.	.	.	.	.
!	!	!	!	!	!	!	!	!	!LO:SIC:v:t=custos C	!	!	!	!	!	!	!	!	!	!	!	!	!	!	!	!	!	!	!
.	8A\J	.	8c\J	.	16g/L	.	.	.	8A\	-nus	.	.	.	.	16g\LL	-nus	.	.	.	.	.	.	.	.	.	.	.	.
.	.	.	.	.	16f/JJ	.	.	.	.	.	.	.	.	.	16f\JJ	.	.	.	.	.	.	.	.	.	.	.	.	.
!	!LO:LB:g=original	!	!	!	!	!	!	!	!LO:LB:g=original	!	!	!	!	!	!	!	!	!	!	!	!	!	!	!	!	!	!	!
=109	=109	=109	=109	=109	=109	=109	=109	=109	=109	=109	=109	=109	=109	=109	=109	=109	=109	=109	=109	=109	=109	=109	=109	=109	=109	=109	=109	=109
2ryy	8C/L	.	8c\L	.	8e/L	.	.	.	8C/L	De-	.	4c\	Ag-	.	8e\L	De-	.	.	.	.	.	.	.	.	.	.	.	.
.	8D/	.	8c\	.	8f/	.	.	.	8D/J	.	.	.	.	.	8f\J	.	.	.	.	.	.	.	.	.	.	.	.	.
.	8E/	.	8c\	.	8g/	.	.	.	8E/	-i	.	4c\	-nus	.	8g\L	-i	.	.	.	.	.	.	.	.	.	.	.	.
.	8F/J	.	8c\J	.	8a/J	.	.	.	8F\	Fi-	.	.	.	.	8a\J	.	.	.	.	.	.	.	.	.	.	.	.	.
=110	=110	=110	=110	=110	=110	=110	=110	=110	=110	=110	=110	=110	=110	=110	=110	=110	=110	=110	=110	=110	=110	=110	=110	=110	=110	=110	=110	=110
.	.	.	.	.	8qcc/	.	.	.	.	.	.	.	.	.	.	.	.	.	.	.	.	.	.	.	.	.	.	.
2ryy	8G\L	.	8c\L	.	8b-/L	.	.	.	8G\L	.	.	2c\	De-	.	8b-\L	fi-	.	.	.	.	0r	.	0r	.	.	.	.	.
.	8E\	.	8c\	.	16a/L	.	.	.	8E\J	.	.	.	.	.	16a\L	.	.	.	.	.	.	.	.	.	.	.	.	.
.	.	.	.	.	16g/JJ	.	.	.	.	.	.	.	.	.	16g\JJ	.	.	.	.	.	.	.	.	.	.	.	.	.
.	.	.	.	.	8qb-/	.	.	.	.	.	.	.	.	.	.	.	.	.	.	.	.	.	.	.	.	.	.	.
.	8F\	.	8c\	.	8a/L	.	.	.	8F\	-li-	.	.	.	.	8a\	-li-	.	.	.	.	.	.	.	.	.	.	.	.
.	8A\J	.	8c\J	.	16g/L	.	.	.	8A\	-us	.	.	.	.	16g\LL	-us	.	.	.	.	.	.	.	.	.	.	.	.
.	.	.	.	.	16f/JJ	.	.	.	.	.	.	.	.	.	16f\JJ	.	.	.	.	.	.	.	.	.	.	.	.	.
=111	=111	=111	=111	=111	=111	=111	=111	=111	=111	=111	=111	=111	=111	=111	=111	=111	=111	=111	=111	=111	=111	=111	=111	=111	=111	=111	=111	=111
2ryy	8C/L	.	8c\L	.	8e/L	.	.	.	8C/L	Pa-	.	4c\	-i	.	8e\L	pa-	.	.	.	.	.	.	.	.	.	.	.	.
.	8D/	.	8c\	.	8f/	.	.	.	8D/J	.	.	.	.	.	8f\J	.	.	.	.	.	.	.	.	.	.	.	.	.
.	8E/	.	8c\	.	8g/	.	.	.	8E/L	.	.	4r	.	.	8g\	-tris	.	.	.	.	.	.	.	.	.	.	.	.
.	8C/J	.	8c\J	.	8b-/J	.	.	.	8C/J	.	.	.	.	.	8b-\	fi-	.	.	.	.	.	.	.	.	.	.	.	.
*	*	*	*Xtremolo	*	*	*	*	*	*	*	*	*	*	*	*	*	*	*	*	*	*	*	*	*	*	*	*	*
=112	=112	=112	=112	=112	=112	=112	=112	=112	=112	=112	=112	=112	=112	=112	=112	=112	=112	=112	=112	=112	=112	=112	=112	=112	=112	=112	=112	=112
2ryy	8F\L	.	8c\L	.	16a\LL	.	1r	.	4F\	-triſ	.	8r	.	.	16a\LL	-li-	.	1r	.	.	.	.	.	.	1r	.	1r	.
.	.	.	.	.	16b-\	.	.	.	.	.	.	.	.	.	16b-\JJ	.	.	.	.	.	.	.	.	.	.	.	.	.
.	8F\	.	8c\	.	16b-\	.	.	.	.	.	.	8f\	Fi-	.	16b-\LL	-us	.	.	.	.	.	.	.	.	.	.	.	.
.	.	.	.	.	16cc\JJ	.	.	.	.	.	.	.	.	.	16cc\JJ	.	.	.	.	.	.	.	.	.	.	.	.	.
.	8A\	.	8f\	.	8cc\L	.	.	.	4r	.	.	8f\	-li-	.	4cc\	pa-	.	.	.	.	.	.	.	.	.	.	.	.
!	!	!	!	!	!LO:SIC:v:t=custos ee, błędna wysokość	!	!	!	!	!	!	!	!	!	!	!	!	!	!	!	!	!	!	!	!	!	!	!
.	8A\J	.	8f\J	.	8ff\J	.	.	.	.	.	.	8f\	-us	.	.	.	.	.	.	.	.	.	.	.	.	.	.	.
!	!	!	!	!	!LO:LB:g=original	!	!	!	!	!	!	!	!	!	!LO:LB:g=original	!	!	!	!	!	!	!	!	!	!	!	!	!
=113	=113	=113	=113	=113	=113	=113	=113	=113	=113	=113	=113	=113	=113	=113	=113	=113	=113	=113	=113	=113	=113	=113	=113	=113	=113	=113	=113	=113
!	!LO:TX:t=P:problem:mixed beam	!	!	!	!	!	!	!	!	!	!	!	!	!	!	!	!	!	!	!	!	!	!	!	!	!	!	!
2ryy	8B-\L	.	8f\L	.	8dd\L	.	.	.	2r	.	.	4f\	Pa-	.	8dd\L	.	.	.	.	.	.	.	.	.	.	.	.	.
.	8B-\	.	8f\	.	16dd\L	.	.	.	.	.	.	.	.	.	16cc\L	.	.	.	.	.	.	.	.	.	.	.	.	.
.	.	.	.	.	32cc\L	.	.	.	.	.	.	.	.	.	16b-\JJ	.	.	.	.	.	.	.	.	.	.	.	.	.
.	.	.	.	.	32b-\JJJ	.	.	.	.	.	.	.	.	.	.	.	.	.	.	.	.	.	.	.	.	.	.	.
.	8c\	.	8f\	.	8a/L	.	.	.	.	.	.	8f\L	.	.	8a\L	.	.	.	.	.	.	.	.	.	.	.	.	.
.	8C/J	.	8e\J	.	8g/J	.	.	.	.	.	.	8e\J	.	.	8g\J	.	.	.	.	.	.	.	.	.	.	.	.	.
=114	=114	=114	=114	=114	=114	=114	=114	=114	=114	=114	=114	=114	=114	=114	=114	=114	=114	=114	=114	=114	=114	=114	=114	=114	=114	=114	=114	=114
!	!	!	!	!	!	!	!	!	!	!	!	!	!	!	!	!	!	!	!	!	!	!	!	!	!LO:TX:b:i:t=vertatur	!	!	!
2ryy	8F\	.	4f\	.	4f/	.	2r	.	8r	.	.	4f\	-triſ	.	4f\	-tris.	.	2r	.	.	2r	.	2r	.	2r	.	2r	.
.	8r	.	.	.	.	.	.	.	(8F\L	Do-	.	.	.	.	.	.	.	.	.	.	.	.	.	.	.	.	.	.
.	4r	.	4r	.	4r	.	.	.	8A\J)	.	.	4r	.	.	4r	.	.	.	.	.	.	.	.	.	.	.	.	.
.	.	.	.	.	.	.	.	.	16F\	-mi-	.	.	.	.	.	.	.	.	.	.	.	.	.	.	.	.	.	.
.	.	.	.	.	.	.	.	.	16F\	-ne	.	.	.	.	.	.	.	.	.	.	.	.	.	.	.	.	.	.
!	!	!	!	!	!	!	!	!	!	!	!	!	!	!	!	!	!	!	!	!	!	!	!	!	!LO:PB:g=original	!	!	!
=115	=115	=115	=115	=115	=115	=115	=115	=115	=115	=115	=115	=115	=115	=115	=115	=115	=115	=115	=115	=115	=115	=115	=115	=115	=115	=115	=115	=115
!	!	!	!	!	!	!	!	!LO:DY:a	!	!	!LO:DY:a:rj	!	!	!	!	!	!	!	!	!	!	!	!	!	!	!	!	!
2ryy	4r	.	4r	.	4r	.	4r	p	2c\	De-	p	2r	.	.	4r	.	.	4r	.	.	4r	.	4r	.	4r	.	4r	.
!	!	!	!	!	!	!	!	!	!	!	!	!	!	!	!	!	!	!	!	!LO:DY:a	!	!LO:DY:a	!	!LO:DY:a	!	!LO:DY:a:t=pia&colon;	!	!LO:DY:a
.	8r	.	8r	.	8r	.	8r	.	.	.	.	.	.	.	8r	.	.	8r	.	p	4c/	p	4cc/	p	4cc\	p	4cc\	p
!	!	!	!	!LO:DY:a	!	!	!	!	!	!	!	!	!	!	!	!	!	!	!	!	!	!	!	!	!	!	!	!
.	8B-\	.	8c\	p	8g/	.	8ee\	.	.	.	.	.	.	.	(8g\	Do-	.	(8ee\	Do-	.	.	.	.	.	.	.	.	.
=116	=116	=116	=116	=116	=116	=116	=116	=116	=116	=116	=116	=116	=116	=116	=116	=116	=116	=116	=116	=116	=116	=116	=116	=116	=116	=116	=116	=116
2ryy	8A\L	.	4c/	.	4a/	.	4ff\	.	4C/	-us	.	2c\	De-	.	16a\)	.	.	16ff\)	.	.	2c/	.	2cc/	.	2cc\	.	2cc\	.
.	.	.	.	.	.	.	.	.	.	.	.	.	.	.	16a\	-mi-	.	16cc\	-mi-	.	.	.	.	.	.	.	.	.
.	8F\J	.	.	.	.	.	.	.	.	.	.	.	.	.	8a\	-ne	.	8cc\	-ne	.	.	.	.	.	.	.	.	.
!	!	!	!	!	!	!	!	!	!	!	!	!	!	!	!	!	!	!LO:LB:g=original	!	!	!	!	!	!	!	!	!	!
.	8r	.	8r	.	8r	.	8r	.	4r	.	.	.	.	.	8r	.	.	8r	.	.	.	.	.	.	.	.	.	.
.	8E\	.	8c/	.	8g/	.	8cc\	.	.	.	.	.	.	.	(8g\	De-	.	[8cc\	De-	.	.	.	.	.	.	.	.	.
=117	=117	=117	=117	=117	=117	=117	=117	=117	=117	=117	=117	=117	=117	=117	=117	=117	=117	=117	=117	=117	=117	=117	=117	=117	=117	=117	=117	=117
!	!LO:TX:t=P:problem:mixed beam	!	!	!	!	!	!	!	!	!	!	!	!	!	!	!	!	!	!	!	!	!	!	!	!	!	!	!
2ryy	8F\L	.	4c/	.	4a/	.	4cc\	.	8F\	De-	.	2c\	-us	.	8a\)	.	.	8cc\]	.	.	2c,</	.	2cc/	.	2cc\	.	2cc\	.
.	8FF/J	.	.	.	.	.	.	.	8FF/	-us	.	.	.	.	8a\	-us	.	8cc\	-us	.	.	.	.	.	.	.	.	.
.	8r	.	8r	.	8r	.	8r	.	8r	.	.	.	.	.	8r	.	.	8r	.	.	.	.	.	.	.	.	.	.
.	8B-\	.	8c/	.	8g/	.	8ee\	.	8B-\	Ag-	.	.	.	.	(8g\	ag-	.	(8ee\	Ag-	.	.	.	.	.	.	.	.	.
!	!	!	!	!	!	!	!	!	!	!	!	!LO:LB:g=original	!	!	!	!	!	!	!	!	!	!	!	!	!	!	!	!
=118	=118	=118	=118	=118	=118	=118	=118	=118	=118	=118	=118	=118	=118	=118	=118	=118	=118	=118	=118	=118	=118	=118	=118	=118	=118	=118	=118	=118
!	!	!	!	!	!	!	!	!	!	!	!	!	!	!	!	!	!	!	!	!	!	!	!	!	!	!	!LO:SIC:v:t=custos cc	!
2ryy	8A\L	.	4c/	.	4a/	.	4ff\	.	8A\L	.	.	2c\	A-	.	8a\)	.	.	8ff\)	.	.	2c/	.	2cc/	.	2cc\	.	2cc\	.
.	8F\J	.	.	.	.	.	.	.	8F\J	.	.	.	.	.	8a\	-nus	.	8cc\	-nus	.	.	.	.	.	.	.	.	.
.	8r	.	8r	.	8r	.	8r	.	8r	.	.	.	.	.	8r	.	.	8r	.	.	.	.	.	.	.	.	.	.
.	8E\	.	8c/	.	8g/	.	8cc\	.	8E\	-nus	.	.	.	.	(8g\	De-	.	[8cc\	De-	.	.	.	.	.	.	.	.	.
!	!	!	!	!	!	!	!	!	!	!	!	!	!	!	!	!	!	!	!	!	!	!	!	!	!	!	!LO:LB:g=original	!
=119	=119	=119	=119	=119	=119	=119	=119	=119	=119	=119	=119	=119	=119	=119	=119	=119	=119	=119	=119	=119	=119	=119	=119	=119	=119	=119	=119	=119
2ryy	8F\L	.	4c/	.	4a/	.	4cc\	.	8F\	De-	.	2c\	-gnus	.	8a\)	.	.	8cc\]	.	.	4c/	.	4ff\	.	4cc\	.	4cc\	.
.	8F\	.	.	.	.	.	.	.	8F\	-i	.	.	.	.	8a\	-i	.	8cc\	-i	.	.	.	.	.	.	.	.	.
!	!	!	!	!	!	!	!	!	!LO:LB:g=original	!	!	!	!	!	!	!	!	!	!	!	!	!	!	!	!	!	!	!
.	8A\	.	4r	.	8r	.	8r	.	8A\	Fi-	.	.	.	.	8f\	fi-	.	8cc\	fi-	.	4r	.	4r	.	4r	.	4r	.
.	8A\J	.	.	.	8cc\	.	8ff\	.	16A\	-li-	.	.	.	.	16f\	-li-	.	16cc\	-li-	.	.	.	.	.	.	.	.	.
.	.	.	.	.	.	.	.	.	16A\	-us	.	.	.	.	16f\	-us	.	16cc\	-us	.	.	.	.	.	.	.	.	.
!	!LO:LB:g=original	!	!	!	!	!	!	!	!	!	!	!	!	!	!	!	!	!	!	!	!	!	!	!	!	!	!	!
=120	=120	=120	=120	=120	=120	=120	=120	=120	=120	=120	=120	=120	=120	=120	=120	=120	=120	=120	=120	=120	=120	=120	=120	=120	=120	=120	=120	=120
!	!LO:TX:t=P:problem:mixed beam	!	!	!	!	!	!	!	!	!	!	!	!	!	!LO:SIC:v:t=custos a	!	!	!	!	!	!	!	!	!	!	!	!	!
2ryy	8B-\L	.	8r	.	8dd\L	.	8ff\L	.	4B-\	Pa-	.	(4d\	De-	.	4f\	pa-	.	4dd\	pa-	.	2r	.	2r	.	2r	.	2r	.
.	8B-\	.	8B-/L	.	8dd\	.	8ff\	.	.	.	.	.	.	.	.	.	.	.	.	.	.	.	.	.	.	.	.	.
!	!	!	!	!	!	!	!	!	!LO:TX:t=P:problem:mixed beam	!	!	!	!	!	!LO:LB:g=original	!	!	!	!	!	!	!	!	!	!	!	!	!
.	8c\	.	8c/	.	8a\	.	8ff\	.	8c\L	.	.	4c\)	.	.	8a\L	.	.	8ff\L	.	.	.	.	.	.	.	.	.	.
!	!	!	!LO:SIC:v:t=custos f	!	!	!	!	!	!	!	!	!	!	!	!	!	!	!	!	!	!	!	!	!	!	!	!	!
.	8C/J	.	8c/J	.	8g\J	.	8ee\J	.	8C/J	.	.	.	.	.	8g\J	.	.	8ee\J	.	.	.	.	.	.	.	.	.	.
!	!	!	!LO:LB:g=original	!	!	!	!	!	!	!	!	!	!	!	!	!	!	!	!	!	!	!	!	!	!	!	!	!
=121	=121	=121	=121	=121	=121	=121	=121	=121	=121	=121	=121	=121	=121	=121	=121	=121	=121	=121	=121	=121	=121	=121	=121	=121	=121	=121	=121	=121
*	*	*	*tremolo	*	*	*	*	*	*	*	*	*	*	*	*	*	*	*	*	*	*	*	*	*	*	*	*	*
!	!	!	!	!LO:DY:a	!	!LO:DY:a	!	!LO:DY:a:rj:t=f&colon;	!	!	!LO:DY:a	!	!	!	!	!	!	!	!	!LO:DY:a	!	!LO:DY:a	!	!LO:DY:a:rj	!	!LO:DY:a	!	!LO:DY:a:rj
2ryy	8F\L	.	8f\L	f	8cc\L	f	16ff\KL	f	4F\	-triſ	f	4c\	-i	.	4a\	-tris	.	4ff\	-tris	f	4f/	f	4ff\	f	2cc\	f	4ff\	f
.	.	.	.	.	.	.	8ff\	.	.	.	.	.	.	.	.	.	.	.	.	.	.	.	.	.	.	.	.	.
!	!	!LO:DY:a	!	!	!	!	!	!	!	!	!	!	!	!	!	!	!	!	!	!	!	!	!	!	!	!	!	!
.	8F\	f	8f\	.	8cc\	.	.	.	.	.	.	.	.	.	.	.	.	.	.	.	.	.	.	.	.	.	.	.
.	.	.	.	.	.	.	8ff\	.	.	.	.	.	.	.	.	.	.	.	.	.	.	.	.	.	.	.	.	.
!	!	!	!	!	!	!	!	!	!	!	!	!	!	!LO:DY:a:rj:t=f&colon;	!	!	!LO:DY:a	!	!	!	!	!	!	!	!	!	!	!
.	8A\	.	8f\	.	8cc\	.	.	.	4A\	Fi-	.	4c\	Fi-	f	[4f\	fi-	f	4cc\	.	.	8f/L	.	8ff\L	.	.	.	8ff\L	.
.	.	.	.	.	.	.	8ff\	.	.	.	.	.	.	.	.	.	.	.	.	.	.	.	.	.	.	.	.	.
.	8A\J	.	8f\J	.	8cc\J	.	.	.	.	.	.	.	.	.	.	.	.	.	.	.	8f/J	.	8ff\J	.	.	.	8ee-X\J	.
.	.	.	.	.	.	.	[16ee-X\Jk	.	.	.	.	.	.	.	.	.	.	.	.	.	.	.	.	.	.	.	.	.
*	*	*	*Xtremolo	*	*	*	*	*	*	*	*	*	*	*	*	*	*	*	*	*	*	*	*	*	*	*	*	*
=122	=122	=122	=122	=122	=122	=122	=122	=122	=122	=122	=122	=122	=122	=122	=122	=122	=122	=122	=122	=122	=122	=122	=122	=122	=122	=122	=122	=122
*	*	*	*^	*	*	*	*	*	*	*	*	*	*	*	*	*	*	*	*	*	*	*	*	*	*	*	*	*
*	*	*	*	*	*	*tremolo	*	*	*	*	*	*	*	*	*	*	*	*	*	*	*	*	*	*	*	*	*	*	*
!	!	!	!LO:TX:t=P:problem:mixed beam	!	!	!	!	!	!	!	!	!	!	!	!	!	!	!	!	!	!	!	!	!	!	!	!	!LO:SIC:v:s=8ee-\L	!
2ryy	8B-\L	.	8f\L	4ryy	.	8f/L	.	16ee-\KL]	.	4B-\	.	.	4B-\	.	.	4f\]	.	.	4dd\	fi-	.	8ff\L	.	8ff\L	.	2f/	.	8ee\L	.
.	.	.	.	.	.	.	.	8cc#X\	.	.	.	.	.	.	.	.	.	.	.	.	.	.	.	.	.	.	.	.	.
.	8B-\	.	8B-/	.	.	8f/	.	.	.	.	.	.	.	.	.	.	.	.	.	.	.	16ff\L	.	16ff\L	.	.	.	8cc#X\J	.
.	.	.	.	.	.	.	.	8dd\	.	.	.	.	.	.	.	.	.	.	.	.	.	16ff\JJ	.	16ff\JJ	.	.	.	.	.
.	8B-\	.	8d/	8B-\L	.	8f/	.	.	.	8c\	-li-	.	8B-\	-li-	.	8f\	-li-	.	8dd\	-li-	.	8ff\L	.	8ff\L	.	.	.	8dd\L	.
.	.	.	.	.	.	.	.	8ff\	.	.	.	.	.	.	.	.	.	.	.	.	.	.	.	.	.	.	.	.	.
.	8d\J	.	8d/J	8B-\J	.	8f/J	.	.	.	8d\	-uſ	.	8B-\	-us	.	8f\	-us	.	8dd\	-us	.	8ff\J	.	8ff\J	.	.	.	16ff\L	.
.	.	.	.	.	.	.	.	16bb-\Jk	.	.	.	.	.	.	.	.	.	.	.	.	.	.	.	.	.	.	.	16bb-\JJ	.
*	*	*	*	*	*	*Xtremolo	*	*	*	*	*	*	*	*	*	*	*	*	*	*	*	*	*	*	*	*	*	*	*
*	*	*	*v	*v	*	*	*	*	*	*	*	*	*	*	*	*	*	*	*	*	*	*	*	*	*	*	*	*	*
=123	=123	=123	=123	=123	=123	=123	=123	=123	=123	=123	=123	=123	=123	=123	=123	=123	=123	=123	=123	=123	=123	=123	=123	=123	=123	=123	=123	=123
*	*tremolo	*	*tremolo	*	*	*	*	*	*	*	*	*	*	*	*	*	*	*	*	*	*tremolo	*	*tremolo	*	*	*	*	*
!	!	!	!	!	!LO:TX:t=P:problem:mixed beam	!	!	!	!	!	!	!	!	!	!	!	!	!	!	!	!	!	!	!	!LO:TX:t=P:problem:mixed beam	!	!	!
2ryy	8c\L	.	8c/L	.	16f/LL	.	16aa\LL	.	2c\	Pa-	.	2c\	Pa-	.	(2a\	pa-	.	[2ff\	Pa-	.	8ff\L	.	8aa\L	.	8f/L	.	2aa\	.
.	.	.	.	.	16ff\	.	16aa\	.	.	.	.	.	.	.	.	.	.	.	.	.	.	.	.	.	.	.	.	.
.	8c\	.	8c/	.	16ff\	.	16aa\	.	.	.	.	.	.	.	.	.	.	.	.	.	8ff\	.	8aa\	.	8ff\J	.	.	.
.	.	.	.	.	16ff\JJ	.	16aa\JJ	.	.	.	.	.	.	.	.	.	.	.	.	.	.	.	.	.	.	.	.	.
.	8c\	.	8c/	.	16ff\LL	.	16aa\LL	.	.	.	.	.	.	.	.	.	.	.	.	.	8ff\	.	8aa\	.	[4ff\	.	.	.
.	.	.	.	.	16ff\	.	16aa\	.	.	.	.	.	.	.	.	.	.	.	.	.	.	.	.	.	.	.	.	.
.	8c\J	.	8c/J	.	16ff\	.	16aa\	.	.	.	.	.	.	.	.	.	.	.	.	.	8ff\J	.	8aa\J	.	.	.	.	.
.	.	.	.	.	16ff\JJ	.	16aa\JJ	.	.	.	.	.	.	.	.	.	.	.	.	.	.	.	.	.	.	.	.	.
*	*	*	*	*	*	*	*	*	*	*	*	*	*	*	*	*	*	*	*	*	*Xtremolo	*	*	*	*	*	*	*
!	!	!	!	!	!	!	!LO:LB:g=original	!	!	!	!	!	!	!	!	!	!	!	!	!	!	!	!	!	!	!	!	!
=124	=124	=124	=124	=124	=124	=124	=124	=124	=124	=124	=124	=124	=124	=124	=124	=124	=124	=124	=124	=124	=124	=124	=124	=124	=124	=124	=124	=124
2ryy	8C/L	.	8c/L	.	16ff\LL	.	16gg\LL	.	2C/	.	.	2c\	.	.	2g\)	.	.	4ff\]	.	.	8ff\L	.	8gg\L	.	4ff\]	.	2gg\	.
.	.	.	.	.	16ff\	.	16gg\	.	.	.	.	.	.	.	.	.	.	.	.	.	.	.	.	.	.	.	.	.
.	8C/	.	8c/	.	16ff\	.	16gg\	.	.	.	.	.	.	.	.	.	.	.	.	.	8ff\	.	8gg\	.	.	.	.	.
.	.	.	.	.	16ff\JJ	.	16gg\JJ	.	.	.	.	.	.	.	.	.	.	.	.	.	.	.	.	.	.	.	.	.
.	8C/	.	8c/	.	16ee\LL	.	16gg\LL	.	.	.	.	.	.	.	.	.	.	4ee\	.	.	8cc\	.	8gg\	.	4ee\	.	.	.
.	.	.	.	.	16ee\	.	16gg\	.	.	.	.	.	.	.	.	.	.	.	.	.	.	.	.	.	.	.	.	.
.	8C/J	.	8c/J	.	16ee\	.	16gg\	.	.	.	.	.	.	.	.	.	.	.	.	.	8cc\J	.	8gg\J	.	.	.	.	.
.	.	.	.	.	16ee\JJ	.	16gg\JJ	.	.	.	.	.	.	.	.	.	.	.	.	.	.	.	.	.	.	.	.	.
*	*Xtremolo	*	*Xtremolo	*	*	*	*	*	*	*	*	*	*	*	*	*	*	*	*	*	*	*	*Xtremolo	*	*	*	*	*
!	!	!	!	!	!LO:LB:g=original	!	!	!	!	!	!	!	!	!	!	!	!	!	!	!	!	!	!	!	!	!	!	!
=125	=125	=125	=125	=125	=125	=125	=125	=125	=125	=125	=125	=125	=125	=125	=125	=125	=125	=125	=125	=125	=125	=125	=125	=125	=125	=125	=125	=125
2ryy	8F\L	.	8c/L	.	4ff\	.	4ff\	.	4F\	-triſ	.	4c\	-triſ	.	4a\	-tris.	.	4ff\	-tris	.	4a/	.	4ff\	.	4ff\	.	4ff\	.
.	8C\	.	8c/	.	.	.	.	.	.	.	.	.	.	.	.	.	.	.	.	.	.	.	.	.	.	.	.	.
!	!	!	!	!	!	!	!LO:TX:b:i:t=vertatur.	!	!LO:TX:t=P:problem:kreska taktowa końcowa	!	!	!	!	!	!	!	!	!	!	!	!	!	!	!	!	!	!	!
.	8AA\	.	8A/	.	4r	.	4r	.	4r	.	.	4r	.	.	4r	.	.	4r	.	.	4r	.	4r	.	4r	.	4r	.
.	8FF\J	.	8F/J	.	.	.	.	.	.	.	.	.	.	.	.	.	.	.	.	.	.	.	.	.	.	.	.	.
!	!	!	!	!	!	!	!LO:PB:g=original	!	!	!	!	!	!	!	!	!	!	!	!	!	!	!	!	!	!	!	!	!
=126	=126	=126	=126	=126	=126	=126	=126	=126	=126	=126	=126	=126	=126	=126	=126	=126	=126	=126	=126	=126	=126	=126	=126	=126	=126	=126	=126	=126
*	*tremolo	*	*	*	*	*	*	*	*	*	*	*	*	*	*	*	*	*	*	*	*	*	*	*	*	*	*	*
!	!	!	!	!	!	!	!	!	!LO:TX:a:t=9	!	!	!	!	!	!LO:TX:a:t=9	!	!	!LO:TX:a:t=9	!	!	!	!LO:DY:a	!	!LO:DY:a	!	!LO:DY:a	!	!LO:DY:a:rj
2ryy	8C/L	.	8c/L	.	8g/L	.	8cc\	.	0r	.	.	0r	.	.	0r	.	.	0r	.	.	2cc/	p	2gg\	p	2g\	p	2ee\	p
.	8C/	.	8B-/	.	8g/	.	16r	.	.	.	.	.	.	.	.	.	.	.	.	.	.	.	.	.	.	.	.	.
.	.	.	.	.	.	.	16cc\	.	.	.	.	.	.	.	.	.	.	.	.	.	.	.	.	.	.	.	.	.
.	8C/	.	8B-/	.	8g/	.	24ee\LL	.	.	.	.	.	.	.	.	.	.	.	.	.	.	.	.	.	.	.	.	.
.	.	.	.	.	.	.	24dd\	.	.	.	.	.	.	.	.	.	.	.	.	.	.	.	.	.	.	.	.	.
.	.	.	.	.	.	.	24cc\JJ	.	.	.	.	.	.	.	.	.	.	.	.	.	.	.	.	.	.	.	.	.
.	8C/J	.	8B-/J	.	8g/J	.	24gg\LL	.	.	.	.	.	.	.	.	.	.	.	.	.	.	.	.	.	.	.	.	.
.	.	.	.	.	.	.	24ff\	.	.	.	.	.	.	.	.	.	.	.	.	.	.	.	.	.	.	.	.	.
.	.	.	.	.	.	.	24ee\JJ	.	.	.	.	.	.	.	.	.	.	.	.	.	.	.	.	.	.	.	.	.
=127	=127	=127	=127	=127	=127	=127	=127	=127	=127	=127	=127	=127	=127	=127	=127	=127	=127	=127	=127	=127	=127	=127	=127	=127	=127	=127	=127	=127
*	*	*	*tremolo	*	*	*	*	*	*	*	*	*	*	*	*	*	*	*	*	*	*	*	*	*	*	*	*	*
2ryy	8C/L	.	8A/L	.	8a/L	.	16ff\LL	.	.	.	.	.	.	.	.	.	.	.	.	.	2ff\	.	2aa\	.	2a/	.	2ff\	.
.	.	.	.	.	.	.	16cc\JJ	.	.	.	.	.	.	.	.	.	.	.	.	.	.	.	.	.	.	.	.	.
.	8C/	.	8A/	.	8a/	.	16r	.	.	.	.	.	.	.	.	.	.	.	.	.	.	.	.	.	.	.	.	.
.	.	.	.	.	.	.	16cc\	.	.	.	.	.	.	.	.	.	.	.	.	.	.	.	.	.	.	.	.	.
.	8C/	.	8A/	.	8a/	.	24ff\LL	.	.	.	.	.	.	.	.	.	.	.	.	.	.	.	.	.	.	.	.	.
.	.	.	.	.	.	.	24ee\	.	.	.	.	.	.	.	.	.	.	.	.	.	.	.	.	.	.	.	.	.
.	.	.	.	.	.	.	24ff\JJ	.	.	.	.	.	.	.	.	.	.	.	.	.	.	.	.	.	.	.	.	.
.	8C/J	.	8A/J	.	8a/J	.	24aa\LL	.	.	.	.	.	.	.	.	.	.	.	.	.	.	.	.	.	.	.	.	.
.	.	.	.	.	.	.	24gg\	.	.	.	.	.	.	.	.	.	.	.	.	.	.	.	.	.	.	.	.	.
.	.	.	.	.	.	.	24ff\JJ	.	.	.	.	.	.	.	.	.	.	.	.	.	.	.	.	.	.	.	.	.
=128	=128	=128	=128	=128	=128	=128	=128	=128	=128	=128	=128	=128	=128	=128	=128	=128	=128	=128	=128	=128	=128	=128	=128	=128	=128	=128	=128	=128
2ryy	8C/L	.	8e\L	.	8b-/L	.	16gg\LL	.	.	.	.	.	.	.	.	.	.	.	.	.	2cc/	.	2gg\	.	2b-/	.	2gg\	.
.	.	.	.	.	.	.	16cc\JJ	.	.	.	.	.	.	.	.	.	.	.	.	.	.	.	.	.	.	.	.	.
.	8C/	.	8e\	.	8b-/	.	16r	.	.	.	.	.	.	.	.	.	.	.	.	.	.	.	.	.	.	.	.	.
.	.	.	.	.	.	.	16cc\	.	.	.	.	.	.	.	.	.	.	.	.	.	.	.	.	.	.	.	.	.
.	8C/	.	8e\	.	8b-/	.	24gg\LL	.	.	.	.	.	.	.	.	.	.	.	.	.	.	.	.	.	.	.	.	.
.	.	.	.	.	.	.	24ee\	.	.	.	.	.	.	.	.	.	.	.	.	.	.	.	.	.	.	.	.	.
.	.	.	.	.	.	.	24cc\JJ	.	.	.	.	.	.	.	.	.	.	.	.	.	.	.	.	.	.	.	.	.
.	8C/J	.	8e\J	.	8b-/J	.	24bb-\LL	.	.	.	.	.	.	.	.	.	.	.	.	.	.	.	.	.	.	.	.	.
.	.	.	.	.	.	.	24aa\	.	.	.	.	.	.	.	.	.	.	.	.	.	.	.	.	.	.	.	.	.
.	.	.	.	.	.	.	24gg\JJ	.	.	.	.	.	.	.	.	.	.	.	.	.	.	.	.	.	.	.	.	.
*	*Xtremolo	*	*Xtremolo	*	*	*	*	*	*	*	*	*	*	*	*	*	*	*	*	*	*	*	*	*	*	*	*	*
=129	=129	=129	=129	=129	=129	=129	=129	=129	=129	=129	=129	=129	=129	=129	=129	=129	=129	=129	=129	=129	=129	=129	=129	=129	=129	=129	=129	=129
!	!	!	!	!	!	!	!	!	!	!	!	!	!	!	!	!	!	!	!	!	!	!	!	!	!	!	!	!LO:DY:a
2ryy	8F\L	.	8f\L	.	8a/L	.	4aa\	.	.	.	.	.	.	.	.	.	.	.	.	.	4ff\	.	4aa\	.	4a/	.	4aa\	f
.	8F\	.	8f\	.	8cc/	.	.	.	.	.	.	.	.	.	.	.	.	.	.	.	.	.	.	.	.	.	.	.
.	8A\	.	8f\	.	8cc/	.	24aa\LL	.	.	.	.	.	.	.	.	.	.	.	.	.	8r	.	8r	.	8r	.	8r	.
.	.	.	.	.	.	.	24bb-\	.	.	.	.	.	.	.	.	.	.	.	.	.	.	.	.	.	.	.	.	.
.	.	.	.	.	.	.	24ccc\JJ	.	.	.	.	.	.	.	.	.	.	.	.	.	.	.	.	.	.	.	.	.
!	!	!	!	!	!	!	!	!	!	!	!	!	!	!	!	!	!	!	!	!	!LO:LB:g=original	!LO:DY:a	!	!LO:DY:a:rj	!	!LO:DY:a	!	!
.	8A\J	.	8f\J	.	8cc/J	.	24cc\LL	.	.	.	.	.	.	.	.	.	.	.	.	.	8f/	f	8ff\	f	8cc\	f	8ee-X\	.
.	.	.	.	.	.	.	24dd\	.	.	.	.	.	.	.	.	.	.	.	.	.	.	.	.	.	.	.	.	.
.	.	.	.	.	.	.	24ee-X\JJ	.	.	.	.	.	.	.	.	.	.	.	.	.	.	.	.	.	.	.	.	.
=130	=130	=130	=130	=130	=130	=130	=130	=130	=130	=130	=130	=130	=130	=130	=130	=130	=130	=130	=130	=130	=130	=130	=130	=130	=130	=130	=130	=130
*	*tremolo	*	*	*	*	*	*	*	*	*	*	*	*	*	*	*	*	*	*	*	*	*	*	*	*	*	*	*
!	!	!	!	!	!	!	!LO:SIC:v:s=16ee-\LL	!	!	!	!	!	!	!	!	!	!	!	!	!	!	!	!	!	!	!	!LO:SIC:v:s=16ee-\LL	!
2ryy	8B-\L	.	8f\L	.	8dd\L	.	16ee\LL	.	0r	.	.	0r	.	.	0r	.	.	0r	.	.	8f/L	.	8ff\L	.	16cc\LL	.	16ee\LL	.
.	.	.	.	.	.	.	16dd\	.	.	.	.	.	.	.	.	.	.	.	.	.	.	.	.	.	16b-\J	.	16dd\J	.
.	8B-\	.	8f\	.	8dd\	.	16cc#X\	.	.	.	.	.	.	.	.	.	.	.	.	.	8f/J	.	8ff\J	.	8b-\J	.	8dd\J	.
.	.	.	.	.	.	.	16dd\JJ	.	.	.	.	.	.	.	.	.	.	.	.	.	.	.	.	.	.	.	.	.
.	8B-\	.	8g\	.	8dd\	.	24gg\LL	.	.	.	.	.	.	.	.	.	.	.	.	.	4r	.	4r	.	8b-\L	.	8dd\L	.
.	.	.	.	.	.	.	24ff#X\	.	.	.	.	.	.	.	.	.	.	.	.	.	.	.	.	.	.	.	.	.
.	.	.	.	.	.	.	24gg\JJ	.	.	.	.	.	.	.	.	.	.	.	.	.	.	.	.	.	.	.	.	.
!	!	!	!	!	!	!	!	!	!	!	!	!	!	!	!	!	!	!	!	!	!	!	!	!	!LO:SIC:v:t=custos a	!	!	!
.	8B-\J	.	8g\J	.	8dd\J	.	24bb-\LL	.	.	.	.	.	.	.	.	.	.	.	.	.	.	.	.	.	8dd\J	.	8gg\J	.
.	.	.	.	.	.	.	24aa\	.	.	.	.	.	.	.	.	.	.	.	.	.	.	.	.	.	.	.	.	.
.	.	.	.	.	.	.	24gg\JJ	.	.	.	.	.	.	.	.	.	.	.	.	.	.	.	.	.	.	.	.	.
*	*Xtremolo	*	*	*	*	*	*	*	*	*	*	*	*	*	*	*	*	*	*	*	*	*	*	*	*	*	*	*
!	!	!	!	!	!	!	!	!	!	!	!	!	!	!	!	!	!	!	!	!	!	!	!LO:LB:g=original	!	!LO:LB:g=original	!	!	!
=131	=131	=131	=131	=131	=131	=131	=131	=131	=131	=131	=131	=131	=131	=131	=131	=131	=131	=131	=131	=131	=131	=131	=131	=131	=131	=131	=131	=131
*	*	*	*tremolo	*	*	*	*	*	*	*	*	*	*	*	*	*	*	*	*	*	*	*	*	*	*	*	*	*
!	!LO:TX:t=P:problem:mixed beam	!	!	!	!	!	!	!	!	!	!	!	!	!	!	!	!	!	!	!	!	!	!	!	!LO:TX:t=P:problem:mixed beam	!	!	!
2ryy	8c\L	.	8c/L	.	8a/L	.	8.ffn\L	.	.	.	.	.	.	.	.	.	.	.	.	.	8ff\L	.	8aa\L	.	8.a/L	.	8.ff\L	.
.	8c\	.	8c/	.	8f/	.	.	.	.	.	.	.	.	.	.	.	.	.	.	.	8ff\	.	8aa\	.	.	.	.	.
.	.	.	.	.	.	.	16gg\Jk	.	.	.	.	.	.	.	.	.	.	.	.	.	.	.	.	.	16ff\Jk	.	16gg\Jk	.
!	!	!	!	!	!	!	!LO:TX:a:t=t	!	!	!	!	!	!	!	!	!	!	!	!	!	!	!	!	!	!	!	!	!
.	8C/	.	8c/	.	8f/	.	4gg\	.	.	.	.	.	.	.	.	.	.	.	.	.	8cc\	.	8gg\	.	8ff\L	.	4gg\	.
.	8C/J	.	8c/J	.	8e/J	.	.	.	.	.	.	.	.	.	.	.	.	.	.	.	8cc\J	.	8gg\J	.	8ee\J	.	.	.
=132	=132	=132	=132	=132	=132	=132	=132	=132	=132	=132	=132	=132	=132	=132	=132	=132	=132	=132	=132	=132	=132	=132	=132	=132	=132	=132	=132	=132
2ryy	8F\L	.	8c/L	.	8f/L	.	16ff\LL	.	.	.	.	.	.	.	.	.	.	.	.	.	4a/	.	4ff\	.	4ff\	.	4ff\	.
.	.	.	.	.	.	.	16aa\	.	.	.	.	.	.	.	.	.	.	.	.	.	.	.	.	.	.	.	.	.
.	8F\	.	8c/	.	8f/	.	16ccc\	.	.	.	.	.	.	.	.	.	.	.	.	.	.	.	.	.	.	.	.	.
.	.	.	.	.	.	.	16bb-\JJ	.	.	.	.	.	.	.	.	.	.	.	.	.	.	.	.	.	.	.	.	.
.	8A\	.	8c/	.	8f/	.	16aa\LL	.	.	.	.	.	.	.	.	.	.	.	.	.	8r	.	8r	.	8r	.	8ff\L	.
.	.	.	.	.	.	.	16ccc\	.	.	.	.	.	.	.	.	.	.	.	.	.	.	.	.	.	.	.	.	.
.	8A\J	.	8c/J	.	8f/J	.	16cc\	.	.	.	.	.	.	.	.	.	.	.	.	.	8f/	.	8ff\	.	8cc\	.	8ee-X\J	.
.	.	.	.	.	.	.	16ee-X\JJ	.	.	.	.	.	.	.	.	.	.	.	.	.	.	.	.	.	.	.	.	.
*	*	*	*Xtremolo	*	*	*	*	*	*	*	*	*	*	*	*	*	*	*	*	*	*	*	*	*	*	*	*	*
!	!	!	!	!	!	!	!LO:LB:g=original	!	!	!	!	!	!	!	!	!	!	!	!	!	!	!	!	!	!	!	!	!
=133	=133	=133	=133	=133	=133	=133	=133	=133	=133	=133	=133	=133	=133	=133	=133	=133	=133	=133	=133	=133	=133	=133	=133	=133	=133	=133	=133	=133
!	!LO:TX:t=P:problem:mixed beam	!	!	!	!	!	!	!	!	!	!	!	!	!	!	!	!	!	!	!	!	!	!	!	!	!	!	!
2ryy	8B-\L	.	8B-/L	.	8f/L	.	8dd\L	.	.	.	.	.	.	.	.	.	.	.	.	.	8f/	.	8ff\	.	4f/	.	4dd\	.
.	8B-\	.	8d/	.	8f/	.	16dd\L	.	.	.	.	.	.	.	.	.	.	.	.	.	8r	.	8r	.	.	.	.	.
.	.	.	.	.	.	.	32cc\L	.	.	.	.	.	.	.	.	.	.	.	.	.	.	.	.	.	.	.	.	.
.	.	.	.	.	.	.	32b-\JJJ	.	.	.	.	.	.	.	.	.	.	.	.	.	.	.	.	.	.	.	.	.
.	8c\	.	8c/	.	8f/	.	8a/L	.	.	.	.	.	.	.	.	.	.	.	.	.	8ff\L	.	8aa\L	.	8a/L	.	8ff\L	.
!	!	!	!LO:SIC:v:t=custos c	!	!	!	!LO:TX:a:t=t	!	!	!	!	!	!	!	!	!	!	!	!	!	!	!	!	!	!	!	!LO:SIC:v:t=custos ff	!
.	8C/J	.	8c/J	.	8e/J	.	8g/J	.	.	.	.	.	.	.	.	.	.	.	.	.	8cc\J	.	8gg\J	.	8g/J	.	8een\J	.
!	!LO:LB:g=original	!	!LO:LB:g=original	!	!	!	!	!	!	!	!	!	!	!	!	!	!	!	!	!	!	!	!	!	!	!	!LO:LB:g=original	!
=134	=134	=134	=134	=134	=134	=134	=134	=134	=134	=134	=134	=134	=134	=134	=134	=134	=134	=134	=134	=134	=134	=134	=134	=134	=134	=134	=134	=134
*	*	*	*	*	*^	*	*^	*	*	*	*	*	*	*	*	*	*	*	*	*	*	*	*	*	*	*	*	*
!	!LO:TX:t=P:problem:mixed beam	!	!	!	!	!	!	!	!	!	!	!	!	!	!	!	!	!	!	!	!	!	!LO:TX:t=P:problem:mixed beam	!	!	!	!	!	!	!
2ryy	8F\L	.	8c/L	.	8f/L	8ryy	.	8f/L	8ryy	.	2r	.	.	2r	.	.	2r	.	.	2r	.	.	8a/L	.	8ff\L	.	8a/L	.	8ff\L	.
.	8C\	.	8c/	.	8a/	8f\L	.	8ff/	8a\L	.	.	.	.	.	.	.	.	.	.	.	.	.	8ff\	.	8aa\	.	8a/	.	8ff\	.
.	8FF/J	.	8c/J	.	8a/J	8f\J	.	8ff/J	8a\J	.	.	.	.	.	.	.	.	.	.	.	.	.	8ff\J	.	8aa\J	.	8a/J	.	8ff\J	.
.	8r	.	8r	.	8r	8ryy	.	8r	8ryy	.	.	.	.	.	.	.	.	.	.	.	.	.	8r	.	8r	.	8r	.	8r	.
*	*	*	*	*	*v	*v	*	*	*	*	*	*	*	*	*	*	*	*	*	*	*	*	*	*	*	*	*	*	*	*
*	*	*	*	*	*	*	*v	*v	*	*	*	*	*	*	*	*	*	*	*	*	*	*	*	*	*	*	*	*	*
==	==	==	==	==	==	==	==	==	==	==	==	==	==	==	==	==	==	==	==	==	==	==	==	==	==	==	==	==
*-	*-	*-	*-	*-	*-	*-	*-	*-	*-	*-	*-	*-	*-	*-	*-	*-	*-	*-	*-	*-	*-	*-	*-	*-	*-	*-	*-	*-
!!!system-decoration: [(g1)][(g2)][(g3)][(g4)]<s13>
!!!RDF**kern: < = below
!!!RDF**kern: | = vertical stroke
!!!RDF**dynam: f = "for:"
!!!RDF**dynam: p = "p:"
!!!ENC: Andrzej Borzym
!!!END: 2020-09-17
!!!AIN: 1 alto 1 bass 1 cbass 2 oboe 1 organ 1 soprn 1 tenor 2 tromp 1 viola 2 violn
!!!ENC: Andrzej Kubiczek
!!!END: 2022-02-01
